/* XPM */
static char *_eff755bcbb14d5cb00baa9f549eb13aq6UjUNwrbIJ51mEA[] = {
/* columns rows colors chars-per-pixel */
"250 250 173 2 ",
"   c #2B2B29",
".  c #372D2E",
"X  c #31312F",
"o  c #454544",
"O  c #494543",
"+  c #454846",
"@  c #4A4947",
"#  c #464B49",
"$  c #4C4D4B",
"%  c #524C46",
"&  c #534E4C",
"*  c #47504B",
"=  c #4D514E",
"-  c #52524E",
";  c #59524E",
":  c #514F50",
">  c #4E5250",
",  c #4F5854",
"<  c #535453",
"1  c #5A5554",
"2  c #555956",
"3  c #5A5956",
"4  c #595758",
"5  c #565B5A",
"6  c #5C5D5C",
"7  c #635A57",
"8  c #615758",
"9  c #625E5D",
"0  c #695E5E",
"q  c #57605D",
"w  c #5C615F",
"e  c #62615F",
"r  c #69615F",
"t  c #5D5F61",
"y  c #625F60",
"u  c #685F60",
"i  c #5E6361",
"p  c #5E6965",
"a  c #5F6769",
"s  c #5F6E69",
"d  c #636564",
"f  c #6A6565",
"g  c #646966",
"h  c #696966",
"j  c #646669",
"k  c #696768",
"l  c #666B69",
"z  c #6B6C6B",
"x  c #736565",
"c  c #716966",
"v  c #706768",
"b  c #716D6C",
"n  c #67706C",
"m  c #6C716E",
"M  c #71716E",
"N  c #78706D",
"B  c #79716E",
"V  c #78736F",
"C  c #7A716E",
"Z  c #676F71",
"A  c #6B6E71",
"S  c #716F70",
"D  c #716F70",
"F  c #786F70",
"G  c #6F7170",
"H  c #6E7271",
"J  c #6F7372",
"K  c #6E7271",
"L  c #6F7874",
"P  c #6F7779",
"I  c gray44",
"U  c #717171",
"Y  c #717370",
"T  c #727270",
"R  c #737371",
"E  c #737270",
"W  c #717372",
"Q  c #727272",
"!  c gray45",
"~  c #747371",
"^  c #777370",
"/  c #777372",
"(  c #727471",
")  c #707473",
"_  c #727473",
"`  c #737572",
"'  c #757470",
"]  c #767571",
"[  c #757670",
"{  c #777671",
"}  c #757472",
"|  c #767573",
" . c #777672",
".. c #717574",
"X. c #737574",
"o. c #757575",
"O. c #747675",
"+. c #777674",
"@. c #777777",
"#. c #737472",
"$. c #7B7370",
"%. c #787471",
"&. c #7A7571",
"*. c #797572",
"=. c #787772",
"-. c #7B7672",
";. c #7C7773",
":. c #787775",
">. c #7A7675",
",. c #797574",
"<. c #777976",
"1. c #757976",
"2. c #797873",
"3. c #797874",
"4. c #7B7A75",
"5. c #797876",
"6. c #7A7977",
"7. c #787A77",
"8. c #7C7875",
"9. c #7D7A75",
"0. c #7E7976",
"q. c #7E7B76",
"w. c #7F7C77",
"e. c #797976",
"r. c #757678",
"t. c #797778",
"y. c #767A78",
"u. c #7A7A78",
"i. c #7C7B79",
"p. c #7A7C79",
"a. c #7D7C7A",
"s. c #7F7F7D",
"d. c #7B7C7A",
"f. c #807B77",
"g. c #807778",
"h. c #817E79",
"j. c #837E7A",
"k. c #817D7C",
"l. c #7D817E",
"z. c #81807B",
"x. c #83827D",
"c. c #84837E",
"v. c #81817E",
"b. c #88837F",
"n. c #89827F",
"m. c #887F80",
"M. c #7E8281",
"N. c #848482",
"B. c #898580",
"V. c #8A8683",
"C. c #8A8484",
"Z. c #868886",
"A. c #898883",
"S. c #898986",
"D. c #868A89",
"F. c #8C8D8A",
"G. c #908788",
"H. c #938D8C",
"J. c #8E918F",
"K. c #92928E",
"L. c #8F9291",
"P. c #949593",
"I. c #999695",
"U. c #959897",
"Y. c #9A9997",
"T. c #9C9C9B",
"R. c #A09F9D",
"E. c #A1A19F",
"W. c #9DA1A0",
"Q. c #A4A5A1",
"!. c #A9A5A4",
"~. c #ACADA8",
"^. c #B0AFAD",
/* pixels */
"3 f d 6 f z f d d e 9 9 e d d e 3 < < d h d 6 6 d d f z z z M +.h h z E E A E @.h z A A E +.E z h z z E E z z l ( ( M c V =.; k.h =.z.5.c z M =.=.N N b c c b N h z M } +.} M z M M M z z z E +.c z z z z z d e e 6 6 w d d g g g z m +.+.+.M z 5.a.} } d 3 h e d d d d d d e w w w e e w 5 2 < d d d 6 6 e d d h z z M z z z z z E E z z E G z ( X.X.G m z z z M m m m m M M { M M M 3 9.h =.} z h h z z M z h h h f f h z z z z E E z h h j f f f f h h f f j z z h f d d d d f h h h h z z E +.} ~ E V =.9.9.>.h ",
"z +.E z ~ 5.} ~ b z z h h z h f d 6 6 d f d 6 3 d e d h h h h z h z E +.E z z z ! ! E z A +.+.! z S E +.+.X.G m ( ( M M =.9.1 C.=.v.A.c.9.9.q.k.=.=.$.N b b N ;.:.+.+.u.a.s.a.a.u.u.5.+.+.+.u.s.~ V b b M b z h f d d d d g g g z z E X.+.+.E E ~ :.M } f e M z z M E ( E m z z z z h g d d e e d d d 6 3 6 e e d f h h h z z E E +.E z z E G z X.X.( G z z z z M M M m M M M M M M 2.e C.V =.V 5.+.E E } } E M h h h h z z h h h z E z z z z h h f j h z h h h E E A z h h f d f j h h h z z E +.+.+.} ~ ~ ~ ~ 9.b ",
"M i.:.b +.a.5.5.} ~ z z z h h f f h f d f f e 3 d 6 6 f h h f f h z +.+.+.E z h E E A z z ! ! A z z E E ( G m m ( ( M M =.9.1 n.c } 5.} b b b c b b c c c b b V h f d f h z M M z z z h h h z M :.~ M M E ~ E E h h d d d f g g z m G E E ( } } M } c } h f 9.=.z ( 5.d.<.( E M m z z g d d d d d d d 6 6 e e 6 d d f f f h z E +.+.~ z h z G G E X.( G m l l z M M M M M M M M M M =.9 C.=.9.} i.5.} E E E M M h h z M M z f d f z z z z z z z h h h z A z z E E ! +.+.E z h f f f l h h z S E E ~ } +.=.V V V =.f ",
"h } M h M :.+.5.} M z z h h f d d h h d d h h 6 f w e f z z h f f z E +.+.+.E z h z E E E ! z f h z z G G G m m ( ( M M V =.& f.c V } M V V b h h h h f f f c b f d d d f h h h z z z h h h z M ~ ~ M M E E E E z h d e d d d d z z z m m G M M } } z } f e =.V f m <.5.} m z m z z h g d d d d d f f d d d d 6 h h h h h h z z +.+.+.z z A E G E E G G z l l l J M M ( M M M M { M M < k.V 9.=.5.+.E z z z z z z M M E M z f d f h z h z z G A z h z E E E E +.E E +.+.E z h f f f l h h z S E z b M E V ~ =.=.V r ",
"e M b h b +.+.5.} ~ b z z z z z e f f e d h h e f e e f z z h h f z A z E @.@.E z E E ! +.+.E h z z E ( ( ( J J m ( M m V V & 9.V } M M } } V h z z c b b c c c h f f h h h h f z z z z z z M E c b ~ ~ ~ E M M z h f d d d d d l l z G E G m z } M z M f 6 c z f m <.5.} M M M z z m m z h f d f f f d d f d 6 f h z z h h h h z ! +.E E E E G m m G m z l l n m m m m M M M m { M z - a.M 5.} 5.:.} E M M M E E E E M z h h f f z z h h z z z z z z E E E E +.E E ! E E z h h j h h h h z A E E z z b M ~ =.:.=.f ",
"3 z z f z ~ ~ +.~ M z z z b z z d f d d d d d d d e 6 d h h h h z E E z z @.@.E E E z h h z E z z z m G G G m m m J M M } 5.- k.z z z z z M b f b h h b c c c h d d d f f d d 6 f h h h f f h h z b ~ } ~ M z z z z h g h h l g l z m G ( E m m M M z } f 3 h h h z ( ( ( M M E z z m m z h d d d d d e d f d 6 e d h h h h h h h E +.+.E E G z z z z z z z m K m m m m m M M M M M } 3 c.M } M +.:.+.E M z M E E E M z h f h h j z h j f h h h z z z A E z E +.+.! E E z z z z h z z z z z A E +.E M z b M ~ =.=.h ",
"1 h z d h z h z b z z z z z h h f d d d d e e f f d d d f d f h z E E z z u.@.z z z f d d h z h z z m m m K m m m ( } M =.9.; z.} +.+.} +.:.~ z f f f f z f f d f f h h h h h f h h z h h h z z z b M M b z z z z h h h z z z l l z z m G G M M } ( m 5.h 3 h h h h h z z z z m z z z h g d d e d d e e d h f e 6 d f h h z z M h E @.+.E z z z l h z z z z K J m m m m m J <.<.( } 5.6 v.b } ~ +.+.+.E z z z z z z z h f d f h f h h f d f h j z h h z z z z E E E E A z z z h z A z z z z z E E E E E E ~ ~ } 9.c ",
"1 h z f h h f f M b z z z z h h f e e d d 6 d z h h f f d d f z h E E z E u.u.A z z z h h z z j +.X.X.( J J J J ( <.{ } } =.- q.M } } E E } M z f f f f f f f 9 6 6 6 6 e d d e d d d d d d d f b c z z h h h z g g g z z z l g z l l l l z m M d.<.M a.z 3 f e h g d d g z z m z z z h d d d d f f d e d z h d d f h h h z E +.h ! u.+.z z z l f l z z z z G J m m m m J ( <.d.5.<.<.2 5.h +.5.5.u.u.+.M z h z g h h g d d d f f h h d d f h f z h h h z h h z z z A z z h h f E E E z z z z E z z E E +.:.:.:.c.=.",
"d z M z f f f f z z z z h h h z d d d d d f f h h h f d d f h z z z z E E ! E A z h j j h z z z ( ( E G J J L L J J m M } 5.- q.M E } <.:.+.E M z z z h f d 9 9 d w 6 6 6 6 e d d d d d e e d d f f h z z z z h z z z m z z g g l l l l l z n m ( } <.( z h h z g f d d f z m E h h g g f f d d f d d d h z h f f f h g h z z M h A E z z z h d f l z K G G G G m m m m J J [ 1.<.( d.< u.E E } +.5.5.} b z z z h h h d e 6 d f 6 6 d f f f f f d d f l f d f z z E E z h z E z E z z z h h z z z z z G ! +.:.+.5.:.",
"f z z h d f z z z z z z h f h h d d d d f f f f z z z h d d f h A A E E +.E E z h j f f h z A A E G E J J J L L J J m M { q.1 z.z M ( } +.E M b z h h f f d 9 6 d d w 6 6 e e d d d d d d d d d f f h z z z z h z z z z z z g g l l l l l l z n M ( { ( m h h h f f g g h h z z h g g g g f d d h d e d h z z h h f f g h h z M A ! E z z z l d g h z G G G J J J J J J J ( ( [ <.( a.2 d.E E } +.+.+.E M z z z f f d d e d f h 6 d d f f f f f f f f h l f l z h A E z h z E A z z z z h z z z h z z A E E ! +.5.:.",
"h z z d d h b E z z z h h f h h g h f f f f f f M M M z h f f h E E +.+.+.+.z z h f f f h z E +.G G E J J J K K J J m m } 5.1 v.z m E E E E z z z z k f d u y y f d d e e e e d d d d d d d f h f f h z z z z z M b z z z h l z l g l g g l l l z m } ( m h h h d f g z z g g d h h g g g f f f h f d d h z M b h h g g h z z E +.@.+.z h h f i g h z G G G J J K K J J J J G G X.G d.2 u.G z E } } M M M b z z f d d d d f h h d d f f f d d f f f f h h f h z k z z z z z E A z z z z z z z z j z A A z z E ! E ~ ",
"h z h d e f z b z z z h f f h h h h g g h h h h z z z z z h z z ! +.+.u.u.+.z h h h f f h A ! X.G G G J J J m m m m z h M { < v.z z G G G G z z b z h f d d d d g f f d d d d d d d d d d d f h d f h z z z z z M b z h h h l z l l l l l l l z l n M M m h h f d d g h h g g d h h g g g g g f h h d f h z M b z h h h h z M } @.@.E z h h f d g h z G G G J J m K K K m m z z G z u.< y.z h h } M z z M M z h h d e d f h h f d d f d d d d d f d f h h l h z h h z z z z E E h h h h z z z z j z A A z z A ! M E ",
"h z h d d d h f h z h h f f h h h h h h h z z z h z z z z z z M E ! +.@.@.! z h z h h h h z E E z G G G K K n n n m n z m { < N.z z z m G z z z E z z h f f f f h h f f d d d d e e e e e d f h f f h z h z z z M z z g g g z z z l l g l l l z g z n m m h f f d d d g g h h h h h h g g g g g f h h z z z z z z z h h z z E } +.+.E z h h h l f l z m m m K J m m K n m z l l G m y.< <.z h z E M z z M M z h h f d d f h f d d d d d y 6 6 i d d d h h h h z z h z z E z A A h h h z z z z z l A J G z z z E +.+.",
"h z h f f h f d h z z h h h h z h h h h z z z b z z z z h h z z z E E ! +.E z h z z z z z z A z z G m m m m n n m L L m ( 7.3 A.z z m m G G z z E A z z k k k f h h f f d d d d e e d e e d d g f h z z h h z z z h g f d g z l m n l l l l l z d g h n z h h f f d d d f h z z h h h h h g g g f h z z z z h h z z h h z z M E E E E h h z z z l z z m z z m m K m K n K K G J X.( d.< u.m z m E M z z z z z z z h f f f f d d d d d d 6 6 6 d d t d j h h h h z h z A E z z z j h h z z z z z A A G A z z z z E E ",
"h z z f h z z f z z z h h h z z h h z z z z z z z z z h h h h z z z z A E E z h z z z z b E b z G K m z l l n n m [ 1.[ <.a.3 S.m G G G G G G G z z z z z h f f f f f f f d f d d d d d d d f g f z z z h f h z f f d d d g g l m n l g g g l l d d f l h h h f g g g g g h h z h h h h h h h h h h z z z h h h h h h h h z z z z E E z z z m z z z G G m z m m m n n l n K X.1.y.1.d.2 d.E G E E E E M z z z z h h h h d d d d f f f d d y d d d 6 d h z z h h z h h z z h f f j h h z z z z h A A A z z z z l z h ",
"z z z f h z b z z z z z h h z z z z z z z z z z h z h g f g h z h h h z z S z z z z z A E E b z G m z l l l n n m [ <.[ <.7.3 A.M G G G E E E E z z z z h h f f d d d f f f f f d d d d d d f h h z z z f d h z d d d d d g h l z l l l g g g l d d d f h h h h z z h h h h g g h h h h h h h h z z z h h g h h d f f h h h h g z G E z z m m z z G G G G z z m n l g g l m X.y.y.X.d.< y.m m E E } } E z h z z f h h h d d d f f f f f d d d f f i d h z z z z E h h z z f d d j h h z z z h h A l l l z z j j z h ",
"z h h z z h f f f f j l h h h h d d h z z z l d l d d d h z l d e d f h c z c z z z z z b z b b h h z z z z z l l m <.d.5.{ 3 P.<.( m m E E E z m z h h z z z h z h f f h h h f f l f f d d f l h h f f d d d f f f f h z E z l z z z l g g g g g l l h h g f g g l l l l l g d d l z z d i d g l l f d d d f g f l l g d d f l z z z z z l l l m n z z z z n n n l g g g n J ( 1.<.J w d.( ( +.<.} ( m z z h h h h h g g g g h l l l l l g d d d d f l z z h g l d d d h h d i z z m z z h h z z z l j j j j h S h ",
"z h h z z h d d f f j l h l f f d d d g l d d d l d d d l l g d e d f h z c b z f f f f h z z c h z z z z z l l z m [ <.5.{ 3 J.+.X.E ( X.X.E G z z h h z z z z z h h j h h j f d f f f d f l h f f d d d d d d j f d f h z h f h z z l l g g g p p d d f d e d h l l l g d d d d l l g i i i d l g d d d d d g d g l d d d d l z z z z l l g g l l l z z z z l z l g g g n m J 1.<.m 5 <.M E } <.} E m z z h h h z z z h g d d l d d d d d d i d d d l l l g d f d d f h h f d h z z z h h h z A z l j j j h h h f ",
"z h f h h f d d f f l h h f f d d d d f f f d d z l f f l l d d e d f h h z z z z z h h h z z M b z z z z l l l m m m [ { M - S.M G m G E G z h h h l h z z z z h h z h j f f j d d d f f f h z l f f f d f f l h f d f l h h f f l z z l g g g g p d d d d e e z l l d d d d d l l d d i i i d d d d g l l g d d d d d d d d l l l l g l g g g l z z m m m m m z l l g l n m m ( ( z 2 ( z z E ( ( M z z h h h z z z z z g d d g d d i i i i d g g g l l l d i d d f l h l g g g l h l l l h z A z z l l l h h h d ",
"z h d h h d d d f f h h h f d d f f f f g l h h z l f f f f d d d d d g h h h h b z z h h z M E +.~ E m z z m m ( m m M M M < K.z z z m z z l f h l l h h z h l h z z z f f f j d d f f f f h z f f f d f f h h f f f l h h f f d f h z l l g g g l l d f f h f h l d d d d g l z l d d d d d d d d g l l l g d d d d d d d g l g g g g g g g g l z m J ( ( m m m n n l z m m m m J l 2 ( z z z E M m z z h h h h z h h g g d d g d d i i i i d g d d g l l d d i d g h h l l h h h h l f f l h A A z z z z h h h f ",
"z h f h h d d d f h h h h f f d d d f g h z z m z l g d d d d d d d f g h g h h z h f f d h z z +.+.E G m m m m ( J m m h h 3 E.z G E E G z h l h l l l l g d d j h z h j f f f d f f f f f f l d d i 6 i d d f f f h z z z f d f f z z l l l l n m n d f h h f f d d i d d l l z l d i d d d d d d g l l l g d i d i d d d g l g g g g g g g g d g z n m m m n m m n n m m m m l m h 3 } z h h m m z z h h h h h g d d d d f g l l g d i i d g d d d d g l g d i d g h h h h z z z z h f f l h z z z z z z z z h f ",
"m h d h h d d d f f f f f f f f d d d f l h z z h h g d d d d d f f g g g g h h z z h h h z m m E E E G z z z z J m m m h f 3 ~.z m G m z h l l h h l l l f d w f h h h h j f f f f h h f d d f d d d d d d f f f l h z z z j f f h z z z l l l l m n d e h h d d d i d d d g l d d d i i i d d d d l l l l g d i i i i d l l l g g g g g g l l g l z n m m m m m m m m m m m m g z g 2 } z z z z z z h h g g h h f d w w d f h g l l d i i d g d d i d d l g d d d f g h h h l z z z h g g h z z A A A A A z z h d ",
"M h f h g d d d d d d d d d f f d d f f h g h h h f f d d d d d g g g g g l g l m m m n m m J E E S E G m z z l m l l z f d 3 Q.z z z z l f f l h h h h h l d i f f g l z h l f d g l l f d d f l l f f f l l h f l l h h l l l h z z z z l n m l m n w e h h e f d d d d d d d w i d d i i d g g l l l l l g d i i q i d l l l g g g g l l l l z z n m m m m m n n n n z z z z g z d < M z z M z z h h g g g g h g d d e d d d d l l l d i d g l d d d d d d d d i i d l l l d z z l l g l z G l A A A K G z z f i ",
"M h f h h d d d d e i 6 6 d d f h h h h h g f f h h f d d d d f h g g g g l l l z z z z z m m m E E E E E m n z n d d l h d - T.E E E m h l h z h l h z z z l d f f d l z z l d d f l l g d f f l g d d d f l l l l f d d f h z z z z z z l n m l m n e e h h e g g g d d i i q 6 d l l d i g z l l l l l g d d i i 6 i d l l l g g g l l l l z l g l g z z n n z z z l l l l l g h w $ z h z } z h h g g g g g h h g f d d d e i g l l d i i d l l d d d d d i d i i d l z g i l l g l g l m ( Z A A A G G G z d i ",
"h h h h f f g g d d d d d d f f f f h h h h f d f d d d d d f g h g l z z z z n g l z z z z z z E S z G G G l g l w e h w 5.- J.+.( z z h l g f d f l h z z l d f f f f f f d d g d d i d f h z d d d d d d g g h l g f f l h h z z z z l l n m g g n n e f h f g g g d d d d d d d g l l l l z l l l l l l g g d d i d l z z l g g g g l l g g z g g g l z n n z z z l g g d d z g d 2 ~ E :.M h z z h g g g h h h g f d d e e d d d d d d d d 6 i d l l l d d i i p l l l l l l g p g l m K K Z A J G A z l l f d ",
"h h h f d d d d d d d d d d f f d f f f f d d d f f d d d f f h g g g g l l z z g g l z z z z z E S z m G G z l n i e z h F.e K.z l f d f l h z f f l z z z h l f d d d d d d d g f d i i d d f d d d d d f g l h l l g g h h z z z z z l l l n g g l l w d z f d d d d d d d d d d d g l l l l l l l l g g g d g d d d l l d d g g g g g g g d l g g g l z z z z z z z l g g g g g h 6 :.b z d d f h h g g f f z h g g d d d d i i i i i d d d 6 i d d l g d d p i p l l l g l l g g l z K K m Z A G K z l l z z f ",
"h h f d e e d e d d d d d d d d d d d d d e e e d d d e e d f h g g g g g g g g d g h z z z z z E z z z z z z l ( g e f h K.e c.f d d d f h z G g g g l z z l f i i i i d d i i d d i i i i i i d d d d d g l l l l l l l l z z E z z l l l g g g p l d w d z f d d d d d d d d i d d d d d g g g g g g d d d d d d d d g g d d g g g g g g g d g g g l z z z l z z z z z z h h d f z 9 ~ z h d e d h z h g d d h g d d d d d d i i i w i i i i 6 w i d d d d d g g g l z l g l l l l l m m m l Z Z z l l l l z l i ",
"h h h f e e e e e e d d d d d e e e e e e e e e e e e e e e d d f g f f f f f g d d h h h h z z b z h h h z z l J l e d h K.3 5.h h l h z m G G l g f f f f d i i i i i i i i i 6 w i i d i i i d d d d g l l z l l l l z z z z E z z l z l g p d p l l e f z e d d d d i i i i i i d d d d d d d d d d d d d d i i d d l l l l g g g g g g d d g d g g z z l g l l l l z z z z f h z 6 z h z z f h z z h g d d d e w 6 6 6 w e i i i w w i i i i i i i i d d g l l l m z l l l l l z m m m m l K Z l l l l l z l i ",
"z h h f d e d d e e d d d d e e 9 e e e e e e 9 e e e e e d d f f d f f f d d d e d f h h h h z z h f g l l l l l l l h h K.e N.z z z G ( E G z z l f d d d i 6 i i i i i i i i w i i d d d d i d d g g l z z z l l l z z z z z E z z z z z g p d p n n f h z e d d d i i w 6 6 i i i i i d d d d d d d d d i i i i d l l l l l g g g g d d d d d d g g l l g d g g g h h z h h h z b 6 b f b M z m m z h g g g e w 6 6 5 6 w w d i i i i i i i d d i i i d d l m l n m K l g l l n n m m n n n K Z l g l l l l z l ",
"h h h f d e d d e e d d d d e 6 6 9 9 e e 9 9 6 e e e e e d f h d d d d d d d d e d f f f f h h k f f g l l l l z z m m h S.3 S.h h z m E E G z m z l f f f d d d d d d d d d i d d d g d i i w d d d g l l z z l l l z z z z z m z z z z z l g l g n n h m m e d d d i i w 6 6 i i i i i i i i d d i i i i i i i d l l g d d d d d d d d d d d g d g g g l g d f g g g h z h h h z E d ~ h z h E E M z h g g h d d d d d d d d d d d i i i i d d d d i i i d g l g l m m l g l l n n m n l n n P K l l l z z l z l ",
"h h d d d d d d e e d d d d e 6 6 9 9 e e 9 9 9 e 9 9 9 e e r f e e e e d f d d e d f f f f f f k f f l z z l l m l z m e a.- c.h l l h z z z z z h f f f g l l l l g g d d i i d g g g d i i q i i i p d g l l g l l l z z m z z z G G m z l n m n n n f z m e d i i i i i i i i i i i i i i i i i i i i i i q 6 i d g d i i i i i d d d d d d g d d d d g g d g g h h h h h z h h z 6 b f h f h z z z h g g g d d f g g g g f d d d i i i i i d d d i i i i i l l g n n g g l l n n n l l n K P P K K K K K z z d ",
"d f e e e e d d e d f f d d e 6 6 9 9 9 9 9 9 9 3 3 3 3 7 9 9 e 9 9 9 9 9 d d d 9 d f f f f f f f f h h z z z l z d f m d a.- F.m z l f l h z z l f d i d g l l l l l l g d d i i i i d d d d i q q i i i d g l g g l l l z z z z z G G m z n n [ n z f d h m d w i i i d d d d i i i i i i i i i i i i i w w q 5 6 i d d i i d w w d d d d d g l g d d d d g d h h h z z z z z h f e - f d z z d g h z h g d d d d g h z h g f d d d i i i i i d d i i w 6 w w g p g g l l g g l l z l l g m K P J K K J J K z z d ",
"e e d d d d f f h f d d d d d d 6 9 e e 9 9 6 6 e 9 9 9 9 e e 9 d d f u 0 d f f f f u f f f f d h z z z z m z h m e e h b } 3 F.l g g d h z z z h h z z z m l l l l h g d i d g d d d d d i i q 6 i i i i l g p g l l g g g l l m z m m m K K K 1.X.m h h z z f i i d d d d d d d i i i i i i i d d i i i i i i d d i i d d d d w i d l l d i i d g l l l g d d h z z h z h h g g h h @ z 6 h h d g h h h h h z z z z z z f f h l d i w i i i 6 i i i i i i i i i p g l d d d g z l z z m m m z z m J J X.J G z z z ",
"f f d d d d f f d d t t i d i t i d d d d d d y y y d d d d 9 6 9 9 9 9 9 e f f 9 9 9 9 f f f d h z z z z E M h z g f h h b < v.i i d d l h h h z E ( J z l g l l l g f d d f f d d d d d i w 6 6 q q 5 5 i p i p p p p g l g g g l l l m z m m G G z l z z z g d d d d d i i i i i i i i i i i d d i d d d d d d d i i i i i i d d d g g d i i i d d d d g l l h h z z z z h g g h h + z 6 g g f h h h h h z E ! z z z h f d d f d d d d d i i i i i i w 6 6 6 5 6 i d d i d d l l l z z z z z l z m G G G G m l d ",
"f f d d d d f f 6 6 t t i d i t i d d d d d d d d d f f f d 6 6 9 9 9 9 9 e d d 7 9 9 9 9 9 9 e h z z z m ( E z M z z h d z & M 6 i d h h z h h z +.<.X.z g g g l f d d d f f d d d d d d i 6 6 6 q 5 , , 5 q q i i i i p p p g l l g l l z l l z z z h z z z f d d d d d i i 6 i i i i i i i i i i i i d d d d d d d i i i i i i d d d d d i i i i i i d l l z g z m M M m h f g g g o h 6 g f f h h h h h E +.+.z j j j f d d d d g l g d d d i i i w 6 6 5 5 2 5 6 w i i i d d g l l l l z z l l z z z G G G z d ",
"r e d e d d d d 6 6 i d d d i t 6 6 6 w y d d d f d f f f d d d e e 9 e 9 e e d 9 d f e 9 3 7 9 z n z z m } } M M M b d d ~ & f i d l z z b z z h E X.J l p p g g d d d g l g f d d d d d i w 6 q q q 5 5 5 q q q q i i i p p p p p g g l l l l l z m z z z z f d d d d d i i i i i i i i w 6 6 6 6 6 6 i i i i d d d i i i i i i i i d d d l l i i i i d l l z z z m E M m z h g g f o z 6 g d h h z h h z E +.! h d d f f f f i d l l g d i d i i i w 6 6 6 5 5 6 6 w i i i i d d g l l l z z z l l l z m E ( ( z ",
"f e d d e d d d d d d d d d i 6 6 6 6 6 6 i d i f d d i d d g l d d d d d d e e d f h f d 9 e d z m z z m +.+.E ~ M h d h a.< f d f h z z b b z k A +.G l i p g d d i d g h g d d d d d d d d i i i i i i i i i i i i i d d g g p g g n m l l l z G G z z z h f i i d d d d d i d d i i i 6 6 5 6 6 6 w i i i i i i d d d d d d i i i i d d l l d d d d d l l z m m m m m z z z h h g + z e h d z z z z h h z ! E h d d f f f f d d l l g i i i i i i i i i i i d i i i d d d d d g l l l l z m m m z l z m E X.( z ",
"h f f f d d f f d d t i d t t 6 i i i i i i d d d d i i i d l z h g f d d d d d d d f g f g h h z m z z m } +.E } z f d z a.1 f d d d f f k k k z E +.X.z g p p i d d d f g f d f f d d d d d d d i d l l g i d i i p p d g g g g g n n m m l l z G E z h h l f i i d d d d d d d d d d i i 6 6 i i i i i d d d i i d d d d d d d d d d d d d d l l g g l l l z m m m m z z z z g h g $ M d h d k h z h h h z E +.z f d d d d d f d g d d d d d d d d d i i d d l g d d d d d d d l l l l l z G K K z z z z G E E h ",
"h h h f f f f f d t t t d d i i d i i i i i d d p p i i i d g l g g f d d d d d d d d g h z z z m m z z m ( } M E z h d f E & z d 9 9 9 9 d f f z b E ( m l p i i d f f f d d d z h g d d d d i d i p l l p i g d d d d d d d g g g n n m z l l l z z l f l l l d d d g g d d d i i d d d i i w d d d d d d d d i i i d d d d d d d d d d d d i l l l l l z z z z z m m m m z z d f g # ( d g 6 d f h h h l z E ! z h f f d d d l d d d d l l z d d d d d i i i l d d d d l l d d l l l g l z J K m z z z z z z z l ",
"h f f f d d f d d d t t d j j j d d i i i i i p p p p d d d i i g d d d d d d d g d d d g z l g m m m z z ( } M E z z f e f O z f d 9 3 7 9 f f f f h m m z g g i d g g d d d d G z h f d d i i d i i d p i i l g g g d d d p p g g n n m l l d d l h d d f h h g l l l g d d i 6 i d d d d d d d d i i i i i i i i d d d i i i i i d d d d d d d d l l l z z z h z m ( E m z g d d f # ( d d 5 3 t f j h h z E z h h h f d d h h d i i d z G G g d d d i i i q d d i i d l l g d g l l d g z ( m m z z z z z z f i ",
"V c f d d f f f h f f d j j l l i i i d d d i i i q q i i i d d w d d d d d d g z l g g g l z m m m z z z z M E E z f z d F.O 9.d d 9 9 0 9 9 9 f b b M M m l g d g l g d d f h z z z z h l l f i 6 6 i d i d g i d l l d d i p g n m m z l l l z l f d f h h h d d l l g d d d i d d d i i i i d d i i 6 6 i i i i i w q w i i g d i i d l l l d d d d l l z z f h z M E m z g d d m $ m g d w d d d f j z A E G E E z h f f f g d d g l z z z z z l l d i i 6 d d d d l l l g z l d d l z G G m z l l z z z z f d ",
"c f d e d d f f h h l j l l l l d d d i i i i i i i i q 6 6 6 6 w i d d d d d g z g g d g g z n m m z h h z m M z z f z d F.o ~ f d 9 9 9 u u 0 v b z z z z z z f g h g f f l z z z z z z h l f g d d d d d d g i d g g d i i d l l n n l l l l l l f l h z h l w i d g g l l l d d d d i i i i i i i i i i i i 6 6 6 6 6 6 w i d d i i d l l l d d d l l l z z h h z z z z z h f f m @ m h f d d d d f j h z A z z A z h k k h h l g l l z z z z z l l g d d d g d d g l l l l l g d d g z z m m l l l l z z h l f ",
"h f d d d d f f h h z z z j j d d d i i i i i i i i i 6 6 6 5 5 w w d d i i d d g g d d d g l z m n z g g h z z h f f z f P.O :.h f e 9 0 f f f c c f f f f h z f l h l f f h z z z z z z z l f z l g h l d d f d f g g f d d d l g g g g g d g d l l z z z h g i d d g g l z m l l g d d d i i q q i i i i i i 6 6 6 5 6 6 w i d i i i d g l g d d l l l z l l h h h h z z z z h h E # M z h f h h h z z z A E z z z z h h h z z l l l z z z z K z z z z z z z z l d d l l l l l d d d d l l z l l d d d g l l G G ",
"f f f f h h h h z z A A z l j d i i w i i i d g i i i i i i w 6 w w d d e i d d g g g d g g h z m z h g d g h z d f f b z T.< k.z h d f f f c f c f f f f f h h l h h l d d g h h z z G m z l f z l g h h d d f f f g g f d d d l g g g d i i i d d l h z z l l l l l l l l z G z l g d d d i i 6 6 q i i i i i w w 6 6 6 i i d i i i d d d g g d d l z z z l l g g g h h h h h h h ( $ ( z z g h z z z z A A S h h z z z z z z z l l l l z z z G G z z z z z z z l d d d g l l l d d d d l l l l l d i d d f g g g ",
"h h h z z h h h z E ! ! A l j d d d y i y d f f d i d d d i 6 6 e e d d d d d g h h h g h h h z z z h g g h h h f h f z z E.1 N.z h h h h c f f f f f x f f f f h h z l d i d f h z z m z z l f h g l z z l g h g l l g f d f g l g p i i i i i d d g g l l h h l l l l l z G X.z l d i d i i q 6 6 i i i i i i i i w w w i i d i i d d g g g g d l l z z z l g d g h z z z h g g z <.< <.M z g f h h h h h h h h z z z z z z G h d d d l z G G z z l l g g g g z z g d d l l l l d d d l l l d g g d d d d f l h l ",
"f h h h h h h h z E ! ! z j j d j f d d d d d d d d d d 9 6 3 3 e e d d d d h h h h h h h h z z h l h z z z z z z z h z h R.< a.z z z z c c f r 0 f x x x c f f f h z h d i i d h h z z z h l f h l h m G z z z h h h l f f l l l p i i i d d d l l h l f f l h d g l l l z J <.m l d i d d i i i i i i i i i i i i w 6 6 w i i i d l z l l l l l l z z z l l g g g z z z z h g h z <.< 5.( z h h h h h h h h h z z z z z z z z h d d d l z z m G z z l l l l l G m z l z z z z l l l l l l l d d g l l g g h z E m ",
"h h z h f f l z z A ! E z j j j h k f d d d 9 9 9 y d d d 9 6 6 e e d d d f h z h h h h h h h z g g z m m m z z z M z z z E.- :.m m m z z h r 0 r x x x x x c f d g z z l d d d h h h h h h l g h h z G G z z z z z z h l l h z l g i i d g l l l z z z h l g l d d g l l z G ( G z d d d g d i d d i i i i i i d d i i w q i i i g z m z z z z z z z l l l l l z z z z z z z z z z } $ } M M z z z h h z z z S z S A z z h z z z l d d l l z z m z z l z z z m G m z z G G m z z z z z z z l d i g z z z z z m z l ",
"h z z h f f h z z A E G z j d j f f f f f d d d 6 9 d d f f d d e e d d d h z M f f h h h h h h f h z E ( E M z z M b ~ V !.1 :.} M z h h h f r f x c x x x x c 9 d z m z l f d h l l l l g g g h l h z z l l l z z z z h l z z l g i i d l l l l z E ( m h g g d g l l g g l z X.z d d g l g d g d d i i i d d l l d d i i i d d l m G G z z z z z z l h l h h m m z z z z m M m z ( $ M m E E h h h f h h z z E E E A z h h h J m l g g l z z g d d d d l z z z z z z G G z z z z z m m m l g i g z m m z G G +.E ",
"b h f z b z h h z z z z h g f d d f h z h d d d e e d d d e e e 6 9 9 d f h b b f f f f f f f f b z M E } } } } +.M z b b H.1 b } M ( M z h f f f f f f v f f d d l z G m l d i d l l l d g l z l l l l l l z m z z z m z z z z n l g g g g l z g z m n z m h f m l g p d g l n l l l g i i g l d p d i w q q w g d d d d e w w f h z M M m z z h h f f f g h z z M } } M z M } u.M } - +.z M +.z z z z z z z h E m z l f d f f X.m l p d g l z m l g l z l l z z z m G G G G G J G m n z l l l l l l m G G m z z h ",
"b b z c z f h z M b z z z h h g d h h h f d d d e e d d d d d d 9 9 e d f f b c f f f f f f f f b z M M ( ( ( ( 5.+.} ~ b H.8 g.~ M M m z h h f f f f f f f f d i i d l l i q 5 l l l l g g l l g g g l l z z m z z z z l l l l n n l g g g l l z z h g g z z l l g g p p g n m l l l g p p g l g g g p i w i i g g d d d d e e f h z M z z z z z h h f f h h z f z ~ } E E +.u.} z } < 5.z z } z z z z z h l l z z l f d d d d l g i q i g z m z g g l l l l l h h z z z z z z m m l l l n m m l l l z m m z l z z ",
"b b b b f d f z M M M M z z z z h h h h f d e e 6 e d d f f f d d e e e d f f b f f f f f f f f b z b M M M M M } } } V f G.8 k.M m m m z h h h f f f f f f f f f d l l d d i 6 z z z l l g l l d d l l l z z m z z z l l l l l K m n n l l l g m n f e d h m h g g d d g l m K l n l g g g l n g g g g i w i d g g g f d d d d d h z z z z h h z z h h h h h z f h b E E E +.u.z h } < u.M z M z z z z z h l f l l l l g g g g d i w w i g z z z g d l l l g l g l z z z z z z l l l l l n K K l l l m m z z l g f ",
"~ b c c f f f z M M M M z z z z z z h h d d e e 6 e d d f d d d f d e e u f f f f f v c f f f f k z b b b z m m z z M M h G.3 k.M m M M M z z z z f f f f f z z z z z z l l d d z z z l g d d g d d d l l z z G G z z l g g l l m n n n m z l l m z d w e h m l g g g g g n m m n n l l l l n n g g g p w w w i g g f d d d d g d f h z h h h h z z h h f h h h h z z z z z z M E z +.2 a.M z M E E G G z h l g l h z z z z z z z l d d d l l l l g d d g l g g l z z G G G z z l l l l n m K K m m K J J G z l d d ",
"~ b f b z h f h z M m m z z z z M z h f d d e e e d d d d d e e f f d e d d f f f f v c f f f f v z b c z z z z g h M +.} I.9 i.m E } 5.+.} M z z z f f f z b b m z z l l l g g z z l l d d d d d d d g l z z z G G z l l l l l z n z m m m z z z z f e d h z f z l l l l l n m n l z z z n z z g g g p w w i d g g d d d d f g d f h h h f f h h h h f f h h h z z z z h h z z 5.M 5.2 a.E M } X.X.X.E m z h l l h z z m G G G z z l l l l l l l g d d d l l d l z z G ( E G G l l l z z m K K G m G G G G z h f d ",
"b f f b b c z h z z z z z z z z M z h f d d d e e d f f f d e 6 d f f d d d d f f f c c f f f f v v b b c z z z z m } u.5.T.d v.M ( +.5.5.+.M z b z h f f z b z z z z l l l l l z l g d d d d i d d d g l l z z G G m z z z z z m n z z z z n n g l h d d f h f m m l l l l z z m n z z n n n l n l g p i i d g l g g d d d f g d d f f d d d f h h h h h h h h z z z z z z M M 5.M u.3 s.E M } +.X.X.E G z z h g l l l h z z z l l l l z z l l l l d d d l l f j h z m G G K K z z m m m m K G z z z z z z z h f d ",
"f f f c b c h c c z z c c c z z z z h h h f d e d d f h h h d d d d d d f d d 9 u f f k c f f c v b b b c z z z ( ( ( E z K.6 N.E E ~ ~ ~ E M b z z f f f f f f h h h h z z z z z h f d l l d d l l g g l l h h G G m m z z z z J G m l l l l l f h h d e d h h m m n z l z z n m n l z m m l g n n g p i i d g z z g d d d d g d d d d d d d d h h h h h z z z z z z z z M E E z h +.2 s.E M E E E E G z z h h l g f f f g l h l l h z z z z h l h l d f z h f j h h z z G G G m m m m K G J J z z l l z z z z d e ",
"e f h V b c z V b c c M c c z z z h h h h h d e e d h z z z h f e e d f f d 9 9 9 f f k c f f c b b c c c z z z ( E m f 3 l.2 N.~ M b z z z z b z h f f f f f d d d d f l h h z z h f f l l g d h l l g g l l h z z m m z z z z X.J m l l g g g f z h e w e h m m m z z z z n m m n l z m n l d l g g p w w d g m m h g d d g h d d d d e e d d h h h z z M M M z z h h z z z z d d E 2 s.E z z G G G G z z h l h l f d d f l l h h z z G G z h l h l d f z z f h h h z z G E E z z m G G J X.1.m z l l z m m m f d ",
"7 c c f c b c c c c M M M z h h f h h h f d d d d f h h z h h h 6 e d 9 e d 9 1 d f f b b b f f b c v b b z z z z d e d f M 2 v.M b V V M M b b f f d d d d d d 6 d f f d i d l l h h h l l z E l h h l l z z h h z G G z z z l z z z z z z z z M z z f 6 e z h m m m m m m m m z z l g g g g g p g g i i l l g m z g d d d g h f d d e 6 e f h h h h h z z h g z h h z h h f d h d M 2 N.5.E z E E E G z l d d g l l g f d i i z l f f l l l d h h h h h l f f h h h h h z z G E X.G z l z G G z z z m ( M M M z d ",
"f N b c V V b V M M c c h h h h z h h h h h h h z M M z h d e e e d d d d d 9 3 f f b b b b b b c f f f z h h z m f f z z ~ < i.~ ~ :.:.} E b z f f h h h f f f 6 d d d d d g z h z z z h l h z G X.X.m z z G m l h z z z h l f l l l l l z z z } m m z e e z z ( ( ( [ ( J m m z z l g g g l z w g g p w d g g z g f d w w w w d d e 6 6 e d f M z z z M M z z h h z z b z h h z z 5.3 s.+.E } ( X.( E m z z z z h g f d d d d f d d f z z m z z z z z m E ( E k h z z z h z z h z z l l z m z z z z m ( } } E M z ",
"r b c f b b c N V M z h h h h h M z z h z z z z h h z h d d d d d d d d d d d f e e d d f f f f f f f f f f h z ( z M +.:.i.1 k.b b ~ =.~ V z z h h h h h h d d 6 i d d d d f h h z z z z h h h h z z h j h z z h h z z z h h h l l l l h z m E } z M M f e h z m m E E M m z h z h g g g h z z l m L m n m m m i i d d d d d e d d d d d f d d h f f f h f f d e d d h h h h d M M a.2 5.M M } X.X.E m z z z z z z g d i d d d d d d f h z z z h f d f h z A E z z S S S z z z l z z z z G G z z h z m M } M M M h ",
"9 c c f b b c V V c c z h h z z c E } E M M E +.h h h h h h h f d e e f f d h M z h f f f f z z f f f f h h z m z d h M ~ ,.& ,.b b ~ ~ ~ ~ M M z z z h h d d e t d f f f f f l f j h h h z z z z z z z z E +.E z h h z z z z z E G z z z z m E ( g z } h e h z h z z z z z z z z z h g h z m m n n n n m m l g d d d d d d d d f f f h h h h d h h h h h h h h h z z E +.} E b E E a.2 u.} } +.y.+.E G z z z z z z g d d d d d f f d d d d f d E z h h z E E A z S E E S z z z z z G G G X.X.m m m m M } } } M 5.M ",
"7 c c x c c r c r r f h h h r f d M 5.+.z h M +.5.E h h h h d 6 d e e d d d f z d d d e d f f z f d f z b M ( 5.<.m M } ~ :.< >.~ F b b b b b b z h f d d d d d f f h h h f d d t 6 6 6 6 d f f h f d d h A z f f d d h h f f z +.E z h g g h h z d h M f e f h h h h g h z z m h g g d g h z m m g p g m m l i l g d w 6 5 5 5 6 e d d f d d e d d d d d d d d h h z z M M z h M z 5.< s.a.5.E y.X.m z z m z z d d f f f f d d h l f d d 6 6 6 d d y d f k f f f k z z h f f f f h z z G +.+.m M m m M M M M M c f ",
"c C C b N c f c h c c c c c h h h } v.v.+.M } u.v.5.z z z z h d m m z h h z z h h h f f z b ~ :.~ ~ :.k.N.Z.F.J.F.N.N.V.B.B.9 m.k.0.>.,.~ ~ ~ ~ } M z h z z E ( E ! +.+.E z h h z h f f h h z h E z h f h A h d E z z +.+.z z +.l.s.u.+.E E E E } M } M h c V V } E m z z m M M M m z z z m ( 1.M.y.K y.l.l.<.( m z z h h z z z f h z M z z h h d f f f f f h h E M M E E E z z M M u.< v.N.s.+.y.+.( ( +.+.X.E l h z G E ( X.( E E E z h h h h d d f h h z z z S ~ ! ~ S b z S E E E E y.N.N.l.5.{ { { 5.5.} } ~ z ",
"% 1 ; % % % % % ; ; ; ; % % @ @ $ < 3 3 < - < 2 < - $ $ $ $ $ - = < = + $ 3 < o 1 < < < < 1 3 3 < < 1 w d d d g 6 < < 3 1 1 . 1 3 8 3 3 3 3 1 1 < < - $ $ $ = = < < $ $ $ $ $ $ $ $ $ $ : : $ $ 3 3 3 2 < < < < < $ $ 2 2 $ + $ < < < < < < < < - - < $ O & 3 - $ = - - - = = $ < = # # # = < < > * # = > = = = # # $ = - < < 2 @ $ < < - $ $ < $ = < - - < 2 3 6 6 3 3 3 6 3 3 $ - 3 X 3 6 6 3 i 5 2 2 5 5 < $ = = = = = > < > $ $ $ $ $ o $ $ $ < 2 2 2 2 3 6 : < < < : & : : < < $ $ > 5 5 2 < - - - < < - - 9 - ",
"j.B.j.;.f.j.n.V.V.b.j.f.9.8.8.5.a.a.a.a.a.a.a.a.s.N.N.s.5.5.v.S.} a.u.M u.F.S.} :.} ~ c c b c z +.} <.d.d.<.( } v.u.s.C.B.C.9 B.m.V.G.K.P.P.H.F.v.k.a.5.} ( M m <.X.z z z z G E h h z +.u.u.! S E u.s.+.S S ! @.@.S E @.+.h d l z z m E E +.:.+.+.a.k.M h 5.N.a.<.d.l.N.N.N.l.s.a.u.+.( ( <.d.l.p.<.<.l.p.1.d.N.d.d.a.a.u.<.( m z +.s.s.+.E +.a.z z M M M E +.u.s.u.5.5.u.a.a.a.v.N.F.e Z.S.H.K.T.I.L.F.F.Z.s.y.N.l.u.+.E E E E h z z z h h z E +.u.u.u.E E u.N.! +.+.! ~ ~ +.:.u.+.z f h G ( m 5.2.5.7.l.z.a.q.V h ",
"z b ~ :.,.,.~ ~ ~ b b b b z z z z z z z z z E ( G E X.E m z h h z z z z c z c c h h r e 9 e f h d g h z z m M M z h h M i.B.9 F.i.b z :.i.} M } E M z h h f d d d i d l g i q d d g h h d d k b ~ b b b z h b =.b c z z z h f d h z z m m m m M ( +.+.E z z M ( E X.X.X.J G G X.G G z l z X.( z l d g G X.X.G z z h g f d f l z A z z z z z h f d d f f f j h z M M E } } E M M E 5.F.6 K.5.+.} u.u.y.+.+.E E G E z f d d f f d d w 6 d d i d f h l g h z X.y.y.( E z h G y.y.( z z h l l l z z m M E } <.5.5.} N.} ",
":.:.:.@.:.:.:.@.~ b b b S z z S z z h l l h z z z G E E G z h h M V M V V V M M h h f r e e e d g g z z m M z z z z z M } +.1 N.:.z z +.u.} M } } M z h h h f d d i d l g i i d i f z h f d d f F b b ~ b f z b b c b z f f f f f h z z m m M ( } <.<.( m z M } X.X.X.X.G m z z z z l l z ( G l h f g z G z z G m z z h h z z G E A z z E A z j f f f f f f h z z z z M E E E E z +.S.3 S.} E b s.u.u.u.+.! E E E z l f f f f f l d i d d i d l z l f f h G X.y.G m z l z X.G z G z z l l l z z ( ( ( +.5.u.5.5.} d ",
":.+.E S S S ! +.E b z b S z z E E z g f l h h l l z G E G z z z M V V V V V M M z h h h h d e e z z z m ( E z h h b ~ M z z & B.~ h z } 5.} M E } E M z z z h d d d d g d i i d w f z z f d y d z b b ~ ~ z h z V c z h h f f d f h z z m m E ( M ( ( m z h z m G G J G m z z z z z z z z G z g h l l h h l z G G m z z z z G E E E E E E A z h h h j f d f h z z z z z z M M M z } Z.< Z.z z h s.u.u.u.+.! E G E A z h h l f d z g d d d d d l z g d d f z E X.X.X.G z G X.G z X.G G z z l z z ( ( ( ( <.5.5.5.+.h ",
"~ S z h z z S E S z z S S z z E E z l l z z z h d l z G G z z z M M M M M c z z z z h h h h d d z z z M } } z h f z M M z z & N.z h h E +.} M E E M z z z z h d d d g g d i d g i f h z f d d d f f z ~ ~ b b c b z h f f z f f h h z m m m E ( M M M m z h h z l z z G m z z z z m G G G G z l h l h z l f l z z z h h h z z z E E E E E z z h h h h j f f h z b z b z z z z z M +.S.< Z.z z h @.@.u.+.+.E G z E A z h h f f d h f d f d d d l h g d d f z m G y.y.X.G G J m l G G G G z z m m ( J m M ( +.+.+.+.h ",
"S b z b E +.+.+.b z z z z z z E z h l l z z z z d d h z z z z z z z z z z z h h z h h h h h h h h l z m ( ( M z h z b M ~ } < Z.h h h M E E M M M z z z z h f d i d d d d d l l d f h h f f j h f f f b b b z b z f f f f z b z z z m M m m m M <.<.<.( M m z z g l z G m z z z z z m G G z l g l l z z h d f h h l l g l l z z z z z z z h h h h h z h h h h h M z z z z z z z M +.S.< Z.z z h E E ! ! E A z h z z z h f f d d d d d l l f d f g f f l z z z z G X.( G z z l d m G m G G G J X.( ( M M ( +.+.+.u.z ",
"S b z S +.@.:.+.S z z z z h z z f f f f g l h h d d g h h l h z z z z z c c z z z h h f f h h z g g z z z z z z E M b M } :.< v.f h h z z z z M z z h h h h f d i d d d d g h h f f f f f f h z z h f z c z f f f f d d f b b b z M ( ( M m M E +.+.} ( E m z z z G G G m l l g z l l z l d i d g f l z h d d f g g g g l l h z j h z z h h h h f h z z z h j j z h h z z M E ( z } N.- N.h h h z z A E A z z h h h h f f d d f i i d h z f d d d d g z z z z h G X.J m z z l d l z z G J X.X.<.<.1.} <.<.5.5.5.s.M ",
"E z h z E +.+.E S z h z z h h z d f l g d i d l d d f f d d g h h h z z z z z z h h h h h h h h g l z h g g h z E M b M ~ } - k.f h h h h z z M z z h h h h f d i d g d d l z h l g f d d d l h z h f z z z f f f d d d f z b b M E ( ( ( ( ( } ( ( ( ( m z z g m G X.X.G z g d z l g l g i i d g d i i d i i d d d d d d g l l d g z z h h h z f l h h h l l h g g h h z m ( ( z E N.= v.z h h l h z z z z z h h h h f d d f l d d f z z g d d d d f h z z z z G X.X.m z m z l l z z G ( X.y.y.<.<.<.<.u.d.5.+.+.h ",
"+.E z z E +.+.! A z h h h f f h i f h l i 6 d f d d d d i d d g f h h h z z z z h h z z h h f d g l z h d e f z z z z b M E & v.h h h f f h z z M z h h h h h f i d l i d l z h l l f d d d d d f d d z M z h f h f d d f z z z z M ( } } } <.<.<.+.} ( ( M z h z G X.X.G z l l z l l l g i i d l i 5 6 i i i d i i i d d d d d d l z z z h z z l l l l f g l z h h g h h z m m z ( N.= N.z z z f l h z z z z h h h l f d d g z h l l z h f d g d d d f h z z z l m m l l l l g l l z G J X.X.X.1.1.<.<.u.u.+.} v.} ",
"h E +.A E u.+.A z z z z h j f d i g z z f d d f d d d d d d f g f h h z z z h g z h z E z h h z d g g g h g f d f d h M z z < v.z f d d h z z z h z z z h h f d f z z d i d z m z g d i i i d d f f f f h h f d 6 9 d h z b b z z m E E M E } <.E E E E E E E E m G X.( z l d d z z z g i i d l g d i i i d g d d i i i p g g d h l l h h l h z z h f f l h l g g g f f f g h z m ( l.3 5.m z z l z z z z z z g z z h l f f l h i d l z z z l f d d d d d f h z l z z z l d d l z m G X.X.( X.1.J ( <.5.<.<.5.5.s.a.",
"h A E h h E ! z z z z z h h f f d g h h g d d f d d d d d d d f h z h z z z z z h h h z h f d z g g g g g g h f h f z E M } 1 B.z f d d h z z z h h h h h h h h f h h f d f z z z h f f d l g d h h h h f d d d 6 e d h z z z z m M M m m m M ( m ( ( M z g g h l l z m z l l l g l l d i q d l g d i i i p d i g d i i g l l l l l l h h h z z z l f f l h l l g g g g g h h h M ( l.3 5.z g g f h z h h z z g z z z h l l h z d f h z z z h l f g g g l h z E l l l l d d d g z G G X.G G X.X.J ( +.+.} ( E } h f ",
"l z z f f z G z G z z z z h l f f g l l l f f d d d d d d d f d z z h h h z z z z h h h l d f h l g h g g h h h z f h M M 5.3 B.z f d d h z h h h h h h h h h h j h h f f h z h z h l z z z l l z z z h d e d d d d f h z z z z m m m m z z z m g z M M z g h z i d l z z z z z d g g d i i d l l g i i i i i q d i i i g l l l d l l l z z z z l d d d l l l l g g l l l l g g m m l.2 <.l d d d l l l l z l g l l z z l l l z h h z z z z h h h h z z z z G ( z l d d d g l l m G G J G G G J m J ( ( E m M E +.E ",
"z z h d f z G z E G m z z h h l l g g g l l f d d d d d d d d d h h h h h z z z m z h g f f l h z z h g g h h z h d f z z :.1 s.h f d d f f f d M z z h h h h h h z z h h z z l z z z z m m m z z z z h d e d f h h h z z z z z z m m z z z z m z m ( ( E m z z i d g l z z z z l l l g d d l z l g d i i i q q i q q q p g l l g l z l l z l g d d d g l l z z g g l z z l g g z z <.2 <.l d g d l l l l z z l d g l l l l l z z z z z z z h h l h z z z z z m z l d d g l z l K G G G G m G G m m E ( E E E } u.+.",
"z z z l h z E E E E G z z z h h l l g g l l f d d d d d d d f f h z z z z z z h m z h f d g h h z z h h g h h h h d d f h } 1 i.h h f f f h f f m z z h h h h h z z z z z z z l z l l l l m m z g h z h d d f h z z z b b b m m z z z z z m m E a.d.u.<.( m g d d l z z z z z z z z l l g d d g l g p i i i i q i q q i i g g l l z z l g l l i i d d l l z z z g g l z z l g g g d ( 2 p.l g l d l l l l z z l g l l l l l z z z z z z h h h h l h z z h h z z G z l d l z z z z G J G m z m m z m E ( ( +.5.a.u.} ",
"z z z G G E ( X.( E G z z z z h l h l l g g g g d d f f g g f f z z G E E z z l z h f d d l l g z z z h h h h h h d f f f ~ 1 u.z z z z h h h h h h h h h h h z h z z z h z z l l l g g l l z z d h h h h f h h z z z z z z z z h z z z z z m ( d.u.<.+.E z g d z z m m z z z z z l l g d d d i g p p p p p i i p i i i p g g g l z z d d l g i w d g l z z z z g g l l g g g g d w ( 2 p.l g z l l l l l z z l z z z l l l z G z z h h h h l l z z z z h h z z m z l l z z z z z G G G m m m m z z m E ( <.a.s.s.+.",
"l l z X.X.X.( ( ( G G z z l l l g l z h f f g h d f g l h l l g m G m z z l l g l l d i d z z g z z z z h g f f f f h f d M < u.h h z z z z z z d f f f f f f f f z z k f f l l l l g l l l g g f h h z z h h f z z z z z z z z z z z z h z z m z ( <.} z h z M G G J G z z z z l l g g g g d p d i p p l l g p l g p p g g l g g l l i q g l d q i l z l l l l l g g d d d g g i w J 2 d.g d z l l l g g l l g l l l g d g l z g g l l l l f f z z z h l l z z z z z z l l z z z z G G z z m m l z z m M ( 5.a.u.M ",
"f l z X.+.X.E G X.G G z z l h h f h z h f d g z f g l h h h l l z z l l d d d d l z l d l m m l l h z z h g f d d g h d 6 z - 5.f h h h h h h h d d f f d d e 9 d z z f d d f g f d l z z l g i g g h z z z g d h h h h h h h z h z z h g g h z z <.l.<.g e g E G J J G m z z z l l l l l l l l i i i p g l g g g p i i p l g g i l g 6 6 l z g 6 d l z z l l l l g d i i d d g g i J 5 d.g i l l l l d d g g i l l d i q i d l d f f l l f f d z z h f d f h z l z m z l l l z z z m m z z z m l l z z z M } 5.u.M ",
"6 z +.X.E y.u.( z z z h h z z z l h h h h l f d d f l g f f l z m m z z l l l g z z l f l h z z z h h z G m l g p z d i d z 3 E 6 d l h h h h z k f d d d d f f k f d u u d k h z h k f f d d d z l l l z z l g h h j f k h z z z z h l l z z m G G G z d 6 f E E J X.( m z z K g l z l l g l l d g g g g g d d i p g d g l l g g g d d g g g g d g h g g f g h z z z l d d d l z d d.< d.6 d z l g d d i d d d d d d i i d d d d d d l l l l l d d d d d l l z z z z z z z z G d z G G z z z m l z A G ! ( X.+.z f ",
"t z E z z +.+.E z z z z z z z z g l h l l l l f f g g g g l h z z z z h l g g g z h h l h z z z h h l z z z l g l K l g d h < z d f h h f f f f h k f d d d d d f f u u f f z z h k f f f f d d l g l l z z z z z z h h k h b b z z h h z z m m m G G z f i j E z G G G z l l l g g l l g p p p g g g g d p i i i g l g l l l l g d d d g g g f d d h h h h h z l l l l g d l z l d d.2 M.i l z g d d d d d g l d d i i i i d d d d l l l l l l g g d d d g l l z z z z z z z z l z G X.( G G G A A A ! ! X.+.+.X.z ",
"f z E z z +.! z z h z z z h h h f f g l h l l l g f d d g h h h z z h l g f f f l h h z z z z m l l h z z z l l g K l l f h < z f g l g d d f f h h f d d d u u u u d f f k z b k f f f d d d d d d g g d d l l z h h j k z z z z z z z z z z m m m m z f d k ! z G G G z l l l g g l g p p p p l l l g d i i i p l l g g l l g d i i d d d d d d g h h h h h h h l z l l l l z l d d.5 Z.l g d d d d d d g l l d d d i d d d d d g l z z l g d g d d d d g g l z l l l z z z l z z G J X.X.J G A A A ! ! ! +.+.A z ",
"f h z z A E z f h z z z z h h f d d f g l l h h g d i d f l g f h h l l f f f d l h z z G G m m j h z z m m n l g n l l l z 2 E f f f d d d f f f d d d d d u u u u f f k z z z d d d d d d d d i d g g d i d g l l f f f f h z z z h l l l l m z z z z f d k E z l l l l l l z l l g l p p p p l l l g g d i i i g g d d g g i i i w i d d d d z z z z h f d d G G z z l l l l z l M.5 Z.l d i g d d d d d g l d d i i d d d d g l z z z l d i d d d d d g l l z l d l z m z l l l l m J X.G z A A A G E ! E E h l ",
"d f h z z z f t h h z z z h h j d d d f g l l h h f d d g l l f h h l f f f d f l h z G G G G G h z z G G K m m g n l m z z 2 E g d d d d d d d 6 t y d d d d d d d f f f f f f d d d d d d d d l l z z g d g h l l f f f h h z b z k d d d l m l l z l f i d z z z d d d d g l n n l g p i p p g g g l g g g d i d g p p g g i i i w i d g d f z z z z h f f f X.G G z z z z z G z M.2 N.l l d l g d d i i d d d d d d d d d d l l z z z l d i i i d d g l l l z l d g z z l g l l l z G G z z l A z z A A z z z z ",
"j z E E E z h f h h z z z z h h d d d d f g l h z h l l h h h h h l l f f f f f h z z z G G G z h z E X.G G K K m K l K z z < ( z l g d d d i w 6 6 y d d d d d d f f f f d d d d d d d d f f f l l l l l l l h z z h h h h z A z z f d d d l l l l l l f d f z y.( z d d d g g l n n g p p p p d g g g g g g d i g l g g l l g d i w i d g g g g g h h h h z z E G z z m G G m z l M.< M.l z l l g d i i i i i d d d d d d l l l l z z l l d i i i d d g l l l z l g l z z z l l l z G G G z z l l z z z z z z h h ",
"z E +.+.E z z E h h h h h z z z f f f d f f l l l h h l g g l h h h l l l g g l h z z z z z z z h z ( J G m K K K K l m z z 2 <.z l l l l d d w d d d f f f f f f f f f f f f f d d d d d f f l d d d d l l l l z z z h h z z E z z h f f d l l l g l l h f h E X.G z l l l l g g l n l g p p p d d d d p i i i i d g d g l l g d i i d d g h g d f g g h h z E G z z z m G m z l l N.< d.d z l l l d d i i i d d d d d g l l l l l l l l g d d i d d d g g d d l l l l z z z z l z G G G m z z A A z z z z h h f h ",
"z z A z h f h E z h h h z z A E g f f d f f g l d f g f d d d l h h l g l g l l z z z z z z z z z m ( J G z n n m n g m z z 3 d.g d d l z l f d f f f h h h k f j j f f f k k h d d d d f f l h f i i g z z z z z z h l h z z m h h h z h l g g d d g l z h z +.f d d d l l g i g l n n g g p p d d p i i i q 6 q i d i d l l d d i w d g l z h g g f f f h z M X.G z z z z l l l z Z.2 d.d d i g d d d d d d d g d d g l l l z l l l l g d d d d d d g d d d i l l z z z l z z l z G G m l l z A A A A A z z h E E ",
"h h h j f f h z E z j f h z z z d d d d d d d d l f d d i d d g f d f f f f f f h l l h z z z z z z G G X.J K n K n l z h g $ Z.l g d d d d d d f f f f f f f f f f f f f f f f f f f f f h h l d d f h z z z h h z z z l l z z h z z z h l l l z z m G E E z h d i 6 d l z l p p g g l n g s p i i i i i i i i 6 q i i d g g l d d d d g g g g g g h h h h z m z m z z l l z z l z m < d.g l d d d d d d d d d d d d d d d d d l l l l l l l g d g l l g d d g z z l l l l z z l z G G G m G G J A z A G z h z s.u.",
"E G z z z z z z E z j f j h z h d d d d d d d d d d d d i d d d g g g l l l l l z h l h z z G z z z h z z z n l n l l l z z $ N.g g d i i i d d d d d d d d f f f f f f d d f f d d d d f f f f f f g l z z l f g h z z z z z m h z z z z l l z g g l l z z z h z l l l z z g i p p p g p p p p i i i i i i i i q q i i d g g g d d d g g l g g g g h h h h z z h z z z l l l l l l z > 1.i g i d d d d d d i i d d d d d d d d d d d d d d d d d g l l g d g l l l l g d g z z l z G G G z z G J A z A ! A z z z f ",
"E E A A E E E E E z h h h h h h d d d d d d d d i i d d d d d d l l l h h z z z G z h h z z G G E z z z z m m m g g g l z G < Z.g g d i i i i i 6 6 w i d d d d f d d d d i d d i i d d d f d f l h f l h h d d f g l z l z m G h z z z l l z G g g l l h h z z G G G G G z l g l g p p p i i i i i i i i i i i i i i i d d d d d d g l z z h g g h h h h h h z l z z z z l d d l l z > X.d g d d d d d i i i q i i d d d d d d d d d i i i i i d l l l l g g l d d g d d l z z z z m G z l z z A Z z G ! A z z h f ",
"z h h z E +.+.+.E A z z z h h j f f f f d d d d 6 6 d d d d d d f f l h h z z z G z h h z z G G E E z z G G K K l g l l z G 2 L.g p d i i i i i q q i i i i d d d d d d i i i d i i d d f f f k l f f f h j d d f l l l l l z z h h h z z z m J m m z l h h h z z z J X.G G m z n l g p p i i i p i i i i i i i i i i i i i i i i d g z z z h f g h h h h h h z z z G z l l g l z z G 2 d.g l d d d d i i i i i i i i d d d d d d d d d i i i i d l l l l g g l d d g l l l z z z z z z l l l l l l A E ! A z z E h ",
"j f h z z E +.+.A A z z h j f f h h h l g f d d 6 i d d f f f d d d d f l h h z z z l l h z G G z z z G G J n n g m G z l z 3 U.d p p p i i i i i i i i d i i w p p i i i i i i i i d d d f f f f f d f j h f f l l z z l l l l h h z z z z K J m K z z h j h z f l z G G m m m g g l g p p p p d d i i i q q q i i i i i i i i i i g l z z h d g h z z h h h z G G G z l l z z l z ( 5 M.l l i i i i i i i i i i i i i d d d d d d d d i i i i d g l l g d d g d g l l l l z m z z z z l l l l l A G ! J G z z z f ",
"k h z z z z z E z z z h j f f f z z z h l g g f i d d f f f f d d d d d f f f g h g f f l z z z h z G G X.1.J m l J J z l z 3 P.i p p p d i i i d d d d d i i w i i i i i i d d w w y d d d d d f d d f f h l g l l z z l l l l h h z z z z m G l l l l f f k z l l l z z z l l i i p p p g g g d d i i i q q q i i i i i i i q i i d g l l g d f g h z h h h z E G G m z z G G l z G 5 d.g d 6 i i i i d d i d i i i i i i i p i i i i i i i i d d g g d d d d d l l z l l z z z z z l l l l z A J ! E A A z z z f ",
"d h z z h f z E z A z z h f h h z z z h l g f f d d d d d d d d i i d d d d d d d d d d l h z z z z z G X.1.L L n K J l z E 2 Z.i i p p g p d d i d d i d d i i i i i i d g d d i d d d d d d d f f d f j h h l l l l l l g l l j h z G G z m m g l z l f d f h z l g l l z l l p l g g g g g g d d d i i q q q i i i i i i i i w w w d d g d d d g z z z h h z m G G G G G G G l z z < y.i d i d d d d d d d d i i i i i i i i d d d d d i i i i d d d d d d d d l l l l l l l l z z l l l z z A r.@.G z A z z z h ",
"3 d h h f f h E E ! E E z z z E z h h h f f f f d d d d d d d d i i i d d d d d i w i d g z h h h h l l m J L L m K m l G +.< u.i i d p g g g g i i i i d d d i i i i i g g l l f f f f f f f f k f f f f h l g d l l l l l l z l h G E G z z z l m m z f d d f z g d d z G G m J K K K m g p i d d d i q q q q i i i i i i i i w w w w d d d d d g h z z z z z l m G X.( G G G z z z > X.i g d g g d d d d i i i i i i i i d i g g g g d d d d i d d d d i i d d l l l l g l l l z z l l l z m G r.@.A z A z z h f ",
"9 d d d d k z z S z S +.+.S h k k f d d f h h h d d f f d d i i 6 6 e e 6 6 3 3 3 3 6 e d d d d h h h z z l n n n n m m G ( < N.z g i i d l d i w w i i i i i i g d d d d d d d i d g g d i i i l f d d f l g d d d d d d g l z l l z m K K z l l d l h d d f i d g h z h l z G X.X.J l g g p i p i d d d d d d d d i 6 5 5 6 6 w 6 5 3 3 6 i d d d d d d d g h l z z z z l z z G d z $ X.l i d i d g d i w 6 6 d d d d d d f d d d d d d f g l f d d w i d g h f g l z z l g f l l l z z G G z X.X.X.E G z z z z f ",
"6 d k f k z b z ~ z b ! +.b k d d d d d d d k z f j f f d 6 6 w 6 6 6 6 6 6 3 3 3 3 6 6 e d d d f f l l l l l l l n z m G ( > M.f i i i d d d i i i i i i i 6 6 i i d d d d d d d f h h g d d d d d i d d l l g l l d d i d l z m m K K X.J G m z d g d 6 6 f d l h z z z z z z J J K l p p i q i i d d d d d i i i i w w w w w 6 5 3 5 3 3 6 6 w i i d d f l z g l l l l l l l G l m $ G d i i i i d d i i i i d d i w 6 6 6 6 d d d d d d f f l g d i i d d d d d d f g f d f l l h z G E E m <.<.+.X.G m z z 6 4 ",
"6 f z z z E S b S z z E ! S f d 9 d f d d d f z k k f d w 6 w i 6 6 6 6 6 6 6 3 6 6 6 6 e d d d f f l l l l l l g l m K G ( $ l.i i i i d d i i d d i i i w 6 6 3 3 5 6 i d d f d f h h l g f g d i i i d l l l z l g i i d l z K K K J 1.X.J K m g d i 5 6 f d z z z z z z z l J J m g i i i i i i d d d d i i 6 6 i i i i i i 6 6 6 6 5 5 5 5 3 6 i d d f h z l l l l l g l l J z ( $ z i i i i i i i i i i d i i 6 6 6 3 3 3 w i d d d d d d l g d d d d d d d f f g l h h z l l h z G E E E y.y.+.X.E z z h f d ",
"d k z z z b S z z k k S ! S f d y u d d d d f h d d f d d d d d d d d d e e e 9 e e 6 e e d d f h h h z z z l l g g l m ( G $ d.d d d d d i i i i i i i i i w 6 3 3 6 6 i d f f d d d f f f f f d d i i d g g d z l l g d d l z m n n m J J K m z d d d 3 6 l l h l l z z m z g J J m g i p p i q i i d d i i d i i i i i i i i d d d d d i w 6 3 6 i d d f l h z z z z l l l z G z X.$ z i i d i d i i w q i d i i 6 6 3 3 3 3 w i d d d d d d d d d f f f f d f f g l h z z m h h h z E X.X.E X.X.+.X.G z h h f t ",
"f z z k f h z z z k h S E z f d d y 6 y d k f d i d g h g d d d d d d e e e e e d d e e d d f h f h z z z m n l l g z m E E $ d.f g l g d i i w w i i i i i i i 6 w i d d d f f d d d d f f f d g d d i d d d d l l z z z z z m m n l l m K m l l i f f w d z h d d d g z z l g K G l g i i i i w i d d d d d g g d d i i i i d d d f f f d d i 6 w d d d d f l z z z z l l l z z l X.$ z d d d d d d i w 6 i d d i 6 6 6 6 6 6 i d d d d d d d d f f g f f f d d d d f g h z z h h z z E E E G G G E G z z j f d 6 ",
"k z h f d f k k z z z E E h d d k d 6 9 f h f 6 d g z z l d i w e 6 6 6 6 6 6 e d d d d d d d f f f l l z l l g l g l m G G $ d.h l l g d d i i 6 w i i d d d d d d d d d f d d d d d d d f d d d d d i d d d d d l z z z z z m m n l l m K m m l i g h d d z l d d d d f l l l l m l g i i i q i d d d i i g z z l d i i i i d d d d f d d d i d d d d d d d g z z z l d d l l l l ( # G l d d d d d d i 6 6 i d d d y y y y d d d d d d d d d f f f f d d d i d d f g h z z z z z z z G G m z G G G G z h j f h d ",
"d k h f d f f d d f z E S h k h k d y d f f d 6 f h z z l g d d 6 9 6 6 6 6 6 e d d d d d d d d f f h l z l g g l g l l z z $ s.l d i d d g d d w i i i i i i d d d d d d i i i i i q q i i i w d i i i d g l g l l z z l l l z z l g l m m m m l d l l i d h f d d d d d d g l z K m l g g p q d d d i i i l G l l g d i i i i i i d d d d d d d d f d d d g h z z z l d d l l l l G # G z d i i d d d d w w i f f d d y y y d d i i i w i d d d d i i i i i i f l h z z z z z z z z z m z z z z z G G z z h f f 6 ",
"y f k k f k f d 3 y h E S z S +.f f f f f d d 6 f l l z l l l z e e 6 6 6 e e d e e d d d d e e f l z m G m n l g g l l z z $ s.l i q i d l l d i i d d i i i i i i i i i i i i i 6 5 5 6 6 6 5 w 6 6 i d l l z z z l l d d l l l g g g l l l l z g l f 6 w f d d f f d w i d l K J J K n n g i d d d i q i z ( g g l g d d i i d d d d d d f f d d f d d d l z m z z l l g l z l l G $ ( z d 5 q i d d d d d d h f d d y 9 9 9 d i 6 6 6 6 w i 3 3 3 6 6 i d d d d l h z z h l z z z z z z z h z z G E G z h h h d ",
"< k z d f k k z k z z z z h h z z h h h h d i f l l l l l l l l f d d d d d d e d d d d d d e 6 f f l l g p q 5 i p i q d z $ u.d i w 6 w d l z l l g d i i i d d i i i q q i i i i q 6 5 5 5 q i i d i i i d l d d d g l l l l d p i p l z l g i i w g 5 < f d f d d f l z z z l l l l g g l l d i i i d g z m l z z z l d g l h l d i d g f d i d f d i i d f d g g d i i i d 6 i G > G i w i 3 6 i d f g f j d d y y u u d d y i i i w 6 6 6 6 5 3 5 w d d d d i d z z l g z z z z h h h h h l z z h d i d f f 6 ",
"< k z d f k f z z z b z z h h z E z z z z d d f l l l l l l l l d d d d d d e 6 e e d d d d d d d d d d d d i i i g d i g E < d.f d d d d d d g z l l d i 6 q i q q i i i i i i i i q 6 5 5 6 q i d i i w i g z d d g l l l l l l p p g l l g i g l f h i 6 z f d d d f l z l l l l l l l l l l l l d i i d d l l z z l l d d l f f d w w d d i d d d d d d d d i i d i 6 w i d i d X.> X.l d d f f f l l h z z d d y 9 9 9 9 6 y i i i i 6 6 6 6 6 5 6 w d d d d i d h z g f h h h h z h l f f d l z h f d f l d d ",
"1 h z f k h k z z z z z h h h z E A z z z f d d g l l l l l l l d d d f d d e 6 e d d d d d d d i i i i i i i i q p d i h ( < d.g g g g g d d d z z l d w 6 6 6 5 5 q i d i i i i i i q 5 5 6 q d d i 6 6 i l z l l l l l l l l g p p g g g d i d z g h d l +.g f d d f l h l l g g l l l n n n m z l d i i d l z z z z l d d g d l f i w d d d f d d d d d f d d d i i 6 w i d i d X.< y.z l l h l f f f h z z d y 9 9 3 3 3 4 d i i i i w w 6 i 6 6 6 w d i i d d d h h g f l f g l z h g d d d l h h f d f h E +.",
"6 z E z z z h z z h k k k h z z E A z z h g i i d g l l l l l l d d d f h f d e f h h f e 6 e d f f d q 6 6 q q 5 i i i l E < u.g g g g d d d d l l l d i 6 6 6 5 6 i i d d i i i i i q 6 5 q i d i i i i d l l l l l l l f f g i i p p l l l l q g d f f m s.l d f f g l l l d g g l l l l g g z l g d i i l z z z z l g d d d g z z g d f l l l d i d d f f d d d i 6 5 6 w i d d ( > X.l d d g f f d d f h z d y 9 9 3 3 3 4 d d d i i i i i d i 6 6 i i i w d f l h z h l g g g l l l g f d d l h l f f j h 5 6 ",
"y z S z b z k z z h k k z b S E E G z z z l d i i g l l l g l l e d d f h h f d h h h h d e e d h j d i 6 6 5 q q p d i l E $ y.d d d i i d d g l l l d i i i i d i i i i i i p i i i i q q q w i i i d d g d d l l l l l g d d i p g l l l l l w l d f f G s.g g f f g h h l g l l l z l g g p l l l d i d l G z z l l l l g d h m G z g l h h l d d d f l g d i 6 5 5 5 6 w i d d G > ( g i i d f f f k h z z u y 9 9 9 9 9 9 d d d w i i d d d d 6 w i i w 6 l h z z z z h l h h l l g l h z l l h h l f f f h f ",
"d z z z b z f z z z z z S ~ ~ E z z z z z m z d i l z z l g g g d d d f h h h h f f f d d d g h h f d i q i i i p g l d h ( $ u.d d i i i i d d d d g d d i d g l g p i i i i p i p p i i q q i w i i g l l d d l l l l l g f g l l n l l l l l l z l z z z u.f z h g f l l l l z m m m n g g p l l z g i i l z z l l l l l l l h z z h g h h g g f d f g g f f w 6 6 i d l l z l l ( = X.l d i i i d d f f k k u u y y u u d d d d d w i d d d d d w i d d d w h z G z z z z l z h l f l z z E z z z z z z h h E z ",
"k S S S E z f z z z z z S ~ S z h z h l z G G l i l n n l p p g z h f f h h h h h f d d f h h h h f d i i p p l l m l g g m $ +.d i d d i i i i d d d d d i d p g g p p p i i i i p p p i i q i i i i d l l g d l l l l l l l g z m K K z l z m X.X.z +.G z <.h m z l f g h l l l l z z l l p i d l z l d i g z z l d d l l l l h z h g l h l d d f l l l f f f d d d g z m m z l g G $ X.l d i i 6 6 6 6 y d f d d d d u d f f d d d w d d f f d d i i d d d d h z G z z z z f g g l l z z G E J G E E E E E E +.E ",
"z ! ! ! :.S z E z z z z b z z f f d d d l J G l p l K m l p p d m z h f h h h h z h d d f g g d h l f d d d g l l m l i d z $ E d d f f f d i 6 d d d d d w i i i i p p p p i q i p g p i i i i d i i d g l l d l l l l l l l l l n K K m m G X.X.G z y.( z <.m E z l f f l l l d g l g g p i q i l z l d d l z z l d d l z z l z z h g h z h d d f z z l f f f d d d g l l d d d d z $ ( l d i l f d 6 6 d d k d d d d d d d d d d d w d d f f d d i i d d d d l z m z z z z f d d f h z z G E X.X.X.+.<.y.y.@.h z ",
"z ~ E b z z M z z z h h f f f f d p p l l l a i a l Z Z l a a p l g g d d d f f h d d d d d d q d g z z z l g d w g f g 6 3 $ } f d d e d d f h h f g f h h g d p p p p w q w w q p g p p p p w d d i w i d g g l l l g d i g l g g g l m m m m [ m z J [ J m m l z z z z l l p p p i i i i q i p i i q q i g z G z d d l h h l z l g g d d d d d d d d d d g g z z g d d g z n i w 2 # J m g w e e d d f f h h f h z h d d d h e e d e 9 9 d f f d w 6 e d d d d z m z g z m m g g g l z z z m G X.X.X.d.M.d.E z z ",
"h z M z z b M b z z h h d f f f l j j l l j a a j l Z Z l j a a l l g d d f h h h f f d d d i w d d l z z z z h d h d f 6 6 $ E f d d e e d f h z z h h h h l d p p p p i w w w w p g p p p p w d i i w i i d g l l l g d d g z m n l n m m z l m m J 1.1.m m m l z z z z l l g p p p i p p p p l g p i i i l z z z l d l h h h g g g g h z c c f f d d d d d g l l l l l z z z i d 5 = m l d w d d d f f h h h h h h h h h f f e d d d e e d f h f d e d d f d d l z g g l n m d g g g z z z m G X.<.X.X.y.y.+.+.+.",
"f z M M M ~ ~ M z z h f f f f f l l K K l l a p l l Z l l g g l l l g g f h h z h z h h f d d d i d l z m m z z g h d d 9 e $ z f f d d d d h h z z h h h h l l g g g p p i i p i p g p p p p w i i w w w w d d g l l g d d l z m m z z n n z l l z ( 1.J l l z m m G G m m z l p p p p p p g g l l g p p p l z l z z l h l h h d g g z z M ~ ~ z f f d d d d d g h z z z z h g d d w = z g d d f f f h h h z z z h f h h z h f d d d d d d f h f d d d d d d d e g h d d g z z d f g h z z z m X.<.<.G z G +.u.z b ",
"h M } } } :.+.~ z z h f d d d d l l K Z l l l g n Z l l l l l n l l g g h h h z z z z z g d d g g g l z z z h h d d 6 d d d $ z f f f d f h h h h h h h f f g l g g g p p p p p p g g p p p p w i w w w w w i d d g l l g g z m z z l l z z z z z m J ( m n z z X.X.J G m l l g p p p p p p g g n n l g g l z m d z G z h l h z l z z z z z b b z h h f d d g g g g h z h g d e d g d < z h h z h h h h h h z z z h h h z z h h f f d d d f h z d d d d d d d e w d d d d g z z g g h z z m m M ( X.X.G m E +.u.+.+.",
"z ~ 5.:.+.+.} M z h h f d d d d p l l l l l l l K l l l l z K m l g g g h h h h z z z z g d g g l l l z g g d d w w 3 6 e d $ z h h h h h h h h d f f f f f l n g g g g p p p g g l n g p p i w i i w w w w w i d g l l g g z m z z z z z z n n ( J m m m ( ( m X.X.X.G z l g d d d p p p p p p g l l l l l z G d z G G z l h z z z z z z z z h f f h h h h l z g g f d d w 6 6 w g e - z g z m h h h h h h z z h h z h h h h z h f d d d h h z d d e e d d d e e d d d d g z z z z z z m M E ( E G m E <.y.u.u.! ~ ",
"z ~ :.} ~ ~ M z z h f d d d d d i p l l l l l l z l l l K K K m l l l g h h h h h h h h g g g g l l l g d d w w 3 5 < 6 6 6 @ h h h h h h h h h f h h f d f l n d g g g p p p g g n n g p p i w d i w w w w w i d g z z g g z m J J m m z l z n m z g g z J J n G G G m z z l l g d p i i i i i g l l l l l z G g z G G z h z A h z z z z h f f f f f h h h h l g d d w 6 6 6 6 w d 6 $ h f h m z z z h h h z z d h h h f d h z h f d d d h z z h f d d d d d d e d d e d h z z z z m m M ( E ( G z z X.u.d.u.+.z z ",
"z ~ :.} E E M z h h f d d d d d d p i p g g g d l l l l m K K m z z z z h h h f h f f f g g g g d d d d d i e e 6 w 3 e 6 6 @ h h h z h h h h h f h h f e e d l d d g d p p i g l n n g p p p w d d e w w w e d d h z z h h h z m m m z g g h z f h g f g m m z z G m m z z l l d d d i i i i i g g l l l l l z h z m z z h z z z z z z h f f d f f f f f f d d d d e e e d d d d d 6 $ h h z z b z z z z z z z d d f f f f f h z f e d d h z z z h d e d d d d d d d 6 d h z h z z z M M M M M m z z ( +.} } :.~ ~ ",
"z } :.} ~ } ~ M h h f d d e d d l p i p d g d i l l l l K K m l m m m m z h h f f d d d g g g d q q q w w d d d d g d h d e $ z h c z z z h h h f h h e w 3 w d d p g d p i i p n m m g p p p i d d d e w e e e f h z z h g h z g g g g d d h z d z ( m m ( } ( E E E E z z l d p p i i i p p p g l l l d d d d z z z z z z z E m m z z h f 9 9 f f d d d d e w e d d d f f h h h h e - z z z M M M M M b z z z f d e d f h f d z f d e d h z z h f e 9 e e e d e d e 6 e h z h z z z z M M b z z z m ( E z M u.b b ",
"M +.~ M 5.+.b M z h h f f f d e f d d d d i i d l l z z z z l l m [ <.<.M z h h z z h e 6 w i d i d d w 5 q e d d h d f d f $ h f c M M M z z z f e e d e e d n l l l l l z z l z l g i w w w i w w w w w w e e d h z h h z z g f d d d d d g h d ( m ( ( ( a.( ! +.+.E z z z l z z l g d i i i q g i 6 g z l z z z h k k z +.s.} M h f f z f 9 7 9 9 d f h h h d e 6 9 d h z z z e d o E z z z ~ ~ E M z z h f d d 9 d h z z z d h z z h z h d d 9 6 9 9 6 9 d d d e d d h z z z z z z h f h h z z M } M z E u.k.~ ",
"M a.i.5.k.a.+.5.M b z z z z z h d i d d d i i d l l l z z z z z l m m m z h z z z z h d d g g w q d g w 5 q e d d h d f d d $ z 9 e h h h h h f f e e d d e d h m m m n n n z l d i i w w w w i w w w w w e d d d g h d w d d d f g h z z z z h d z z ( z M N.<.+.@.+.E G G G z l l g d d i i i i l d i d l d g f l h h z h z z ~ z z z z z f f f f f f d d d d d e 6 9 d f h h h f M $ z e d z h h h h z h h f h f d f z b z z h z M z h f d e h d d d d e d h d d f f d d d d h h h h h h h z z z M ( M z z } c 9 ",
"d } 5.} 5.+.b M z z f d d d d d d e d g g d d g d d d d d d d d l l n z h h z M z h f d h z g q q g z g w w d g d h d h d h - z f f f h z h h d f f f g f d f h m n z n m m m z g g d d d d d d w 6 6 6 6 e d d d z M z f d d d e d h z M z h d f f z u.h E P.N.E ! E z h z z z d d d g g d i i i l l i f d i d d d d f k k f d z f f z z f f c f f f f d d f z h d d d d f h h z h } - M d d z z z z z z z h f f f f h c b c z z b ~ b z h f d f d d f f d d f f f h h h f d e d f h h h h z z M M M M z h z V =.e ",
"f 5.k.u.a.5.M M 5.} M z z z h h d e d g h g g h w w w 6 6 6 w w z n z l g f h z d f g g z n g q 5 g z l d i d g d g e d e d $ z c c z z z z f e e e e f d e e f g d d g m m m m m z g d w w d d 6 6 6 6 e e e d f z 5.u.} M z z } 5.s.N.N.v.a.5.z d z a.d z P.Z.u.d.u.E E +.y.y.d g l l l d i i w z l i d i 6 d d d 6 6 d h z z f e d z f 9 u v 9 f f f 9 9 f z h h d d d d f f z e h $ 5.b f f b b c z h f d d f d e d f z z h h b V b b z z f d 9 9 d d 9 9 d d d f h h h h f d d f h h z b E } M V V M z c V =.9 ",
"e } u.~ ~ M h h } M z h h h h h e 6 6 d g d d d d d d d f g h l z z z z h h z z d h z z z z g i 2 i l g w w d d e f 6 d 6 d $ z c c h h z h d e w w w e w 3 q w g d d g n m m n z g w q 5 5 w i 6 6 6 e e e d d f z E +.} E +.u.a.v.N.S.S.Z.N.v.} h z +.3 6 N.E b S z h h z z z g l l l d i w 6 6 h h i d i 6 f f d y d f z b b d d d h f d f b b b b f 9 6 e f f f f d d d d d d 3 d $ :.b f d b c z f f e 9 3 f e 9 9 f z z z h b V b b c z f d 9 9 e e 9 9 e d d d d d f f h d d f h z b ~ } } M V } V b V =.V 3 ",
"3 z z d f h d 9 f d e e e d d d e 5 5 w d e 6 5 e d d g z m M J l l z m z z b b h b E M m m n l q g z l g g z h z m h z h z 3 5.h h h z z z h h f e e f e w w d z g d g n m n l z g w w q w d g e e d d d d d d z h h h z M 5.N.} } +.5.5.5.5.5.s.E E +.3 2 E h d d f d d d d 6 g g d d i w 6 5 6 h f 6 d i 6 f f f k z b b z z z z z h f k b c c b b b f d f z z z z z z z z z d f :.1 5.z z E b b c b z f f d f d e d f b c z z b ~ b z z h f f d d f f d e f f f d d e d d d d d h z z z E } } V V } =.V =.:.9.f ",
"f 5.+.z E u.} M M b z z z z z h d w 6 d d e 3 3 3 w e d h h h z g l m J E M z z M E E m m J m z g z m z m J E z E <.M E M } e s.V V M M M M M M m z h h h f l m z g d g n m z g n z l g g g g l f f h h h h h h M h d d h h M +.E } } +.+.+.+.+.s.5.M +.h e E z z E +.+.+.E z h h l g d i i i w d h d 5 6 d 6 d f k z z z z z b ~ } b f f b F v v b b b z z z M b V ~ ~ V ~ ~ :.b b k.9 c.~ ~ i.,.,.,.,.,.F b b z f f f b b z f f b b b b b f f f f f z f f f h c c b z f f d 9 d f f h z z b ~ } M M M =.V M =.;.f ",
"h 5.} h ~ k.a.:.} ~ M z z h d d z d d g z d w 3 w w d d g f d d z m J ( } M h d } E z z m ( m l g g g g z m m z m J z z z m 6 q.} } 5.} M M M M M z h h f f h m g d w d l n z d z z z l g g d i z z z z z z z z h w 6 d h d e d h h h z z z z z M M f m M g +.5.z E u.u.<.X.z f z z l l g g g g g z d 5 6 t 6 d k k f d d k ~ u.} 5.M d f ,.,.f b b b b z h h f h z b M b b ~ } =.z ~ 3 C.a.=.~ ,.,.,.=.,.~ b b f f k b b b f 9 d h c b b b c z z h f b b f h z V ~ ~ } V z f d d d f h f h b M } M M V } M V M :.h ",
"z V ~ b M 5.u.} } E M m z z z z g g d g l g d q d w i g z z l l z z z m X.u.X.z l z G G z z z m g s g g n n l l m m ( m h M - <.M E E } +.} M z h h z z h h h h d d d d d l l l z G G z l d l z G G E G E m z z f d d w w w d h h l z z z n m m M [ } z g l m m z ( y.1.( X.G z z z m l l g d d d l l d i d d d h h h d d f h E ! ! E S z z z b z z S z h f h h z z b b M M M M } z } < i.} ~ ~ @.@.:.! b z z z S z b z b z f d d f h k k z z z h h z z z S S E ~ E } } E z z h d d d d h z M } E M z z z M } 2.M e ",
"d z M z b :.5.} } E M m z z z z g g d d g l d i d i q d l l l l l z l z G X.G z l z z z z l z m g g n n n n n n m m m m h ( - { z z z M E M z h z z z z z z z z g d d d g l l g l z z z l g l z A G G G G A z z d d i q 5 5 w e g g z n m n n z z m m m l g z m g J 1.1.J J G l z z m l l g d g i g d i i i d w f g h f f k h z ! +.@.+.E z G E h h z z h h h h z z z z z z M M ~ z +.< u.} E } @.:.! S z z z b S S S S b z k f f h h h j h z z h h z z z z S S E ~ } E M z h h f f f f h z M E ( E m m z M E } } h ",
"9 f z h z } +.E E M m z z z z z g d i i d d d i d w 6 i g g g l z z z l m X.G z z z z l l l z z n n n n n n n n m m m m z } < 2.z M M E } E z h z z z z z M z h f d d d g l d d d l z l l l z G A A A K A A z z l d d d d d d e d g z n m n z z z z m m z d d z d z G ( G G G z z z z l l d d d i p d i i d i 6 i d h h h h h z z E +.+.A z z z f f j h z z z z z z h h z z M M M z 5.< 5.M E 5.:.+.E z z z b ~ S E E S z k f f h z z j f j h h h z z h z z z z E E E M z z h h h h h h h z z M E M M M z M M M +.z ",
"3 d h f h z M z M M z z z h l l g d i i d i d d l i w i d d g l m G m z G X.X.G z z l g d l l z n n n n n n n z J m M M m { - { M E E +.+.+.E z z h d f h z h d d d i d g g d d d l l l l l z G l A A A z z z l d d i d l z l d d g l z n z z z ( m m ( z q 5 g d l z z z G z z l l l l d d d d i d d d d d d 6 i d f h h z z z j z +.+.z h h z f d d j z A z z z z z z z z M E z z a.< +.z E u.@.+.! S z z b E z z z h d y d d f h h f d f j f h h h h z z z z z z z z z h h f z z z z z z z z m m M M M E ~ ~ 5.M ",
"7 f z f d h z h z z z z h h g g g i i d d i d l z d d d d d l z G G G m m J G z z l d d d l z z K n n n n m m m 1.( } M M 2.- M z z M E } } M z h f d d h h d w 6 6 w i d d d i d g g d d d g l l l z z z l l l d i w d g g d w l l g g g l z n <.m m ( z q q z l g f g h z z G g l l f d i i i i d d d d l l d d d d d f h z E z E +.+.E z h z d d d f z E S z z z z z M M E E z b a.2 +.z E u.:.@.@.+.~ b z z f h h f y y y d d f f d d d f f h h h h h h h h z z z z h h f f M b z z h z z z z z b M E } +.:.k.:.",
"e z z f d f h h z z z z h h g g d i i g d i i l G z l l g d g l z G G z z m z l l g d d d l z m J K n z l z m m +.E } V M 5.- V b M E } +.} E b z h f f f f d 6 w 6 6 i d d d i d d i i i i i i j j l l l l l l l g g g g d e w z l g d d g z n m m m m l i g m z f d f l l z G f l l g d i i i g g d d l z z f h f d d f h z E z E E E A h f f f f f h z z S z z z M M M E E E M M a.2 +.z M 5.+.@.@.@.! b z z h k f d d d d f 6 d d d d f f f j j j l h h h h h h h h h h h h z z z h h h z z h h z z M } :.5.9.:.",
"d b M f e f h h z h z h g g g g f d d h h d d z E z z h l d d l z G G G z m z l l d d d l z z z J G m z z z m M M z M b c 9.; V M M E } +.+.~ M z h h f d d 6 5 f d i i i d i i d i i i i i i i j j l l l l l l z z n l g d d d l g g d g g l z l n m m l g l m h f d f h h h z l h h h f d d d l l d i l z z l h f d d f h z A A z z z z h d 6 f j h z z z z S z z M E E E M M E M a.< +.z M } ! +.:.! S z z z h k d d d f k k 6 d f d d f f d f f f j h h h h h h h z z z b b z h h h h z z z h h h h z M ,.:.V ~ ",
"f b M f e f z z h h h g g g g g f d f z z d d z ( m z z l d d f z G X.X.G G z l d d i d l K G m J G m z z z z m z h z c c 9.1 V h h z M E M z z h h h f d 6 6 5 z l d i i d i i d d i d d d d d j j l l l l l l g l l g d w e f g g g g g g g g d m ( m l g g g l d d h z h j l h z h h f f d d l l d i d z z h h f d d f h z z +.E z z A z f 6 f h z z z h z A h z b E E E z z } E a.< 5.z z E ~ ! ~ S z z z b h f y y d f k k 6 f h j f f f d d f f f h h h z z z z z b M ~ ~ h f f f h h z z h h h f h z V ~ b ~ ",
"z c h e e f z h d d f g g g g g z z l l f g h z z z z z z z z z J G G X.y.X.z d i i i d l z K G m G E ( E G z z z f h h c ;.; N z z h z z z M E z z f d e e d d f d d d d d d i i i i i i d g l j l l l l l l z g g g d d d g l g g g g g g l z g z m m z g g d w d f l l l d d f f f f l h z z l l l l z z z h z z h h z A z z +.@.! h f f f 6 d j z z z h z z z z z M z z h h z z 5.< } h h z S S S b b z z b f d d d f h h h l f f f d d d d d f h z z l h A z z z b M M z z d d f h h h z z f h h z h z b ~ b b ",
"z z h e e f h h h h h h h g g g f f f f l h z z z z z z z z z z J G G X.<.( z d l g g g l z G G z m E E E G z z c z b b b >.1 =.z z z z z z b M z z h d d d d f f d i i d d i i i i i i i d d l j j l l l l l z g g d d d d d g g g g d g g l z g l m n z g g g d d d f g l h l h h l l g l l l l l l z z z z z G z z z z G A z E +.E h j h h f h z z A A z z S z z z z z z z z E M u.< +.z z z E S S b S z z z h k f f f h h k f f f d d d d d d y d h h f f h z z z z z z z h d f f h h z z z f h h h h z c b ,.,.",
"h z h d d f h f z z z z h h g g f f l h h h h h z z z h h z z z G G G G X.G l d m z l l l z G G z m G G E E m z M z b b b 9.1 ;.z z z z z z z z z z h g f f f f d i i i d d i i i i i i i i d l j l l l l l z z g d d d i d d d g g g g g g l l g l z z l g g g d d d d d l z m z l l l l l l l l l l z m m m z z z z z z A z h z A z h h z z z z z h z z z z z z z z z z z M E +.E a.< 5.z z z E E S S z z z z z z h k k k k f f f d d d d d d d 6 y f h f f k z z h h z z f f f f f h z z z z f f z z h f f z b b ",
"h z h h h h h f z z z z h h g g h z z z z z h h z h h h h h z G z z z m G G z l z z z z z z m G z z z m E E m m ~ E =.~ N f.1 9.M M M M M b z z h h h h h f f d f d i i d d d i i i i i i i d l A A z l l l l z d i w i d d d d g g g g g g g g g g g g g g g l l g d d d l z m g g g g l l z z z l l l z z z z l l h h z h l f z z z h h z A E E z h h z z z h z z z h z M } +.5.} a.< 5.z z z ! E S S z z z z z z h h h k k f l f f f d d d d f d d k z z h h b z f f f h f f f f f f f h h h f f h f h f f f z z ",
"z z z z z h g h g f g g g h l l h z z z z z h j h h h h f h z z g l l z z m z z l l z z m m z z l l z m z m m m } } 5.} ,.9.3 9.M E E } E M z z h h h h h f f d l g d d g g d d d d d d i d g l A A z l d d d d i w w w d g l f g g g g g g g g l g g d g g g l l g l l l g l g g g g g g l l l m l l l l l l f f l h h h f f f z z h h h z z A +.E z z A E z z z z z h z M } 5.a.+.a.2 i.E M M ! ! ~ S z z z h k k h k h k k k h h h j f f f f j d d h z z h h h f f d f f f d f f f f z z h h f f f f f f f u b b ",
"z h z z z h f h d d d d g h g l d d f l h h k j h h l h f h h h d d d l l z z z d g l z z z z z l l l z z z z m E ~ 5.} V 9.1 =.b M } } } E z z f f h h h f f f h l g g l l g d d d d d d d g l l l l d i t w i i w w w g z l f g g l l l g g d g g d d g g g g g g g g g s p i g g g p p p p p z l d d d d d d l l h h h f f f z h h z z h h z b z z z z z z h z z h h z M } +.s.+.a.2 a.+.} } +.! ~ S z z h h d k h h h h z z h h h l j j j f f d f h z l f f d e 9 9 d d e 9 z z z b c c b b h f f f f f f u $.,.",
"h f f z z f d f f f f f f g g g i d d f f f f f h h h l f f f g d d d g l l l z l l l l l z z m n n l n z z z z m E { } M } - M z z E } } M z h h h h h h h h g h l d d l l d d d d d d i d d l j j j i i t i d d i w d l z l d g g l l l g d d l g d d g g d i g s g g g s p p g s p p i i i i l g d i d d f f g l h f f f f h z j h z z h k h h h z z h h h h z h h h z z E } u.E 5.< u.} } } :.+.! S z z h k f h z z z h h z h h h l j f f f f f f h l d d f 9 9 9 9 f f u 9 z k z b b b b b z f f f f f f f ,.F ",
"f d d h h d d f h g g g f g d d f f f f f f f d h h h h f f f d f g g d d d l l z l l d d l z G m n n l l l z z z m +.} z } - M h z M ( E m z h h h h h h h h z l g d d g g d d d d d d i i d g l l j p i p d g g d d d l l g w g l l l l g g d l g d d g g d q p p p p p p p p p p i i i p p p g d i i d g h h f f f d d i d f h f j z z h f h j z E E z h z z h h h h z z M E +.z E $ +.E M M :.+.! S z z h k h z S S z h z z h h l j f f f f f f h z l d d k d 9 f f f f f f f f f f f f f f z f f f f f f f F F ",
"z f f f h h f i d d g l l d d i d f f f l h h h z h f f f f d i l g d l l z z l z l l l l z z m K G G G G G z z y.J y.m m h 5 m d d h z z z h l l d g l z z z l d d l l d d d g 6 i d d d i d l d d d d d d d d z z l l l d d d l l l l l l d i z z z g d d g d l g p p i i i p g l d i i i d d d d l l z l l g l d d d f g g g f g l l l l h z z z z G X.X.X.E E m z z z E E +.z E z 6 u.E z z S S z z h k k f h z z z k k h h h l g d d d d f h f f z h d d f f f d f f h f f f z z f d d f h b z h f f f b b k.$.",
"z h f f h h d i g l l l l d i i d f f f l h h z z h f d f f d d g d d g l l l l l l l l l l z z G G G G K K z z X.K X.G m l 6 G l l z G G z z l l l g l l l g d d d l l g d d d i d l g d i d g i i i i i d d d g l l z z l g d i d d l z z z z z z l d d l l d p p p i i p l g g d d i i d d d d g l l l l l d d d i i d d d d d d f f d f l h h h h z G G G z z z z z z E +.+.E +.z 6 @.E b S S b z z h k k k h h k f d f h z h l l f f f f f h d d d d y y d 9 9 e f h z z z z z z f d d f z f f f f f f c v H.C.",
"z h f f f f d d l l l g d d i i f f f h h h z z h h f d d d d d l d d d l l g d l l l l l z z z m m G G K z z z G z G z z l 6 G l l z z z l d d l l l l l g d i d d d l l l g d d g l g d i d d d d i i i d d d d d l z z z l d d l z z l l l z G z l d l z l d p p p p p p l g p i i i i i d d g l l l l l g d i i w i d d d d d d f f d d f l h l h z z G z z z l h z z G E +.E E h 4 ! b b S b z z k h h h z k f f d y d k z z l l l g g f f k d y y y 9 y d 9 9 e f f z f f z z z f d d f b f f h z b b b b C.k.",
"E z f f f f d d f f d i i i i i g f h h h z z z h h f d d d d d h l d g l l g d z z z z z z z m z m m m K z z z G z G l l d 2 l z z z z l l d d l l l l l g d i d i d l z z l i d d g d d d d g g d d i i d g l d d l l l l g d l z G m l g l z m z l d l z l d g g p p i i i i i i i i d d g l l l l l l l d d i i w i d d g d d g h h l l h h z z z z m E G G z z z z z z z E z z d < S z b F z z h k k h h z k f f d d d f h z l l l l l l j f f d d d d d f e d f f h f f d h h f f f f h c f z c b b b b b c f ",
"E z h f f f f f d d i i i d d g f k h h h h z z h h f d d d f g h l l l l l l g l l z z z z z z z z G G m m z z z l z l l i < l G G G z z l l l l l l z z l g i d d d d l l d i d d d d d d g l g d d i i d l l l g d d d d g d d l z m z z G X.z z l d l z z g l g g p i i i i p d d d d g l l l l l l l g d d i i i d g l l g g l z z z h h z z z z z m E E G z z z z z h h h h h y : S z S ~ z z h k k h h z k h h h f d d d h l l g f f j j d f f k k f f d d d f f h f f e f f f d f f z b h b c b b b b b b f ",
"z z h l f f f f d d d d d g l z f f k h h h h h h j f f d d f l l l l l l z l l d g l l l l l l z z m m m z z z g d l d l d 5 m G z z z l l l l g g l z z z l d d d d d d d d i i i i i d d g l d d i i i d d d l l d d p d g l z z m z z l z G z z z g d l z l g g p p p p i i d d d g g l l l l l l l l l g g d d d d l l l g f l z z h h l h z z h z z z z z G G z z z h j j h z d 1 +.S S S h h h z k k k k k z z z k d y y g d f f d d f f 6 d f f f f d 9 e e d f z z h f d f f f f z b b h z z b b z z k k.~ ",
"h h h l f d d d d d d d g l l l f f l l l l l l g l h l f d g l l g d g l z l l d d g l l l l l z z z z m z z l d d l l z l w ( l l d d d d l l d d l z z z g i d d d i i i i d d i i i i d d d d i i i i d d d l l g g l l l l X.J G z z l l l g z z g i d l l i p p p p g p p d d d d g g g g l l g g l l l l d d d g l l l d f l z z h l l l z z h h z z z z G m z z z z h j h z h 3 :.b z z h h z z z k f f h z z h f d d d d d d d d d d f 6 d f d d d d 9 f d f f z z z h f f h z z b b b z z z z f f f f i.b ",
"f f j j d d d d d d d d d d g g f f f l l l l l g l z h g f g h d d d d l l l l d g l l z z l l z z z z m z z z z g z l z l w ( l g d d d l z z d d l l z l d i d d d i 6 6 i d d i i q i i i d d d d d d d d d d g l z z z z z G z z z z z z z d z z l i i l z p p p p p g p p i d d d d d d d g g g g l l l l d d d g l l d d g h z z z h h h m z h h z z z z z z z z z z h h h A h 3 :.z d d k h z z z k f d k h k f d d d f d i d d i d d d d f f d y d f u z f f f f h f f b b c b b b c z M b z z z z z z ,.b ",
"h h f f d d d d d d i i d d i q f f f f f f d d d d d d f f g l d d d d d d d d d i i i d g l z l l l l l l l l m G l z d G 5 z l m G z l z m G d g l l d d i i 6 6 q i i d i d 6 w i i i i i i i i d d l l l l d g l l z z z z J l d l z z l l d l l l g d d d p p p p i i i q i i i d d d d f d d d d d d i i i i d d l l l l l l l l l f d d f l l h h h l l z z z z z z z z f f k 3 S k b S z b E S z k f d f d d 6 3 6 6 6 i i d d d d d i f d d y y d d d f f f c b f f f h f h b b b z f z z z z h h h z :.=.",
"z z h f d d d d i 6 6 i i d i i d f d d f d d d d d d d d f g h l l l l g g g g d d d d d g l l l l l l l l l l z z l z g J w G z G G G m G G G z l l g l d d i q i i i d d d i i i i i i i i i d d d l l z z z g l l z z z z z G l g l z z l l d l z z l l g g p p p p i q q q i i i i d d d d d d d d i i i i i d d l l l l l g g l l l g f d l l h z z z z z l l z z z z z z h z z y E z S S S ! ! ! b z h h d d y 9 6 6 y y d i d d d d d d f f d d y d d d z f z b b z f h z z c b b b b z b z z z z h z z =.=.",
"z z h j f d d d 6 6 6 i i i i d i p d d d d i i i i i i i d g l d d d d d d d d d d d g g g g g d g g l l l l l z z l z l ( w G z z m z m G G z m l d d d l d d d d d d d d i i d d d d i i i w i d d d l z z z g l l z z z z z z z z z z l l z g l z z l l g g g p p i i q q q i i i i i i i i i i i i i i i i i d d l l l g d f f g g l g g f l l h h z z h h d l h z z z z z z z S y E z b z ! ! ! E S z z z 6 9 y d d d d d d d d d d d d f f f d d d d d d h f f c c h f z z c b b b c b M ~ b z z z z z h c V ",
"z h h f d d d d 6 i i i w 6 i d i i p p i i i i i i q q i d d l i i d d d d d d d d g l l g d d d d g l l l z z z z l z g z 5 z l l g d l z z g z g i i d l l g l l g d d d i i d d d d d i i i q q i i d g l z d d g l l z z l z z z G G l l m z z z z l d d g p p i i i i i i i i i i i i i i i i i i i i i i 6 i i d d d i i d f f g g g g g l l l l l g f f l l h z z z z z h z z 6 z k z k z z S S z h f f 6 y d f k k f d g d d i i d d f f f d y d d d d f d f f z f f f h z c z h h c M } b z z M E b z ~ i.",
"f f d d d d d f d d d d i 6 i i i i i i d i i i i i i w i i d d i i i i d d d d d d g l g d d d d d g l l z z z z l d z d l < l l d i i d z z l l d d d d l l l l l l g d d i i i i i d d i i i 6 6 6 i i d g l d d l l z z z z z z G X.G z z G G G z g i i d g i i p p p p p p i i i i i i i i i i i i i i i i w i i d d i i i d d d f g g g g h h h l l f d d z z z z z z h j d h k 2 k f z f d k z z z k d d d d k z z h k f f d d w w i d d f d d y 9 y 9 u e 9 e f f d f f f z z z f f b M } M z z M E M z M 5.",
"d d d d d d f f d f d d i q q i i i i d d d i i d i i i i i i d d d d d d d g g d d d d d d d d g l l l z z z z l d i z d l < l g g d i d l z l z z z z z z z z l l l g d d i i i i i i i i i i w w w w i d d g g l l z z z z z z z z G G z z G X.G z l i i i d i i p p p p p p i i i i i i i i i i i i i i i i d d d d d i d i d d d f f f f f l h h h h l g f z z m m z z h f f h k < f f b f d f z z z z h k h z z z h h k f f d d i w i d d d d y y 6 6 9 9 9 9 9 f f d f f h z z z z z c M ~ M z z M E M z S.F.",
"d f d d d d f f d d i i i i i q i i i i d d i i i d d d i i i q d d d d d l l l d d i i d d d d l l z z z z z m z d d z g l > l i g l g g l z l z G X.( m l l z d d d d d d d d i i i i i w 6 6 w 6 6 6 6 i i d d d g l l l l l z l g l z z z z G G z z d d d g i p p p g p i i q q w w i i i i d d d d i i i i d d d d i d i d d d f f f f d d d f g l h h z z z m G E G z h h k z h & y d z f f h z z z z S E S b z k f f d d f d f d d d d d d d 9 6 6 6 9 7 9 3 7 e d d d f f f f f z c b z M m m z b b M M 5.5.",
"j f f d d d d f d w 6 6 i i i q i i i d d d d p d d g g d i q 6 i i i i d d d d i i i i i d d d z z z z z z G m G z g G g d $ d 6 d z l l l l g l G y.X.z d d d d d d d d d d d i i i i w 6 5 5 6 6 5 5 5 5 6 w i i i d d d d d z g i g z z l l z z G G z l g d i p g g p i q 5 5 6 6 6 6 w i i d d d d i i i i d d i i w i i i d d f f f d d d 6 w d f h h z z z z G E E m z h h z k $ 6 9 f d k k k h z b ! @.! E z f d d d d g g f f f d d d d d 6 6 3 3 3 3 3 1 1 9 9 9 9 d f d d f f z h f z m M z z z z M V.N.",
"f d d d d d d d i i i i i i i i q w w i i i i i d d i d d g d i d d d i i i d l d g l g i 6 w i l z m m G X.y.X.G z z l i l + l g g g l l z l l l J 1.G l g d g l p i i d g g g p i i q 6 6 q i 6 6 6 6 5 5 5 5 w d g l d d l z l g l l l l l l z G G z f f f d i i i i i i i i i i i q q q q q 6 6 i i d d d d g g d d d d d i i i d d f g l h z j d 6 y f z E E E +.+.} E b z h d h @ z d f z h z G z h h z ! ~ z d d f d d f d d h h f d d d 9 9 9 9 9 7 7 3 3 3 3 3 6 6 9 e d d d f h z z z c z z h h z M ~ k.k.",
"g f d d d d d d i i i i i i q q w i i i i i i i d d i i d d d d d d d d i i d l d g l l d i d l l z G z G X.X.G X.G z l d z # z l g g l l l l l l G X.G l g d d g p i i d g g d i i q q q i i d i i i i i i i i i d d g g g l l l l l l z l l l z G G z g g f d d i i d i i i i d d i i q q 6 5 i i i i d d d d d d d d d d d d i i d d f g f l h h f f f h b S M E } +.} M z z h d h @ M f f h h z A z h z S ! ~ z d d f d u d d f f f d e 9 9 9 e 9 e e 9 9 9 e e e 9 e e e e d f f f h h z b M b z z z z b ~ V.V.",
"g g g f f d d d i i i i i i q q i i i i i i d d d d i i d d d d d d d d d d d l d d l l g g l z z m G z z G G G X.K z g d z $ z l g d d l l l l g m X.G l g g d i i i p g g d i d i i i i i d d d d d d d d d d d d d d l l l g l g l m m z l l l m G z l l f d d g g d d i i i i i i i i i q 6 i i i i d d d d i d d d g g g d d d d f d f f f j h h z z z b z b M E } } M z h h e h @ E h d f l h z z z z S +.~ z d d d u u f f f d d d d d d e e d d d d d d f d d d d d d d d f h h f h z M V b z z z z b b ~ ,.",
"l l l l g f d d i i i i i i i i d d i i i i d d d d i i i d d l d d d d d d d l d d l l l l z z z G G z z G J G G z l d i l # z l d i i p g l l d m J G l l g d i i i d g d d i m l l g i i i q d d d d g g l l d d d d l l l p g g l m m z l l z z z l f l l d g g g g p i i i q q i d d d i i d d i i i i d d i i d d g g d d d d f f d d f f f h z z z z b z z M E } } E z h h d h @ } z d d f f h h h z S ! ~ z f f d u u f f d d d f h z z d d d d d d d d f d d d d d d f d f h h f h z ~ M b z h h z z z ,.,.",
"h l h l g f d d i i i q i i p l d d d d d d d d d d i i i i d g d d d d d d d l d g g g d g l z z G K z m X.X.X.G z l d i z $ m l d i q i p g g g m J m l l l g i i d g g d p p J K m l d i i q i d d d d d d d g d d d l l g i l g n K m z l l z z h d d l h g d g g d d i i i 6 q i d d d p i d d d d d i i i i d d d d d d i d d d d d f f f k h h h z z b z z z E } ~ M z z h d h @ } z f e d d f f h z z E S z k k f u d f h d d d h z b b d d d d 9 9 7 9 d d d d d d f f f f h f d h z ~ ~ z h h z z b z B.B.",
"z h l f d d d d d i i i i p l g d d d d d d i i i i i i 6 w i d i d d d d d d g l l d d d d l l z z z l z J X.X.G z l g d z > G l d i i i p g g l m G m l z z l i p g g d d d g m m m l l g g d d d d d d d d d g d d d g g d p z n m K m z l l z z l d d h h g i i d d d p p i i d g g d i i i i i i i i i i i i i i i i i i i d d d d d f f f k k k k h z b b z z M E E M z h h f z $ E z h d d d f f h z z S b z z b k d f k z f d d f h h h h f f d 9 9 9 9 9 e e e d d f f f f d d d h z b ~ b z z z b b z B.B.",
"z z g d d d d g g g g g p p g g d i d d i i i i q i i i 6 6 6 w w i i d i i d d l g d d d l l l z z z l l G G G z z l l d m > G l l d p d g l l l K G m m m m l p g l g d d g l l l z z z l l l g g g d d d d d d g l l d d d d l n n l l l l g l l l f l z l d i i p g g l l l g g g d i i i i i i i i i i i i i w 6 6 6 i i d i i d d f g f l f f h z z z b z h h z z z z h h h h } $ E z h f l f f l h z z A z z b S b f f h z h d d h z z h z z f f f d f d d d d d d d f f h d e e d z z z z h f h z z b z C.C.",
"z z f d i d d g g l l z g l p i i i d i i i i i 6 i i i 6 5 5 6 6 i i i i i i d l d d d g l l z z z l g l z z z z l l g d z $ z l l g g l l l l m J G z z K J m g g l g p d l l z z z z z z l l z l l l l l l l d l l l d i d g l g l p d i i i d l h h z z l i i i p g l l z z d d i i i d d g w w w i i i i i 6 6 5 5 6 i d d i i d d f g l h f j z z b z z z f h h z z h h f h z +.$ M z h h h l g l z z z E z z b ~ b k k z h f d h z M M z z z z f f f z z h h f f f f f f h d 6 6 d z z h h d d d f z f f C.C.",
"z z z h h h l l g l G K g p p l d i w 6 6 i i d i i w 6 6 6 6 w d i i i i d d d l g d g l z l l l l z z z z z z d l l l z X.> M.g g l l l l z m z m m z l l l l l l l l l d i g l z m G J m l g z z l l g d d i l l l g d d d d g p i p g l g i d i d h z l l z l l g g g g l l m l d p g d i 6 6 w i d i i i i i w 6 6 w i i d i 6 6 d f h h j A z h k k k z z f h z z h f h h f z 5.< a.b f z l l z m G G E E z z z z S E S z z h f f h z z b M z z z f d d f b f e 9 e d d d f f d d f f f d d d f d d d f z C.G.",
"h h h h h h l l l m J K g p i p d i i w w i d d i i i i w q w w i i i i d d d g l l g l l z l l l l l l l z z z g l l l z X.> d.z z l l l l l l l m m m z z z m G m m m l d g l l z z m m z l l d g l l z z l l l l l g g d d d l p i i d g d i d d d h h f g z l l l l l z m G z l i i i i q 6 6 i i d i i i i i i w 6 w i i d i i i d l z h j h h h h z h k k h h z z h h h h h z 5.< s.M h M z z z m m G m m z z z b z z A z h h f f h z z b E z f f f d f z b h d d d d f f d d d d f f f d d d f f d e d f G.H.",
"h h h h h h l l m G J K g p i i d i i i i i d d i i d d d i i w i i i d d l l l z l l l z z z z z l l l l z z G z z l l m X.= y.J K m m l l l l l l m K K K G K G m z z l i i g l l l z l l l l d d l z z m z z l l l l l l l l l g p i i d d d l g l l f d d z l l l l l m G J z l i i i i i q q i d d i i i i d i i w w i i i i i d l z z h h f h z z z h k f z z z z z z h h h z +.< a.E z ( G G z z z z z z G E E S z h z A h h d d h h z b M z f f f d f c c z z h f f h z d d d d h h f d d d h h f f f f F.C.",
"l l l l h h l l K G J m g p i i d d d d i d d i i d d g d d i i i i d d l l z z z z l z z z z z l z z z z m G G G G l l G X.= y.K K m m m m m z z m m G J J K m l l l z l i i p l l l l l l l l l l z G m z z z z z z z z z z z l g p i i g l l l z z z l d d l l g g g l l z m m l g i p d d d i d d d i i i i d d i i w i i i i d l z G z z h f h h z z h k f E M z M E E z h z z } $ u.E z } G G z z z z z m E X.+.E h f h z z h f d f h z z z h f f f f f c z z z z h h z b f f f h h h f d d d h z z z c c b f ",
"h h h h h h l l m K G m l l g p d d d d d d i i i d d l l d i i i i d d l z z G z z z z z z z z l z G ( X.X.G G X.X.G z G X.> y.J G G K m m m m G K K G J J z l g l z J G l d g l l l l g d l l l z z G z z z l z z z z z z m m l g p p d g l m l z E G z h g g l l l g g l l l m l g d d g g l d d d d i i i d g d d i i i i i i d z G E m z h h h h k k h z h } ~ E } +.5.} M M M } $ a.} M <.G m z l z z G G E X.! z f f h z E z h f f h h z h d f h z f f z f z z z h h z z z z z z z z h d d f h z b b c z ,.b ",
"z z z h h h l l m m m m l l g l d g l l g d i i i d d l l g d i i i d d l z z G z z z z z l z z z z G X.<.X.X.J 1.y.X.G X.X.> d.1.X.J G m z l l J K m m G m l g i p l G m g i d l l l l g d g l l l l z z z z z z m z z z z z z l g g l g l m K z z m z z z h g z l l l l l l l l l g p i d g g g g g d i i i d g d d i i i i i d g z E G z z h z z k f k h z z } } } +.5.u.5.+.+.} 5.- v.5.E 5.G K m z z z z G G G S h f f h z E z h d d f h z f d f z z f f f f h z z z h z z M b z z z z z h h h h h z z f f f f ",
"m z z z z h l l K m m l l l g l d g l l l d d i i d d g l g d d i i d d l l z m z z z z l l l z m G G G X.X.y.y.X.y.y.X.G G > d.X.J J J m m l l G m l l z z l d i i g l g i i i l l m l g d g l g g l l l l z z z z z z z l l l l n m l l l l m z z h f h m m g z l l l l l z m l l g g d d g g l l l d i i i d g d d i i i i d d l z E m z z z z z h k k z b S M E +.5.5.5.u.u.+.} +.- s.+.M +.G J K m z z z z z z h f f f h h z h d e d f h z h d f h h f f h f f h z z z z h M z z z z z z z z h h h h h f d f h ",
"G G z z z h l l J m m l n l g g g l l l l g d i i i d g g g g d i i d d g l z z l z z z l l l z G G z z G X.y.p.X.y.p.X.G G = l.G K G G K K K K m l g l l z l g l l l l d i i g g l m z l d g l l l d d d l l z l l l l l g g g m K K m l l l l m z d 6 f m m l l g g g l l m m l l l l l l l l l l l d i i i d g d d d i d d d d l z G z z z z z z z h h z z S z M +.5.+.+.u.a.E M E $ a.E z M J J G G z z h g z l f d f h h h h d 6 6 e f h z h f d f f f f z f f f z z b z h z z f f z b M E z h f h h z z h e f ",
"E m m m g d l ( m m m J m m n l g l l g g p g l i i d g g g l l l l g d g l l z l l l l l l l l h z m J ( m m n m n m m m <.2 d.G G G J J G G z l l d d l z m m z l l l l l l g z z l l h l l d d d g l z z m G m z z l l l l l m n n n n l l l g z g q w h m l l g g g g n m m m n l l n n l l g l l g i w w w g d g d d d g d d l z z z l l z h z h f g z G m E +.<.<.E m E +.M u.z 6 i.} z :.} ( M m z z h h d h z z z E M h h z h d f z z h f f f l h f d d h z b M M M b b h z z h f z } :.b h h b h h r e 9 7 ",
"E z z z z g l m z z m m m m n l l l l g l p p g i p g g g p p p l g d d d g l l l l l z z z z l z z m m m m m m m n J J m <.3 l.( X.X.1.1.X.X.G z l l l l z z l G m l l l l g g z l l g h h f d d d d g l z z z X.( G z z z z K l l l l n n n n z z l w d m m f l g g g g l n n n n l l n n n n g g g d d d d g l g g d d d d d d g l l l l l l z z z g l z G G m m E E m m E } } a.M 6 s.+.V 5.:.+.} M z h h f f h z h z M M z h z z h h z z h l f d f f f f f h h z b b b b b z M M z z b M b c c b b b h f r f 9 ",
"m h h z m z z l l l n n n n l l m m n n n g g p i p g g l p i i g g d d d d d d d g l z z z z z E M m m m m m m m m ( [ m +.3 N.X.X.1.y.y.X.J G G z l l l l l g m n l l l l l l l l g g l l f d d d d d l l z z X.G m z z z z m m n l l l l l l l z g d f m h e n n l g g g l l l g g l n m n n l l l g d d g z z l g d d d d g d d g g g f g l z G z h z G E G m m z z m ( } } } a.~ 6 v.} ~ 5.5.5.} E z h h f h h h h h z z z h z z z A E z f h f d d d f h h f h h z c c b b h z b b M E z h c b h h h h h f f r ",
"h h z z m m z l l l n m n n n n K m n m K n g i p l l n l g p i d d d d d d i i d d l z G G z z E M m m m n m m J m ( m z M 2 N.E ( X.X.X.( G z z z z l l g d d l g g g l l m G l l l l l l l f l l l l l l z z m z z z z z l l J K n l l g g g g z l d e d f d m n n l l l l n n g g g l n n l m m z g d d g z m n l d d d d g d d d f d d f g z G G z z E E G ( m z z E +.} E z } E 3 N.~ ~ } :.+.} M z h h h h h h f f h h h h h z z A z z f h f f d f f f f d f h z z z z z h z z z ~ :.~ z h h f f f h f f f 9 ",
"d h m M z z z m n n n n m m n n m z l z z l g i g l m m m l l g d d d d d d i i d d l z G m z z m M m m m m n l J m m z g M 3 Z.G G X.X.( G z z l l l l d d d d i p p g g l z m l z z h h h h h l l l l l l l l z z G G G z l l J K z l l g g g g n z d 6 6 f m m m m n m m m m n z l l l l l l z z l g d d g l m m l g d d d g i d d d d d f g z G G z G E E z 1.m z z ( ( E z f z ~ 3 S.E ~ E ~ E M z z z h h f d f f f d d d h j j h h z h h h h l h h h f d f f h h z z z z M M b z ~ 5.+.M h h f f h h h h f 9 ",
"6 h ( E z z m m m m m n n n n n l l l l l g p i l l m m z l l l d d d d d d i i d g l z m m m z z z z m m m l l n g g g h +.6 Z.X.X.X.X.X.G m z g l l l d d d d p p g p i i g l l z z z h h h z l l l g g g g g l l z m z l l d z l l l l l z z n J M h w 6 h M m m m m m m m m m z l l l l l g d d d d d d g z m n l d d d d d d d d d d d f l h G G z z G G z m z z z m m z h f z 5.3 K.} :.} M M M z z z h h f d d f f d e e h f d f h h h z h h h z z h f f h h h h h z z z b M z h h z z h h h h z c b c c c r ",
"e h M M m ( ( m m m n z l l l l l l l l l g l l l l m m l g g g i i d d d d d d g l l z z z m m z z z z z z n n n g g z M d.3 l.+.X.y.1.X.J G z l z z z l d d d i p g p i i d l l l z z h l h z m z z z l l l l g l l l l l d d l l g g l z m m M M m h f e h m m m m m m m m m n l l l l l l l d g g g g g h z h g f d d e e e d d f d d f j h h z A z z A z l z l z z m m z h z E a.3 P.~ 9.} ~ ~ E M z z h h h f d f d e e d f e e f h h h z h h h h z z z z z z h h f z z z f z z f d f f f h h z c V V V c c f ",
"d h z z E <.+.m m m z z g g g g z m G m l l m G l m m l g p i i i i d d d d d d l l l z z z m m z h g g g l m m m l z J +.a.< ( X.X.1.1.X.G G z z z G z l d d d q i p p p i l z g l z h l l h z X.X.G G m z z z z z l l l l z z z l l g g l z m ( m h h h h f e J J m m m m z l l g g g l z z z z m m z z z z z d d d e w w w w f f f f f f h z f h z z z z h f h l z m E E z z } +.s.< H.z :.} :.+.} E z z h h M h d d d e d h d 9 e f z h h z z h f h z M M M z z z h f f z z f b b z h z c c f h h c V V b c b c ",
"d h z z h z m z m z m z z z z z X.X.G G G G G G l l l l l g g g d i i d d d l z l d i l g i d l z h d g n J L J m n m 1.d.a.< d.X.X.y.d.d.1.X.1.z z z z z l d i i p l g d i i p l l h z z z z h l l l l z z G G z l l z z l l z J G z z l z z m } M 2.} z h z h h l z z z z l l d g z z l z m m z m m m m z h h g f d e e d f g d f j l h z h d z h f f f h h h h m E E m z z z 5.a.~ d F.Z.z k.B.u.E E M h h z h f d e e d d d e d f d d h h d z z h f f h z z b b b b z k f f b b b b b b b f f f h c V V V c N f ",
"f z b z h z z z z z z z z l g g d z G G z z z G X.G z l g d i 6 g g d d g l l l z l g l l d g l h h z m J [ L L n m m J <.<.< l.d.y.X.X.G z m J z z g d d d d d d g g g g g p p 5 5 6 6 w i d i l l d l l z z l l d d l z l l z X.G G z z z z z z h z z e e h f z z z l g g g g z z z l l z m [ z h h z E ( z h M z h f d e w e i f f f f j f d h h h h k h z z } <.5.5.<.+.+.+.+.h F.o ^.~ k.~ a.} M E E z z M d d d d d d d d d f f e 9 e 9 3 6 e d f h h f f f f k f f u d f z b b b b ,.,.F f h h z c c c h b r ",
"z E ~ M z z z z z z m m m z g d l +.M.M.<.E <.s.N.d.( G E G h d d l d i d l l i g l g d i d d d d g z J J J m m y.y.1.1.<.<.< N.N.M.d.d.y.X.X.y.d.y.G m m G X.X.1.L J J J J J m z l h h h h h h z l d l z K l d l l l z G z G X.y.X.X.G G G m m +.M } M h z =.} M m z z z z z z h g d w w d z m u.} E +.s.v.d.} z z h h h h h h f z S z z z z z d f f f d d h z ( ( E ( ( ( M z +.+.Z.- E.V.B.a.k.u.5.u.u.+.} } z M E } } } } E } =.~ c c c h f 3 9 e f f f f d f z b b f f f b b b b b F 0.k.i.V b c c V V b c b 0 ",
"- < 2 < - - < - < < < < > = # # # < 5 3 > # > 2 < = # $ $ $ $ # < 5 2 = < i 6 > < 5 5 > = < 2 > - 2 w i w q q w , > = = < -   2 < > < 6 6 < > > 5 < $ # # # $ $ > # # # # # + o # # # # $ $ > < 6 5 < < 2 2 < < 5 < < < < > $ > 5 5 < < < < < < < - - - @ $ < - $ $ = = = < < < 3 < < = = < 3 6 < $ $ $ < < - $ @ $ $ $ - < < < $ < 4 2 : : < < $ < 2 < < < 4 6 d w 5 6 w w 6 3 $ e $ X < h < 6 3 3 < < < $ @ o $ $ $ $ $ $ $ $ O O O O O O O O 3 1 1 - 1 1 3 3 & 1 1 1 : & 1 3 1 1 < & & 1 3 3 3 1 1 1 1 1 3 1 0 1 ",
"k.B.C.B.v.B.N.N.S.Z.N.N.l.l.l.l.s.M.N.M.d.u.s.N.s.l.M.l.d.s.M.N.G y.X.G X.M.l.G G <.X.z z J ( z z } 5.d.p.<.p.l.M.l.l.M.F.F.d F.L.J.P.T.W.T.U.P.N.M.d.p.y.y.X.J p.L K K J J G z l z ( y.d.M.Z.S.L.P.L.F.Z.Z.F.L.M.d.<.X.z d i i z z z z G E E E Z.N.S.S.k.k.C.v.a.l.N.N.Z.Z.N.N.u.5.<.} <.<.u.d.5.u.a.a.u.u.u.a.v.v.s.a.a.u.5.5.+.m.N.N.a.a.s.a.h z E S z z +.u.v.l.d.d.s.l.a.u.N.F.I.< P.V.H.F.Q.E.T.Y.Y.P.F.S.s.u.5.} } } :.5.c h h b z z c c =.V b c c V =.>.,.b b b F ,.F N N b v f f c b b V V V V =.=.=.=.b 0 ",
"c ~ ~ b b ~ } } +.E m z h z z m X.G z h z G ( +.m X.<.( z l z G l z z z m <.X.z l z l d d g g d h h z z m m m J m m m 1.v.N.6 S.X.G m X.y.y.X.1.1.X.J G z l d i g p p p p i i i w d l h h z m E X.y.y.X.z z G 1.X.G G G m l l l z z z G E X.} +.a.5.v.v.=.} =.V z M ( <.<.( m z M m m m m M m z d h z z z z M +.z z h h d d d d f z S z h h h k d f f f f f z E } ( E E ( ( } E 5.s.I.$ Y.5.k.:.u.u.u.+.+.} M h } M h f d d h h f e 9 e 9 9 9 e f f f f h b c b $.b v v N ,.N c b b v f f c b b V b V V =.9.9.9.B.$.",
"=.9.9.:.} 5.a.i.5.+.} E M E ( ( E z h g h z m E z m E m z g d f z z G G G ( G G z l l l g d d l h h h z m m m m l m m ( +.<.2 S.s.y.1.d.M.M.d.d.X.X.G G z l d i i p g g d i i i d l z z l d d f G J X.X.G z z m l d d l l l l z f g h z z z M M 5.} 5.5.b c } M +.5.d.d.u.<.( ( M z z z z m z h d d h h h z M E M z z z z M E ~ ~ :.@.:.:.@.! S f k f k k z b b m m m m m m E } M u.a.< F.k.b z s.v.s.u.u.s.a.+.M z h d d d d d c f e r e 9 9 f f f f f h c V ,.b v f f f v c f v v f u f f v f c h b b ~ =.=.N >.c ",
"E } } M M E +.} M M M M m m m z +.X.G z h l z z z z G G X.G z z m z G X.J z z G G l d z l i d l h h g z J J m n m 1.p.1.m z < S.z l K y.M.d.X.G y.X.J G G z l g i g l l l d d g 6 i h z h l l z z m G X.X.G z g <.( G G z g d d z z z G E E ( ( +.E +.} h z } M M M M ( E E E M } M z z m M m z h f d f h z z z M M z z z z E +.S ~ ~ ~ ~ ~ S h h k k k h z z z z m E M m m } 5.5.E E o F.u.z h u.a.u.} } 5.+.M z h h f d d d d h e e e e 9 9 f b c r 7 9 f b $.,.F b b b b b b F N b f f b b f b b ,.=.9.9.9.;.N f ",
"+.z f h E E E +.G G G E E E E G X.m l l z z l g l l m m z z z z z z z z z m G G J G z z z z z l l l l m J J J K K G z G X.<.2 N.z z m J 1.y.y.<.X.( G G G z l l l d i i i d d d i i d d g g g d d l m J X.J J J m m l l z m z l m m m m z z z m E X.X.E A z h h h z E X.X.( ( X.X.G G ( ( z z G d f h h d i f A E z z z z b S S ,.,.:.:.! E z z z z h h h h h h ~ +.+.E z z z M z +.a.$ S.z } f +.u.u.u.u.u.+.E E z h h h j d 6 g d d e 9 7 9 c f 0 0 0 u f f f c ,.:.~ b b b f F b b b b b b b b z z b } :.:.~ b z ",
"E z z ( y.+.E E z z G G m m m z z l l l z z z l d l z z z l l z z z z z z z m m G z l l l z z z l l K J J J J J G G m E +.y.2 N.z z z m J X.X.X.X.G G m G z l d d d d i i i d g d d d g l l l l g g l m G K m l m l l l l m z z K m K n m m K K J X.X.X.G z h h z E ( X.E m z z z z m E E z l h l g h h f d f z z h z z z z b z b b F S b z z l l z z z z z z z E } } E z z M E M 5.a.$ Z.z E f z +.+.+.+.+.! z z z h h j f f d i i g z f e 9 u f f u f f f c f b ,.,.b b b b f b b b b b b b b M b b E +.5.:.:.,.~ ",
"G z z ( y.+.X.E z z z z z z z z d g g l g l l l i d l l l l l m z z z z z z z z l l d d l z m K l m J J G m K J G G G E +.y.< N.z z l z z G G G X.G z z K z l d d d d d i i g z g g d g l l z z m z z m G G m l l l g g l z m m K K K K G J J J X.X.( E E m z h m E +.+.E z h l h h z G z l d d l d d f f d d f f f k h z z z k k k b z z z z l g z G G G z z A E E E z z z M E E u.u.- N.h z f h z E E E ! E z h h h h f f f f i d g z z f d f f f f f c c f f F ~ b z z b b z f f f z b b V ~ E E ~ } 5.u.9.:.>.:.",
"X.m z z G E +.y.z z z h h h l g w i g d i q i d i p g l l l l l l l l l l l z z l l l l l z z z g l K m l l l m G G G E X.+.< N.z z l l l z m G ( z l l z z l p d d l d i d l m z l d d d g l z J m l m K G m l l g d g l m K G K K K J J X.1.1.X.X.( ( X.E z h z G +.+.X.m z h h l l z h d d d d w 6 i d d d d d d d f k h k f k k z z b z z z d l z z z h z z z z z h z z M E E 5.+.< v.z z f f h z z z E A h f h z h f f f h g g g h h f f f f f f f c v c f b b b z z z z f f f h b b ~ ~ ,.~ } +.:.u.i.i.9.b b ",
"( E z z z X.+.y.h h h h l g f d 6 i g d q 6 q i i d g g g p d g l l l l l l l l l l z m m z l l d g n l g g l l z z z G E X.> M.G z l l l z m m G z l l z z l d d g l g d d l G z l d d i i d d z l g l l z l l l g g g l K J J J J J J J 1.1.1.X.X.+.+.X.E m z z E +.y.X.G z h z h f g d d d g d 6 3 w d d d d d d y d d f f f k k z z z m G G z z z l l g h z h h h g h h z z z +.M < s.z h h f h z z z E A z f h z h j f h z g d d h h f f f 9 9 9 f f c c f b b z z z h f f z z b b ~ ~ ~ ~ E } :.5.5.5.9.:.k.k.",
"z G X.E X.+.X.E z z z h l l f d 6 i g g p i d l i d g d p p d g l l l l l l l l l z G G z z l g l l n l l g l l z z z z E X.< M.z z l l l z z m z z l l l l l l g l l g d d z m z z g d i i d d l l l l l l l l g g g l z K J J J J J J J 1.1.1.G X.+.+.E m z z G ( +.+.E z h l m h f d d d f z d i 6 d d d f f f d y y d f f f f f k h z z z G X.G z l g l z z h h f f h z h h z } z 3 s.M h h f z z z A E z z h h z h h h h z i i g m M z f d 9 9 9 0 f f k f z h h z z f f f b b V ~ ~ ~ ~ V b E +.5.:.+.=.:.k.k.",
"g z G m m ( E z z z z z h g f d i p l l g d g g i i d p i i d g l l l l l l l l l z m z l g l l l l l l l l l z l l h z E +.< N.z l d l l z z z z z z z l l l z z l l g g l z z z z l l g l l l z m J G l l l l d d g l m K m m J J K K J J J J z G +.X.z h h z z z G E z z h h z g d d d d f z l d d f f d d d d d y d d f f f f f f f h z z G G z l d h z z h h h h h z z h f z } z 6 s.M d f f z A z A E z h z z h z z z z h d d g m ~ z f f f f u f f z z z z h f h h d d h z M ~ ~ ~ E M b z b } } } E ~ ~ f f ",
"g z h d d z G m z z z z h l f d d g l l g i i i i i i i i d g l l l l l l l l l l l l l d d l l g g g l l l l l l l h z X.y.< N.l g d d l z z z l z z z g g z G z z l g l l z z z z z z z z z m l m J m g i i d i i d l z m z l J J K K J J J J l G X.E h d g z d l h z z z z z l d d f g d f h l d d f d 6 6 d y y d d k k f d f f f k h z G G l d i d z z h f h h h z z z h f z +.z 6 a.z e d f z z z z A z h A z h z z A z h m g f h z z b b c z f f f z b z z h d f d d d z z z M ~ ~ M M z h z E } E b b b b b ",
"E z l f f g h z G G G z z h l l d d g g g d i i q i i i d i i i g g g g g g g g n n l p p g g l n l l l l l l z l z l m G +.6 u.l g d i d d l z m z l l z z l g l l z z m m z z z z z z z z z m l m G m l d g l l l l z z m m m K K K K K G J J J G E <.+.G z h f l h z z G G G z z h h l g l g d d d d d d d d 6 d d y d k f d u f k f k z z z l l l l h z z A h h z z z h g f z M 5.6 a.d f h f f k h z z z z z h h h h z z m z z z z b z z f f b b b b z b ~ M z f f z b z h b b b b b b z z z z b M ~ +.:.:.b ~ ",
"z h g g h z G E E G G z z h l l d g g g g d p p i i i d p d i i n n n n n l g g l n g i i l g l n n l l l l l l z m l z z E 6 d.z z l l l l z z G z z z z z z l z z z K G z z z z z z z z z z z l z K m l g l l l l z z m m K K K n n m K J X.1.y.y.y.u.+.z l l l h z z G G G m z h h l g f f f d d d d d d d d y d d y d k f d f k k k k z z l l l l l h z z z h h z z z z h h z z M 3 v.h h h h h z z E E A z z z z z h z z m z m z m b z z f f z b z f f z M M z h h z b z z z z z z z z z z z z b E ~ :.>.i.,.~ ",
"g h h z z G X.X.E E G z z h l l l l g g g g g g p p d d d d p i n n n n n l g g l g p i i p g g n n n l l l l l z G l l f z 6 s.m z z z z z l l m z z z z z l l z z G G z z z G l l z z z l l l g l m m z l l l m m z z m m K G n n n n m J J 1.d.d.d.d.E l g z z z G E E E G m h h l g l f f f g g f d d d d d d d d y d f f d f k k f f h h d d d l z z z z z h h h h z h h h h f z 3 N.z z h z z z z A E z z A z z z h h z z z z z z z z h f f z z f d d h z M z z z z z z z z z z z z z z z z z b E } 5.i.i.k.>.",
"g z G G E ( ( E ( E G z z h h l l l l g g g l l g g g g g d d d g l n n l g p p g g p i i p g g n n n n l l l l l m l l d h 3 s.l l z z z l l g z z z l l l l l l z G z l d l z l l l z l l l d p l z m m l l l m z l l l m G J K K n n m m m K X.y.d.y.m g h ( G E E ( X.E G z h h h h l l l f d d d d d d d d f f d y y f k f u f f d f h h l d d l z z z z z z h h h h h h h f f z 3 v.h z h z h h h z z h h z z h h f f j j g g h z z z h f z z f d d d g z z z z z z z z M b z z z z z M M z z z M } :.9.i.b f ",
"d z E E E X.X.G E E G z z h h l l l l g g g l l g g g g g g g g g g g g g p p i g g s i i g n n l n n n l l l l d z g h f z 3 d.d d l l l l l g l l l l g d d d d l z l d i d l d g l l l l d d p g l m m z l z z l l l l m m K K m n n l l m m G X.<.X.z d h X.E X.( X.( G G z h h z z z h h l d d d f f f f f f f d y d k k f f k f d f h z l d d l z z z h h z z h f d d f f d h M 3 a.d h z h h j j h h j f h h f f d d d d e d d g h h z h z z h d d g g z z z z z h h z z z z z z z z z z h z z z M } :.:.k.~ ",
"5 l E G E +.y.E G z z z h h z z l l l l g g g l g g g g g g l g l g g g g s p p g n g p p g n n g l l n m l l l d l g z h z 5 +.d d l l z z l l g l l g d d d d i d l d d d d l g l l l l d d d g g l m m m z z m l l l l m K J n n n n z m G J X.X.X.G f i f E E E X.X.E G z z h h z z z z h h d d f f f l f f f f d d d h z f b b z f f z z l d l z z z z h h z z h f f d f f h h M 3 5.6 h z z h j j h h h h j f d d d d d d 6 e d f h h z h z h g g f g l z z z z z z z z z h h z z z z z z h h z z M ~ ,.=.b d ",
"3 l E m z X.+.G z z h l l h z z l l l l l g g g d p p p g g l l l n g s s p g g g n n g g n n g l g l n m m z l l z l z h z 2 G g l l l l l l l d l l l d d d d d d d d d l l z l l l g d d d d l l l l z m m z K m m z m m J J K K m m m G J J y.X.( z f i f m G G E E G m z z l h z z z z h l g g g f f d f f d f f d f z z f k z z f f h z z l l z z z h h j z h h h h h h h z z z < +.e h h z h j j h h h h h j f d d d d d d d d h h h h f h f f f g g l l m z z z M M z z h z z M E M z z z z z b M M ~ ~ b f ",
"6 h ( z z G E z z z l l l h z z d g l l l g d d i i i p d l l n n g l p p p g l l g l g g l g l p g l z m m m z G G l z h z < z l l l g d g d d g l l l d i d g l g d g l z z m l l l g g d d d l l l l l z m m J G m m m J J 1.1.1.X.J G G J J y.X.G z f d g G z z K G G z z l d l h z z h l l l l l g f d d d d f f f k z z f d d d d d h z z l l z z z h f f h h h z z z z z M h h $ +.d h h h j f f f h h h h h j f f f f l f g h h z h h f d d d f g l g g E z z z E } M z z M } +.+.+.E E z z b b M ~ ~ ~ b z ",
"d l z z z z z z l l l z z l d i d g l l z l l d g g g g g l g g l l g d d d g g l l z m K m m l g d l G G m z G z z z l l J < y.p p g g g p d i l g l g d p i i d g l l l l l l m n l g p p p g g l l l l l z G l l l l l l K J G G G z l z G X.<.( z i 6 i z X.m l g g l l l l l z l g d d d l z h l g f g g l f f d f f f f f d d d f l h h l z m G m z h l l E A z z z z z z h h z < u.d f t f f f f f f h h f d 6 d d j j f h h z z z h j f h h l j l l h z z z h z A E z z f k h S E E E z z h h z E M b b h f ",
"i d l z z g d d l l l z z z l d d d g l h h l l l l l g l l g l l g d d d d d d l l z z K z z z l g l G X.G m G m m G z l J > X.d p g g g p p i p i i i i i i i g g l l l l l z l g g p p p g g l l l l l l l z l l l l l z K J m G m z l z G ( l z X.( z d i i K n g p l g g g z l z l d d d d l l l h h l g f g g g g f f f f d d d d g l h h m G E m z h h z E E E S A A z G z z z < @.d f d f f d d d d d d f f d d f j h h h h z z z h f f f f f f l h h z z z h z z A z z h z z E E E z z h h h M E z z z E M ",
"d l G G G z l d l l l z z z z l d d f f g l l z l l l l g g g g l g g d d d d d l l z z z z z z z z m J X.G G G G G J G l G $ G l l g g g p i i i i i i p p p p l l l l l l l z g p p p p p g g l l l l l l l l m z l l l m G J z z z z z z z G z z m z l d d l L K g s l g g g z z z z l d i i d f h z z h g f l l l l l l l l d d d d f l z z G G G G z z z m E E E E E E E E z z z < +.d h f f f d d t y 6 6 f f j f f j h h h h h h z l f d d f f j h h h h z z h z z z z z z A E E E z z h h h z E M h h z f f ",
"z G X.X.X.G z z l l l l z z z z f f d d d g l l l l l l g g g l l g g d d d g g l l z z z z z z z m G J J G G G X.G X.G z G $ G l g g g g p i i i p p g l g g l l l l l l l l l l g p p p p g g l l l l l l l l m z z z z m J J l l z z z z z z G z l i i g G y.K n n g l l g g l z m m z g d i d f l h h h l g l g g g g l l l d d d d f l z z z z z z z z G E E E E E ! ! ! ! E z z < +.d h f f f f d d d d d f f h h j j h z h h h h h h j f d f f h h h h h z z z z z z z z A E E E E z z z h h z M z f h z f h ",
"z z z z l l l z z l l l z z z z h g d d d d d l l l g d p p p p l g g d d g l l l z z z z z z z z m G G G G G z G z G G z G $ G l l l g d d i i g g g l l l l l l l l l l l l l g g l g p p s p g g l l l l l l z z l z m K G J l l z z z z z z d l z G G m z m l p g g l l l p l l m G z l l g f f d f f g l l d d d d d f f f f f d d f h z z z z z z h z G E z z E E E E E E E E z < +.d h l f f d d d d f f f f h h f f h z h h h z z h h j f j l h h j f f z z z z z z A E z E E E A z z S z h z z h d h b z z ",
"l l l d d d l l z z l l l l z z h g f d d d d d d d p i i i p p l g g g g l l l z z z z z z z z z m G z z G G z G z z G z z $ X.l l g d i i i i g g g g g g g g g g g g g g g g g g g g g p s s g g g l z l l l l l l l m K K J l z z z l z z G l z K G G z l l i i p g l l p i d l z z z l l g f f d d d d f g i d d d d d f d d d f f l h z z h h z z z z z G z z E E E E A z E A z < ! d h f d d d d d d d d d f f l j f h h h h h h h h h h h h h h h j f f z z z z z z z E z z E E z z z E z h h h h h h b k.k.",
"z z z z z z z G G z l g g l l g f d d d d d d d i i i i i p p p g g g g g l l l z z z z l z z z z G G z z G J m G l z K l z $ X.g d d i i i i p i i i i d d d d d d d d d d g g p p g l g g g s g g g l z z l g l l l l m m K G z z z l l z z G G z l d g l z z p p g n n l l p d l l l l d d d d d d d d d d d i i i d d d d f d d f l h h z z h z z z z z z G z A E E E E z z A z z < +.d k f d d i i 6 t i d d d d f f j f f f f f f f f f f h h h l h h h h h z z h h h z E h z E E z h z E h h h z M z z z d e ",
"m G G G G G G ( ( m l d d d d d d d d d d d d d i i i i i i p p g g g g g l l l z z z z l l z z z G G z m X.X.G X.l z z l l # X.d p i i i i i p i i i i d d g g d d d d d d d d i i p g g g g g l g g l z l g i l l l l z m K K z z z l l l m ( l l d g l z z l K n n n K m n l d g l l d i i i i d d d d d w 6 i i i d d d f f d d f l h z z z h z G G G z z G A E E ! E E z z z z z < +.d f d f d d d d 6 6 6 d d i d f k f d d d f f d d d d h h h j h h z z h h h h f f h z z A E A h h z z h f h M } M z h z z ",
"l z z z m X.y.X.z G ( G z l l l f f f f d d i i i i d d g g p p d d d l z z m G G m l l z G G m z G G G G X.G z d l l z G <.< M.l g d i i i i q w i i i i d d d d d d d d i i i i i i p g n g p d d g g g l l l z l l l m m m z z z l z z z G G z l m z d d l l g n L L K n n n G m z l g g l l f d d d d d d d d d f d d i w w f l z z m z z z z z E E E E E E z z A z z h z z z E E 3 s.d d h f f f d t 6 6 t d d d d d d d d d d d d d d d d f j h h f f f l f j h h j j h z z z z h h h h h z h h z M M b z } b ",
"l z z z z G J G z G G z l d g l h h h l g d d d i i d d g p p p i i d d g l l z G z l l z m m z l G G G G X.G z m G z l l G < Z.l d i i i i i i i i i i d d d d d d d d d i i i i i i p g g p p d d g g g l l l z l z l m z l l l l z z z m G G m l z z i d z l g n n K n n l l l g d d d g l l f f d d d d d d f g g f i 6 6 5 d d f h h z h h l h z z z z z z A E E E A z z z h z z 2 Z.h f h d d f d d t d d d d d d d d d d d d d d d d d d f f l h f f f l f j h h h h z z z z z h h h h z z h h z b M M z d 6 ",
"g z m l l l z z z z z g d d l z z z z h l g d d i i p d p p p p w i i d d d l l z z l l z z z z l m G G G X.X.G J X.G l l z < Z.f d d d d d d d d d d d d d d d i d d d d d i i i i i i p p p p d d d g g l l l z z z z l l l l l l z m G m K z G l z l i i z l g g g n n m n l p p d g l l z z g g f d d d d d f f g d d 6 6 6 6 i d f g l l g f l z z z z z z E +.+.+.! E E ! z z z 2 Z.z f d d d f d d d d f 6 9 6 d d d d d f d d d d d d d d f f f f f f l f j h h h h z A z z z h k f h z z z z z z z z z z h ",
"i l z l d g l z z z z l l l z z z z h h l g d d p p d d p p i i i i i d d d d g l g l l l z z z l z G m G X.X.G m X.X.G G G = d.f d d d d f f d d d d d d d d d d d d d d d d i p i i i p p p p d d d g g g l l l l l z l l l l l l z G G G z z z l z l i i l l n g g g m K K n l l z z z z z z l l g g f d d d d d d d i w i d 6 i d d f g g g l h z z z z z G E +.+.+.+.! ! +.E ! E 2 N.j d d d f f f f d d d 6 9 d d d d f f f f f f d d d d d d d d d d f f f l h h h h h z z z z h f f h A z M E M z h z z b h ",
"6 d l l d l z z z m K G G G z z z h l l f f d g g g g p i i i i i i i i i d d d d d d d l l l z l m G m m X.X.G G G G G X.X.$ G g d d d f g g f d d d d d d d d d d d g g g g d i i i i i i p p p p d d g g l l d l l z l l l z l l K J G G z z z g z z i i d i l g p g n K K K J J G G z z l l l l l l g f d d d d d d w w i d 6 6 6 i d d d d l z z z z z G E E E +.+.! E E ! E @.+.< @.d d f f f h f f d d d d d d d d f f f f f f f f f f f d d d d d d f f f h h h j f f f z z z h h h z A M E } ~ z z z z z d ",
"5 i l l l z z z z m G X.X.X.z l l l f d d f g l l g g p i i i i w w w w w w w w 6 i d d d d l l l z m z z G G G G G l l G X.$ ( g d d d f g g f d d d d d d d d d d d d l g g g i p p p p i p p i p p d g g g g p g l l l l z m z z G X.X.G G z z g z l w w d i g g p g l n n n 1.X.G z l g d d f g l l h g f f d f d d 6 6 6 6 3 3 5 6 6 6 w w f l l l l h z G z S E E E A E E z +.! : ! d f h f f h f d d 6 6 d d d d d d d d f f f f f f f f f f d d d d f d f f h h f f f f h h h h h z z z } } } ~ z z z z h d ",
"6 d g l l m G z z m G X.X.J z d f f d d d g l l l g g i i i i i i i i q 6 6 6 6 5 6 i d d d g l l z z l l m G z G G l l m X.$ <.f d d d d f d d d d d d i i i i i i i d d d p p i p g g p i i i i i p d g g g g d g l l d g l K m G X.X.X.X.G G z l l d 5 6 d d l g g g l l n n X.J m z l d d d f f l h h l l f d d d i 6 6 6 w 3 3 3 3 5 6 6 6 d f f f f l z z h z A A z z z z z +.E $ +.d f f d d f f d d 6 6 d d d d d y i i d d d d d f f f h f d d d f d d d d l h h l h h j f f h z E E z 5.+.} ~ M z z f 6 3 ",
"i d g l z G m z z z m G E G h d f f d d d l z z l l g i i i i i i i i i i i w q 5 6 i i i d d l z z z l l z z z l z K G G X.$ y.d d d i d d i i i i i i i w w 6 i i i i i d i i i p g g p i i i i i d d d g g g g l l g d i l m G G X.X.X.X.X.G G l g i < 5 d g g n n n n l n K X.J z z l l l l d d l l h l l l i i d w 6 6 d d 6 6 6 6 6 6 6 6 d f f f f h z m h z z z z z z z E u.E $ u.f d 6 6 d d f d d t t d i d 6 6 6 6 6 6 6 i d d d d f z j d d d f d d t d j h z h z z f d d h E +.E h u.5.} E E b z d d 6 ",
"d z z h z m h z z h h m E z h g d d i i i d l l d g g l p p p p d d d d d d d d d d i i d d l l f h z m E G G z h G G G <.u.$ z g g l f d d d d i d d d 6 6 i d 2 5 6 i d i i i i i i p g g g g d d d d d d f l z z h l h z z G G J J X.J J J J l K i g 2 l d l l g g n l l l g ( G z l d d d i i d l l d p d l w i d d i i i i w d f d i d d i d i f z z f f z E E E z h h z E E +.v.o +.d f d f d d d d d d f i w 6 6 3 5 5 5 e e d d d d e e d d d d d d d d e f h d f z M z z z b M E E E E E E ! E E E z h d y ",
"d z h d h h f h h f h z E z h f d d i i d d g g p g l l g p p p d d d d d d d d d d d d d g l l g l h z z z z z l z z z E +.$ z g g f f f d d w w d d d d d d d 6 w i d f f d d i i p d p g g g g g f d f d d d z z h h h z z G z m G G G K m m d l i g 5 l g l p p p g l l l l m z z l g d d d i d l l d p g l d d p i q q i i i f g d d d f d d d f z h f l z z z z z h h h z z E s.o +.d f h f d d d i i w w d d d d i i i i d d d d d d d e f f d d d d d d e d d d f z z z z z z M M M M M E E E E E z k f f d ",
"f M h d d d e f h h h M M h d e d d d d d d d d d l z m n l p i d d d i d d d d l l l g g l l l g l h z z z z z f z z h z G $ G h g f g l g d 6 w w i d d f d d d d f f f f d d i i i d p p p d d d d f f f d d z z z z z z z z z z z m G m z z d l d g w l l z i i p p g l l l z z z l g f d d i d d d d d l z z z l d i i i d i f g d d f g f f d f l l g l z z z z z z h h h h z u.o +.d h z f f d d d w 6 5 d d d d d d d d d d d d d d d e f f d d d d d d d d d f h z z z z z z b z M z z A E E E z h f d y 6 ",
"d z z d f d e d h f h M M h d d f d d f d d d d l l z m n g p p i i i i i i d d l l l l g g g g f l z z z z z h f z m h h G $ +.z l d f l z l d d i i d f f d i d d d d d d i i i i i i i i i i 6 i d d g h h h l h z z z z z z z z z z K K m z g l g d i d l m g p p i i d g g z z z z h g d d d d d d i d z G z z z g i i d d w d d d i d f d g g g g f g z m z z z z z h h z h h +.o d.h h h g g l g f d i 6 g f f d d i w w d e d d d e e e e e e e e e e d d f h h h z z z h z z z z z z z A E ! E z h f f d 6 ",
"6 h h f h f e d e e f z M z z M j f f f g f d i l l l z z l g g i d d d d d d d l l g g d d d d d g z m G z l d d z z f l m $ y.z f i d f z h l d d d d f f d w f d d d i i i i i i q q q q q q q i d d g h h h l h z z z z z h z z z z z z z l l l g i 6 6 d z g p i i i d d l G G G z z l f d d d i i i d z m g l l g d i i i i d f d i d f d g l l f d g z z z z z h f f h z h f E # Z.z f t d f g g g f d d f f d d d 6 6 6 e e e e e 9 6 6 3 3 6 6 9 e d d d f h h z z z z h h z z z h h h z A E A h f f f h d ",
"< d h d f d e d h f h z z h h z h h h h h l d i l l l l z z n l g g l l l l g d d d d d d d d i d g z z z h f d i f d d f G $ <.g d w w d g l l h g f d d d d i d d d d d d i i i q q 6 5 5 q q d d d d d f g l l h h z z z z h l l d g l z l d l d g 6 q < i l p p i i d g l z G G m z z h l f h g d i i d l z l l z z l g g g f l l d d f l f f l l d d f h h h h f d d d f l h d ! $ S.G f 6 d d d d f g g g d d d d d d d d e e e e 9 6 6 3 1 3 3 6 6 e d d d d d h h f h h h h h h h h h f h z z h f d d f d y ",
"< d f d f d d h M z z z f d d f z h z z z l d i g d g l m K z l g l l l l l d d d d d d d d d i d d g l g f d d i d d d h X.> y.f d d f f f f d z z h f i w w i i d d d d d i i i i q 6 5 q q i g f d d d d g h l h h z z z z z h f d f h h l d f d z d l 5 f z g d d g g l z z z z z z h z z z z h d d d d f g z z z z h h h z g h h d d d g f d l l d d f h g f f f d t y d d f f @.< S.z f f d f f f l l l h d d d d d d d d e e e e 9 9 6 6 3 3 3 6 9 e d d d e d h h f d h h h h h h f f d h h h f d d f h y d ",
"1 f h d f f f z h f f h f d h b z z z z z h d d i d g z G G z l d d l l l d i 6 d d d d d d d d f f d d i d d d d d d d z u.< d.g h z z z l f d G m z d 6 6 6 i 3 6 i d d d i i i i q q q q i i d d i i d d h z h h h h z z z z h l f g z z l d f d ( z ( w z m l l l l l l l l h h l h h z z E G z f d d d d d z h l d d d d f g h l i w d d d d g l d i f l f d f f f d d d d d f d.< Z.h h z h h l l l z z z d d d i 6 6 6 6 d d d e e 9 6 6 6 6 6 6 e e d d d e d h z f f h h h h h h f d d h h z f d d k z z ! ",
"e f z z h z z h z h f d d f h z z z b E z h f d f l z z z z z z i i i l z G z g z z z l i i d d z z z l d 6 6 i 5 w d f z X.> d.l l g f f f l l m z g d i i i d w i i i d d d d i i i i q q q i d d d f l h h h l f f h z z z l z f i d z G z h d d d i 3 6 h E z z z z z z z z f g h z z z z h z h l d d f l z z z h l l g d d l h z z z z h h l f d d f h l g f d d d 6 4 3 d d E E $ I.z f h d f l h z z z h d d d i i i w 6 e e e e e e e e d 6 3 6 d h d 6 d h z h h h h f f h z z h d d d f h z h f f d 6 9 3 ",
"d h z z z z z h h h f f h h z b b z z z z h h d g h z z l l l z d d d l K G z l z l l d i i d d l h h f d i i d d d f l m X.< s.f d d d f g h z m z h f d d d f d d d d d d d d i i i i i q i i d d d l z z z z z h h h z m z h l h h z z z z z f l h f d d h E G z z z l l z z h z z A S z z h z z h f d d f l z z l g g f d d l h h z h h h h h g f f l l g d f d 6 d d 6 d f f E +.< I.z f j f f f l z z h l f d d i d d d d e e e e e e e d e 6 3 6 d f d 9 h z M z z z z h g h h h f f h h h z z h f h k d z h ",
"f c b c z b z f f f h z z c b b S z k k z S z h h z z z l l l l l l l z G G z l z l l d d g g d l l f d d d d f g h z z G +.< s.f f f d f f l h z z h l f f d d f f f f f d d d i d d d i i i p d d g h z G z z z z h h h z z z f z +.+.z h h z z z E z h h z E G G z l h h z z z z S S S z z k h z z h d d f h z h f d f f f f h h z z z z h h h h l l l l f d f d t d f f j h h E E < Y.A f h f f d f l h l l g d d d f f f d d e e e e d d d e e 6 9 d d d d z M } M z z z h h h g f f h z E z E z h h z z z z z ",
"z b ~ b b b z f f h z z b c c b z k f k S E z h l z z z z l d d z l z z z G z z G z l l l z l l h h g f f f g l h z z h z E = d.z l g f d d d d f f f f f d d d l l l f d d d i i d g g p i i d d f l z E E G z z z l f f l h h h E +.+.E z z E E E +.E z z A ! E G z l h h z z z z z z z h k f h z E z f d j z h l d d d f j f z z z z z z z z h h h z z l g f j d d f h z z z h z z < T.E f h g f d d d g l f g d d d f f f f d d d e e d d d d d e e e e d f h M E M z z h f h h g f h z M } A E E A A ! ! E ~ E ",
"z V ~ b c c z f z z z h h h h h f d f k b S h f f z G E z h f d z z l l z z z z m z g g l z l l z z h h h h h h h z z g g z $ y.z h g d d d d d f f f f f d d d h l l f d d i i i d g g p i i i d d l z E E m z z z h f f f h z z E E E E ! +.@.+.+.E z h h z +.X.E z z h h z z h h h k k f d d d h z h f d l z h f d d d f f l h h z z z z z z f l h z z h h h z h j h z z z h f h f $ T.E j h l f d d f l l f l f d d f g g f d d d e e d d d d d d d e e d h h M ~ M z z h f h h h h h z z M z E +.+.+.+.+.E z z ",
"z b ~ b b c c z z z f f f f f f d d f z z h f d l z G E G z f d z z l l l l z z z l g d d g g d G z z z z z z z h z z f d f o +.l g f f f l h h h h h h h l g f l l l f d d i i i d g g p i i i d f g z z G z h z z z h l l z G E A z z ! +.@.+.+.+.E z h h z E ( E G m z z z h f f f f f f d d d f l f d d f z h h f f f f f f f f l h z z z z f g h h h h h z z S z z z z z h d d d $ T.! j h g f f g h h h l h l f f g l g f f d d e d d d f f f d d d d f h h M E z z z z h h h h z z z z z z E +.+.+.u.:.E z z ",
"f b b b b b b b k f f f f f f k f k z z h f f f h z E E z z h h z z l l l l z G z z z l d d g l z z z z E E m z z G z f d d o <.g g f f l l z z m G z z z z h h h h h g f d i i d g l l l p p p d d f l h z h l z z z h l l z G E A z G ! +.+.E +.! E z z z z E G G E G z z h l d f f f f f f f k l f f d f l z z h j f f h f f f g l h z z G G g h h h l f l z z E ! z h z z h f d t $ T.E f k g g l h z z z h z z h l l l l g h d d d d d d h h f d e d d f h h z z h h z z z f f f h z z z z z E ! E ! +.+.~ @.u.",
"f z b b b b b b k f f f f f z b z E ~ S h k h z z z z z z z z G z z l l l z m G G G G z l g l z l l h z X.X.E z m E z f d g # u.z h l l l l z z E G m z z z z z z z h h g f d d g l l l g g p g g f d f l h l l l h h l f g h z z E E +.+.E E z E E E E S z z z G G E E E z h j f f f k k z z h S z h f f h z z z h h h h h f f l l z z G E X.X.h z z l d d g h z ! +.A z z z h f d t $ T.E f f f g l z m G z z G z z h z z h l h d d d e d d h z f d e d f f g f h h f d h z z f d d f z z M z E ! E A A ! +.! z b ",
"d z ~ } =.+.=.M b z h f f f f d h z E z z h h z h z z z z ! E z l l l l z m m m l m G K l l l z g z z z z E E G z g l g d z $ X.l h z z h h z z l h h h h h z z l z z z f d d l g l m l p i p l d d d d f f f g l h z z z z E X.M z z M } +.~ M z ~ 5.:.V c b ~ 5.5.:.} M z z h f f f d f h z z M c z h h h z z h z z z h f f f i l G ( G z z G z l l z z z z G X.E G m m z h h h f f < u.d z b h h h z z z z z h z z z z z z z h f d d d l h l f d d d f g f f g d d d g h z z z l h z z z z A z M E } z h M u.:.M ",
"f z ~ ~ E ~ E z z z h f f f d d f h z z h h h h A E E A E +.E z z z l l m m K m z m G K z l l z z G E m z z z g f d d d w g $ G l z z z z z z z z z z z h h z z h z G z l d d l g l m l g i p g d d d d d f f f l h z z z m E X.E E M M E E ~ M ~ +.:.=.V b ~ :.:.+.} E M z z h h h f d d d d f h h h h z z b b z z z z h h h h h z z z z z G X.z l l l z l l z z l l g g f d d f d d $ ! d z z z z z z z z z z l h h h h h h h z h f d d l l h f d d d d f d d d d d d g l z z z h h z E S A E M z z E } } :.i.5.} ",
"z ~ } ~ M M b z b z h h h f d d f f f h h z h h A E E A E +.E z m m m z z z z z z z z z z l l l h G ( G z h f d d 6 i i 6 f # m h z z m z z z G G G z z h l h z h z z z f d d l l z K m g p p d d d d d d d d d l z m E E E E X.E ( ( E M M E ~ +.+.~ V b b ,.:.~ E E M b z z h h f d d d d d d d d h z z b z z z z b z z z z z z z h l h z z z z z h z z z z G l d d d d d 6 6 d d d $ E d b S z z z z z z z z h h h h h h h h z h f d f l z z l f d d d f d d d d d i d l z z z z z E E E E +.E h h z +.5.:.:.z h ",
"b } :.~ M E M z b z h h h f f d f d d f h h j f h h h z E E ! E G G G m z l l l l l l l l g g g d z z z l l f d f d f f d l $ E z m E E G G G E G G z h g f l h l l h l d d d d l m G G n g p d d d d d d d d d h z G E E E E E z E E M z z E } } ~ ~ b b V ,.:.=.} ~ E b z z h d d d d d d d d d d f h h h h h z z z z h h z z h l l z z z g d z z z z z z z E l g f d g g f f f d d $ ! f ~ ! E G G m m G G G h l l l h h l l f d d d f h z m h l f f f g f d d i i i d g z m m z z E E z A ! E h h z E E M M } } ",
"M } 5.} } } } ~ b z h h h h f d h d 6 d j f d f h j h z E E E G E X.X.G z l l z z l l d d d d d d g l d d d g l z l z h f z # G z G ( X.X.E E E m z z l f d f h l h h l f d d d z m m z g g p i d f d d d d d d l z G E G G G G h z z z z z E } M ~ ~ ~ ~ ~ ,.:.i.5.:.} M z z h f f f f f d d d f d d d d f h z z z z z z z z M z h l z G G l d g f l h g d f z l d f l h z z z h j k $ +.h ! ! E G G G m m z z f d d d f l f f l f d d l z z m l g d d f f f d d i i i d l z z G z z E z h h z z z z M z z z ~ z z ",
"b } 5.:.:.5.5.} M z h h h h f d h d d f j d d f z h h z E z z z E X.y.X.G z z m z z l g l l l l d h h d 6 d f l z h z z g z # G z z E ( E G m G z z h f d d g h z z z z z z z z l l l g p i i i d d d d d d f g l h z m z z z m f h z z z M M ~ b } 9.:.~ ~ :.i.k.a.i.:.~ b z h z z h h f d d e d d e e d f h z z z z z z b M } @.E h l z G z z f f l h l d f z d d d d g z z z j h h $ ! k ~ z E G G m z z z z h g f l z m z z E G z z z z z h d d i d d d d i d d d d d l h z z z z z h f f z h z E ~ z h M u.s.5.",
"z } u.5.5.5.+.~ M z z h h h f d h d d l f d d z z h h z z h h h z G +.X.G z z G G z l g l h h l d z z l d d f l z l z z l z # G l h z m z z z z z z h f d f h z G G G G m m z z l l g p p i i i d d d f f l h h l h z z h h z z h h z z E E M z z ~ >.=.b b ,.k.k.a.u.:.} M z z z z z h f d e 9 d d d d d f h h h h h h h z b E +.E h h h z A A l h z z h f h G g d d d f h h z k h z $ ~ f b f z z z z z z z h z h l z E +.X.E X.X.E E G z h l d d d d d f f d d g g l l l l l l l h z h d f z z z E ~ z h z :.M f ",
"z } u.5.5.:.} b M z z h h h f f f d d h f d f E h d d h z h f h f z G G z h z z z h f f f l l f d z G z f f h z h l z z h G $ ( d l z z z h l l z h h f f l z E G G z z m m z z m l g d p p g l d d f f g l z z g l h l l l h z z z z M } } b h h b =.b f f ~ c.i.u.5.+.} M z z h h h h f d d e f h h h h f d d d d d d d f z z z z h z z z h f f f h h f d j z z l l l h z z z h z S $ ! f z f z z z z h h h l l d d l z ( E z G G G E E G h f l f d d g l h l d g l l l l l g d d h z h f h A M M M M z d f z b d ",
"6 N.a.:.a.} } E M v.f h d h d f d d h 6 f z d h d 6 d d d 6 6 d E G z l g g h h f z h g d.l z i d h z z l l h l z f l f f G < <.y.l z l z E f l z d z l X.d g f f E d h <.+.<.G l m z g i p p p 6 g g l d +.d E z i m 6 h f f h z z M :.z a.z 5.M d :.i.1 d B.k.k.k.5.:.z } N.f z d z d d d 3 f 6 d z 9 e h 3 6 e 9 6 6 d z z f d f d z z 6 h h h E h h f t E X.z l g l f d d f f d z < +.s.k z f z z z h h z h f z d d l z +.l h E <.X.m z z l d w d f d d l i l d ( d G d 6 l 6 l f d h z h E } h u.z 5.f d } i.9 ",
"e B.a.} 5.z h f M N.h z d z h h d d f 6 f z d f f f f f f d d l ( G z l g g h h i z G z u.d h d d h z h l h h h f d d d i z $ ( y.l z h m ( d g i 2 w 6 z 5 i w f E d h <.+.1.G z K l d q q q 6 5 d d d 6 G i m z d E i z l l z M M } u.M v.M a.M d 9.i.1 e B.k.k.i.E b d b N.h b f M z h h 9 h 6 f b e d h 6 e d d e d h M M z f h d z z d h z G +.h h f t z z z l l l g d d f f 6 z < E a.f z z G z l d d i 6 d h 6 w d l E d z X.u.+.G G z z d 5 w d 5 6 d w i q z i ( l f G w h h f z z z E +.z a.M i.h d :.~ 1 "
};
