/* XPM */
static char *_bb4eced293145ab9fe5e728892268e08HI4hcdJJMpuR8YY[] = {
/* columns rows colors chars-per-pixel */
"250 250 196 2 ",
"   c #000C13",
".  c #000F1B",
"X  c #001017",
"o  c #01141D",
"O  c #03181F",
"+  c #011622",
"@  c #091721",
"#  c #021A25",
"$  c #091B25",
"%  c #011729",
"&  c #031D2A",
"*  c #0A1E2B",
"=  c #111E2E",
"-  c #011E31",
";  c #0C1F30",
":  c #062027",
">  c #04212D",
",  c #0B222D",
"<  c #0C282F",
"1  c #11232E",
"2  c #042533",
"3  c #082533",
"4  c #0B2733",
"5  c #092531",
"6  c #092334",
"7  c #092634",
"8  c #0A2735",
"9  c #0A2737",
"0  c #092535",
"q  c #0D2736",
"w  c #0C2532",
"e  c #042935",
"r  c #0B2836",
"t  c #0C2937",
"y  c #0D2A35",
"u  c #042738",
"i  c #0A2639",
"p  c #0C273A",
"a  c #0C2738",
"s  c #052B3A",
"d  c #0B2939",
"f  c #0E2A39",
"g  c #0C2C3B",
"h  c #0F2D38",
"j  c #0E293C",
"k  c #0F2A3D",
"l  c #0D2D3C",
"z  c #0D2C3A",
"x  c #112633",
"c  c #122A36",
"v  c #182C36",
"b  c #112739",
"n  c #112D3B",
"m  c #112E3E",
"M  c #122D3A",
"N  c #192E3B",
"B  c #0F3037",
"V  c #06313E",
"C  c #0E313D",
"Z  c #163037",
"A  c #1A3137",
"S  c #12313E",
"D  c #14323D",
"F  c #19313F",
"G  c #19333E",
"H  c #042F40",
"J  c #0D2F41",
"K  c #132F41",
"L  c #122F41",
"P  c #053343",
"I  c #0D3342",
"U  c #0D3947",
"Y  c #0C3748",
"T  c #0E3949",
"R  c #123241",
"E  c #153643",
"W  c #153345",
"Q  c #153544",
"!  c #163646",
"~  c #143443",
"^  c #193643",
"/  c #153945",
"(  c #193946",
")  c #1A3A45",
"_  c #143649",
"`  c #193749",
"'  c #1A3749",
"]  c #153B4A",
"[  c #1A3A4A",
"{  c #1B3C4B",
"}  c #133E50",
"|  c #1B3F51",
" . c #213B45",
".. c #213E4B",
"X. c #213F51",
"o. c #17414F",
"O. c #1D414D",
"+. c #0F4051",
"@. c #164352",
"#. c #1D4453",
"$. c #174954",
"%. c #1E4956",
"&. c #16475B",
"*. c #1D4759",
"=. c #1E4B5B",
"-. c #1E515C",
";. c #22424E",
":. c #2E444F",
">. c #224554",
",. c #294654",
"<. c #244A56",
"1. c #294B56",
"2. c #224759",
"3. c #284759",
"4. c #244C5C",
"5. c #294D5C",
"6. c #314752",
"7. c #304B56",
"8. c #314F5A",
"9. c #255057",
"0. c #285157",
"q. c #25515E",
"w. c #2B515D",
"e. c #2D585F",
"r. c #32515C",
"t. c #38525F",
"y. c #1F4E60",
"u. c #1E5162",
"i. c #244E60",
"p. c #294F60",
"a. c #304F61",
"s. c #255161",
"d. c #2B5262",
"f. c #255965",
"g. c #2C5965",
"h. c #275668",
"j. c #2B5669",
"k. c #275B68",
"l. c #2D5B6B",
"z. c #315564",
"x. c #395661",
"c. c #335965",
"v. c #3A5A65",
"b. c #315768",
"n. c #335C6C",
"m. c #395D6C",
"M. c #2E5E71",
"N. c #335E71",
"B. c #395F70",
"V. c #2E606E",
"C. c #34616E",
"Z. c #3B616E",
"A. c #2F6272",
"S. c #2F6578",
"D. c #346373",
"F. c #3A6474",
"G. c #366876",
"H. c #3C6976",
"J. c #356679",
"K. c #3B6779",
"L. c #366A7A",
"P. c #3B6A7A",
"I. c #415E6C",
"U. c #40606F",
"Y. c #416674",
"T. c #416875",
"R. c #486A76",
"E. c #416779",
"W. c #426B7B",
"Q. c #496D7C",
"!. c #43717F",
"~. c #49707E",
"^. c #3D6E81",
"/. c #3D7283",
"(. c #3F7788",
"). c #496E82",
"_. c #437383",
"`. c #4B7383",
"'. c #457986",
"]. c #487987",
"[. c #45768A",
"{. c #4A7589",
"}. c #46798A",
"|. c #4B7B8B",
" X c #507484",
".X c #517886",
"XX c #557C8C",
"oX c #4D7D92",
"OX c #507F91",
"+X c #55818E",
"@X c #5B838F",
"#X c #538293",
"$X c #5A8190",
"%X c #568599",
"&X c #59889A",
"*X c #6996AB",
/* pixels */
"& # # & & # # > 3 3 8 3 > & & & 3 3 3 3 3 > > & & & & & & & & & & & & & & & & & & & & & & > > 3 8 3 3 3 3 3 8 d 3 2 8 8 d 8 8 8 - i k i - & 8 L k k k f p p i i 3 3 2 2 2 > & & & & & # # # # # # # # & > > > & & & & # + + @ @ o + # # # # # & # # # # & & & & # # # # O o o o o o O o O O o o o + + + + + + + + + + + + + + + + + + + + + + + + + + + + + + + + + + + + + + + + + + + # # # # % % # # # % + + & & & # # # $ $ # # # # & & & # & & & & & & & & # # # # # # # # + + # # & $ * , > 3 2 > > > & + & & ",
"> # # > 8 r r n t f f f q q q t t t t t t r 8 8 8 8 8 8 8 8 8 8 3 3 q t z n n m S S S S R E ) ) ! ! ~ l z z l l l ~ ! ! ~ E ) [ >.` m g L ! W ~ W W ! W ! ! ` ` { [ [ ] ! ! ! R l d e 3 2 2 2 2 i 3 3 2 2 2 2 > > > > & # + o o + + + + # # # & > > > > > > & & & & & & & & & & # # # # # # # # # # # & & & # # & & & & & & & # & & & & & & & & # # # # # + + + + + + + + + + + + + # # & , 5 w 6 6 6 6 5 > & & & # # # # # # & # # # & > > > , 3 3 y 3 3 3 3 3 & & & & & & # & & > , y M D G G S D S n y y 3 & & & ",
"> > > z ( { { ..{ ......) ) { ..) ) { [ { ) ) ) ) ) ) ) ( ( ( ( { O.>.>.,.1.1.4.>.<.<.1.4.4.w.w.5.5.4.>.#.#.#.#.{ >.4.>.%.4.5.5.2.{ _ ] 2.p.5.2.2.4.2.4.4.4.4.4.2.>.>.>.#.#.#.#.>.%.#.| { { { { _ I C C C C I C E G G S c , & + # # # # # & > > & & > 2 2 8 i t t y r y t y t y S B c B n y y y z z l l l S S S R E ! E ! E E ~ W ~ ! E ~ ~ ~ S m z f f f 8 i 8 d t d f f f f f k m m ~ ! ) { { ( ! ! ! ! ~ ~ m m m n n n n n n z B S D ( ) { { ) ) ) ) ( / ( ^ R D ~ S D S S S ~ E ! ) ..;.,.>.;.;.{ ) ^ E z > & & ",
"> e C { >.1.1.1.5.5.5.1.,.,.1.1.1.1.1.5.5.5.5.5.r.r.r.r.r.r.r.r.z.z.z.z.z.z.z.g.d.d.d.g.g.g.g.g.n.c.c.g.j.j.j.j.d.j.j.d.g.n.c.s.U @.4.d.j.l.l.l.l.l.j.d.d.d.d.d.j.d.d.d.d.d.5.5.d.d.5.5.5.5.d.d.d.4.4.<.q.q.q.q.9.<.<.<.;.^ t > & & & > > z B S D D / ) { O.>.>.>.>.<.<.<.<.<.<.<.<.<.>.>.>.>.>.<.<.%.#.%.#.>.<.4.4.4.9.4.4.4.4.5.5.5.4.4.4.4.<.>.>.>.>.%.#.#.#.4.<.4.<.4.4.4.4.5.5.5.5.5.w.d.d.4.4.p.4.4.4.4.<.4.1.1.<.1.<.1.1.5.5.0.w.w.w.w.w.0.0.0.5.5.5.5.5.5.5.5.5.5.5.5.5.1.5.5.5.w.w.w.w.1.1.>.;.;.{ E r > > ",
"2 I <.w.w.w.d.d.5.w.z.r.5.5.r.z.z.z.z.z.c.c.z.z.c.c.c.c.c.z.c.z.n.n.n.n.n.n.n.l.C.C.C.C.C.V.V.V.C.V.l.l.l.C.C.C.D.l.j.l.G.G.j.=.=.h.D.G.D.j.l.l.M.l.l.l.l.j.j.j.c.c.b.c.b.j.j.j.d.j.d.d.d.j.z.l.l.g.g.g.l.g.g.g.f.g.e.w.1.{ z > > > > y S / { O.O.>.>.1.1.1.1.1.0.w.e.e.e.d.g.d.c.g.g.g.g.g.g.g.g.g.g.f.h.s.g.g.l.l.l.l.l.l.l.g.l.g.l.g.l.d.d.d.l.g.l.g.l.n.c.n.l.l.c.l.n.n.n.n.n.n.n.n.n.n.c.l.l.l.l.l.l.l.n.n.g.g.z.g.g.g.z.z.C.n.n.n.n.n.c.c.C.C.C.C.n.n.n.n.n.n.n.n.c.z.z.z.n.n.c.z.z.g.g.g.5.5.1.>.>.>.[ l 2 2 ",
"s #.z.n.z.d.d.z.w.d.z.z.z.z.z.z.c.c.m.m.m.m.v.c.m.m.m.m.m.m.m.Z.C.C.D.F.F.F.H.H.G.G.G.G.G.G.D.D.G.G.G.D.G.G.G.D.P.D.A.H.P.V.s.=.J.J.J.J.J.J.J.D.J.J.D.J.J.J.J.D.N.n.n.n.n.n.n.n.B.N.n.n.n.n.n.n.l.l.l.V.V.V.g.f.f.g.s.q.4.o.I e & & > z ) O.>.>.O.O.<.5.w.d.w.w.d.d.d.g.g.g.l.g.C.C.C.n.C.C.F.D.G.D.D.D.D.D.D.D.A.D.D.D.D.D.D.D.D.D.D.D.C.C.C.l.C.C.D.D.D.G.G.G.D.D.D.D.D.D.D.D.D.D.D.D.D.D.D.D.A.A.A.D.D.D.D.G.D.C.C.C.C.C.C.C.C.C.C.C.C.C.C.C.F.F.D.C.C.C.C.C.Z.Z.Z.C.C.Z.C.C.C.C.C.C.n.n.n.c.w.5.1.>.1.1.{ S 2 2 ",
"] q.n.n.g.g.z.z.z.c.n.n.c.z.z.d.z.c.c.z.c.c.z.d.Y.Y.Y.Y.Y.Y.Y.T.n.n.D.F.F.P.K.P.G.H.P.P.P.P.P.H.P.P.P.P.P.P.P.P.P.P./.'.P.s.s.G.^.P.J.J.P.^.P.J.J.J.J.J.J.J.J.G.L.F.F.F.F.D.F.D.N.n.N.n.N.n.N.n.G.G.G.G.L.P.P.P.s.q.<.<.<.o.~ d & & 2 D O.<.<.%.<.9.g.Z.Z.Z.m.n.n.C.C.C.D.C.D.D.l.g.l.g.l.n.D.D.G.G.J.L.P.P.L.L.L.L.P.L.L.P.L.J.J.J.P.J.P.J.G.G.G.J.G.G.G.J.P.J.P.J.P.G.G.G.G.J.G.J.G.G.G.G.G.G.G.J.J.J.J.J.G.G.G.G.G.D.D.D.D.F.D.F.F.F.H.H.H.H.H.H.H.H.H.F.F.F.H.H.H.H.H.F.H.F.D.D.C.C.C.C.n.n.w.5.1.>.1.>.{ B 2 2 ",
"%.g.C.n.g.n.n.n.z.n.n.n.d.5.1.>.<.<.<.<.<.<.<.<.<.<.<.<.<.<.<.4.<.4.s.d.d.j.j.l.D.D.F.H.P.P.P.P.L.P.P.P.P.P.P.P.P.^.|.#XG.@.s.|.L.P.^.^.P.D.N.M.D.M.M.M.l.l.h.h.i.i.i.i.i.i.i.i.4.4.4.4.i.i.s.d.i.i.-.s.j.V.D.G.=.=.#.#.#.] J 3 & > z / <.0.9.%.e.g.z.n.z.d.4.>.4.4.4.4.4.4.4.4.<.<.4.<.4.s.d.g.l.V.A.G.J.J.J.J.P.P.P.P.P.P.P.P.P.P.P.P.P.P.P.P.P.P.P.P.P.P.P.P.P.P.P.P.P.G.G.G.P.P.P.G.G.G.G.G.P.J.J.J.G.G.G.P.G.G.G.G.D.D.F.F.H.H.H.H.H.H.H.H.H.H.H.H.H.H.H.H.H.H.H.H.H.H.H.H.F.F.F.F.C.n.n.c.w.1.>.;.;.;.E r 3 2 ",
"g.C.l.C.l.d.C.n.n.T.H.d.%.4.5.<.4.4.4.<.<.<.<.<.<.<.<.<.<.<.<.4.4.4.4.4.4.4.4.4.4.4.4.4.4.s.s.d.N.N.F.K.W._.{.{.).K.K.).i.4.F.j.i.i.i.i.i.i.i.i.y.i.y.i.i.i.i.i.i.i.i.y.y.y.i.i.i.i.i.i.i.s.s.s.i.4.i.s.s.=.l.W.=.] #._ ! #.f 8 2 & > E 4.e.e.e.g.C.C.n.q.%.4.w.2.2.2.4.4.4.4.4.2.2.2.4.4.4.4.4.s.=.=.=.s.h.l.M.J.J.J.J.J.J.J.D.L.L.L.L.P.P.P.P.D.D.G.G.J.L.L.L.L.L.J.J.G.G.G.D.G.D.D.D.G.G.G.G.D.D.D.D.D.D.F.D.D.D.F.F.F.F.F.F.m.m.m.m.m.m.m.m.m.m.m.m.m.F.F.F.F.F.F.F.F.F.F.F.F.F.F.B.m.m.n.c.z.[ >.[ ! O.l 3 2 3 ",
"s.C.l.C.l.g.C.n.F.F.n.4.4.4.5.4.4.4.4.<.<.<.<.<.<.<.<.<.<.<.<.4.1.5.5.5.5.4.4.4.4.4.4.4.4.4.p.d.4.4.p.p.p.d.d.d.j.p.p.n.| ] j.4.i.i.i.i.i.i.i.i.i.i.i.i.i.i.i.i.i.4.y.=.y.=.i.4.i.4.i.s.i.s.s.s.p.i.i.s.i.4.d.F.d.] | { ! { m q 2 & > E 9.e.e.e.C.n.g.s.<.<.4.4.2.4.4.4.4.4.4.4.2.2.4.4.4.4.4.4.s.i.=.=.=.=.i.s.s.s.i.i.y.y.=.=.d.d.d.h.h.h.h.h.l.l.l.n.n.N.N.N.l.l.l.n.N.N.D.D.L.L.F.D.N.N.n.l.l.l.n.c.c.c.c.c.n.n.n.n.n.n.c.c.z.z.z.z.z.z.z.z.z.z.z.z.z.z.z.z.d.d.d.d.z.d.a.d.z.d.z.d.p.5.5.5.r.{ >.[ ! { d 3 2 3 ",
"q.n.l.C.l.g.D.l.F.n.q.<.<.q.4.4.4.4.4.<.<.<.<.<.<.<.<.<.<.<.<.4.3.3.1.1.3.3.3.1.1.2.4.4.4.4.4.4.4.4.2.2.2.2.2.2.2.#.2.p.| _ p.%.i.i.4.4.4.4.4.4.4.4.4.4.4.i.i.i.4.4.4.4.4.4.4.4.4.4.4.4.i.s.s.i.d.i.i.p.i.4.4.j.n.] { { ! ' K 8 2 > 2 / 9.e.d.g.F.l.q.%.4.4.4.4.4.4.4.4.4.4.2.2.2.4.4.4.4.4.4.4.i.4.4.=.=.=.=.=.4.4.=.=.=.=.=.=.4.4.4.4.4.4.4.4.i.i.s.s.d.d.d.d.j.l.n.n.N.F.F.F.N.N.n.c.j.d.d.s.p.p.p.p.p.p.p.p.p.5.5.5.5.5.5.5.5.5.5.5.5.5.5.5.5.5.5.5.1.1.1.1.1.1.1.1.1.1.1.1.1.1.1.1.1.1.1.1.5.#.#.] ] ] s 2 2 2 ",
"=.n.l.C.n.g.F.l.C.d.4.<.q.4.4.4.4.4.4.<.<.<.<.<.<.<.<.<.<.<.<.1.1.1.1.1.3.3.3.3.3.2.1.4.4.4.4.4.5.5.5.5.5.4.5.5.5.2.5.p.2._ 5.>.4.4.4.4.4.2.4.4.4.4.4.4.4.4.i.4.4.4.4.4.4.4.4.4.4.4.4.4.4.s.s.s.d.p.i.p.i.4.4.4.Y.#.{ | ! W W p 2 > 2 ( 9.d.g.g.F.g.<.*.=.4.4.4.4.4.4.4.4.2.2.2.4.4.4.4.4.4.4.4.4.4.4.4.4.4.4.4.d.d.s.s.s.i.i.i.4.4.4.4.4.4.4.4.4.4.4.4.4.4.4.4.i.i.i.p.p.p.p.p.p.p.p.p.i.i.4.4.4.4.4.4.4.4.4.4.2.,.,.,.1.,.1.1.1.1.1.1.1.1.1.1.1.1.1.1.1.5.1.5.5.5.5.5.5.5.5.5.5.5.5.5.8.5.5.w.5.4.#.[ ] / s 2 2 2 ",
"=.n.n.n.n.n.F.l.j.4.4.d.d.4.4.5.4.<.1.<.<.1.1.1.1.1.1.1.<.<.<.1.1.1.1.1.1.4.1.4.,.1.1.1.1.<.1.<.2.4.2.2.4.4.4.4.5.2.5.4.4.g 4.4.4.4.4.4.4.=.4.4.4.<.4.4.4.4.4.4.4.<.<.<.<.4.<.<.4.4.4.4.q.q.q.s.d.i.i.s.d.4.4.<.H.4.{ { ! ~ W t e > 2 / w.g.g.c.C.g.s.4.4.4.4.4.4.4.4.4.4.4.4.4.4.4.4.4.4.4.4.4.4.4.4.4.s.s.s.s.4.4.4.4.4.4.4.4.4.4.4.4.4.4.4.4.4.4.4.4.4.4.4.4.4.4.4.4.4.=.4.=.4.4.4.4.4.4.4.4.4.4.4.4.4.4.4.4.5.5.1.1.1.1.5.5.5.5.5.5.5.5.5.5.1.1.5.5.5.5.5.5.5.5.5.5.5.5.5.5.5.5.5.5.5.5.w.w.5.d.#.{ #._ s s 2 2 ",
"=.C.n.D.n.n.H.j.4.4.4.j.d.4.4.w.5.1.1.<.<.<.1.1.1.1.1.1.<.<.<.1.1.1.4.4.4.4.4.4.<.1.4.4.1.<.<.<.4.4.4.4.<.<.4.<.4.>.4.#.w.g 4.4.4.4.4.4.=.=.<.=.<.<.<.4.4.4.4.<.<.<.<.<.<.4.<.<.4.4.4.4.q.q.q.q.s.i.i.i.s.q.q.<.n.z.o.{ [ R ~ t e > 2 ( w.z.z.n.n.g.d.4.4.4.4.4.4.4.4.4.4.4.4.4.4.4.4.4.4.4.4.4.4.=.4.4.4.4.4.=.4.=.4.=.4.=.4.4.4.4.4.4.4.4.4.4.q.4.4.s.i.i.s.s.s.s.d.s.d.s.d.s.4.4.4.4.4.4.4.<.4.4.4.4.4.4.4.4.5.5.5.1.1.1.1.1.1.1.5.1.5.1.5.1.w.w.5.1.5.1.1.1.5.1.5.1.5.1.5.1.5.1.4.1.5.5.5.0.5.c.#.{ >.I s s 2 2 ",
"=.D.D.D.D.D.H.j.4.4.4.p.4.4.4.5.5.1.1.1.1.1.1.1.1.1.1.1.1.1.1.1.1.1.1.1.1.1.<.<.<.<.<.<.<.<.<.<.4.4.4.4.4.<.<.<.<.%.4.#.z.V <.q.4.=.=.=.=.=.=.=.=.=.=.=.=.=.=.<.<.4.4.4.4.4.4.4.4.4.4.4.q.w.w.q.i.s.s.q.q.q.q.9.9.F.#.E O.R C r r > 2 ] w.z.n.n.n.g.i.4.4.4.4.4.=.=.=.=.=.=.=.=.=.=.=.4.=.=.=.4.q.q.4.-.=.=.=.-.q.q.q.q.q.q.q.q.=.4.4.4.q.q.q.q.q.q.q.q.q.q.q.q.=.=.=.=.<.=.<.=.q.q.q.q.q.=.4.<.4.<.<.<.<.<.<.<.<.1.1.1.<.<.<.<.1.1.1.1.1.1.<.1.0.0.1.1.1.<.<.<.0.0.0.0.0.0.0.0.0.0.5.0.0.0.0.0.5.m.O.{ >.g 2 2 2 u ",
"4.F.D.D.D.D.H.d.4.4.4.4.4.5.p.4.5.1.5.1.4.1.4.1.1.1.4.1.4.1.4.1.1.1.1.1.4.<.<.<.<.<.<.<.4.<.<.<.%.%.%.<.<.<.<.<.%.%.q.#.n.s #.<.4.4.4.=.=.=.=.=.=.=.=.=.=.=.=.4.4.4.4.4.4.4.4.4.4.4.4.q.4.w.w.q.4.s.s.4.=.=.=.=.#.H.#.I O.R z r r > 2 { w.z.n.C.C.d.4.%.2.4.4.4.=.=.=.=.=.=.=.4.=.=.=.=.=.-.-.-.s.q.q.-.q.q.s.q.=.=.=.=.=.=.-.=.=.=.<.=.4.4.4.q.q.q.4.<.<.4.4.4.q.q.q.q.q.q.q.q.q.q.q.4.4.4.q.q.<.%.<.<.<.<.<.<.4.4.4.4.<.<.<.<.1.1.5.1.1.1.1.0.<.<.<.1.1.1.5.5.<.<.<.<.<.<.<.<.<.9.9.9.9.9.9.9.4.Z.{ ] >.s 2 2 u u ",
"@.K.D.n.F.F.F.F.5.5.5.5.5.5.5.4.4.4.4.4.4.4.4.4.4.4.4.1.4.1.4.1.4.1.4.1.4.<.4.<.4.1.4.1.4.1.4.4.4.4.4.4.4.<.<.<.%.4.4.#.F.g #.>.4.4.4.4.4.4.4.4.4.4.4.4.4.4.4.4.s.q.4.4.4.<.4.<.4.<.4.4.4.4.4.4.s.4.4.4.4.q.=.=.d.T.d._ { { f f y > 2 ( 9.n.n.C.C.C.s.*.4.4.4.4.4.<.4.4.<.<.<.4.4.4.4.s.s.s.s.s.s.q.=.=.4.4.s.q.4.q.u.q.4.4.4.4.4.4.q.4.4.4.4.4.4.4.4.4.4.4.4.4.s.s.4.4.4.4.4.4.4.4.4.4.4.4.4.4.<.<.<.<.4.4.4.4.4.4.4.5.5.5.5.5.5.1.5.1.5.1.5.1.5.1.5.1.5.1.5.5.5.5.5.5.5.p.5.5.5.4.>.5.d.q.4.d.4.d.#.{ ] s s 2 u u ",
"@.F.D.n.H.F.F.H.5.5.5.5.5.5.5.4.4.4.4.4.4.4.4.4.4.4.4.4.4.4.4.4.4.4.4.4.4.4.4.4.4.4.4.4.4.4.4.4.1.1.4.4.4.4.<.<.4.4.4.%.m.g | 4.4.4.4.4.4.4.4.4.4.4.4.4.4.4.4.4.s.s.4.4.4.4.4.4.4.4.4.4.4.4.4.4.p.4.=.4.4.s.s.4.4.H.d.] { [ f n y > 2 / 4.l.n.C.V.D.s.*.=.4.>.4.4.<.<.<.4.<.<.4.4.4.i.i.s.s.s.s.s.s.u.=.4.s.s.s.4.s.s.s.4.4.4.4.4.4.q.4.4.4.4.4.4.4.4.4.4.4.4.4.s.s.4.4.4.4.4.4.4.4.4.4.4.4.4.4.<.<.<.<.4.4.4.4.4.4.4.5.5.5.5.5.5.5.5.5.5.5.5.5.5.5.5.5.5.5.5.5.5.p.p.p.p.p.p.p.p.4.4.p.s.4.q.d.z.c.#.| { I g 2 u u ",
"} F.D.N.K.F.F.H.5.5.5.5.5.5.4.4.1.4.4.4.1.1.4.1.4.4.4.4.4.4.4.4.4.4.,.,.4.4.4.4.4.4.4.4.4.4.4.4.1.1.4.4.4.<.<.<.<.<.4.4.m.s [ p.4.4.4.4.4.4.4.4.4.4.4.4.4.4.4.4.s.s.s.4.4.4.4.4.4.4.4.4.4.4.4.4.i.4.4.4.4.i.s.s.<.Z.d.{ [ ! p n 2 > 2 / 4.g.n.C.D.G.g.=.%.<.>.5.4.<.<.<.4.<.<.4.4.4.i.i.s.s.4.=.s.s.=.=.4.4.s.s.4.4.s.u.4.4.4.4.4.q.q.s.4.4.4.4.4.4.4.4.4.4.4.4.s.s.s.4.4.4.4.4.4.4.4.4.4.4.4.4.<.<.4.4.4.4.4.4.4.4.4.5.5.5.5.5.5.5.5.5.5.5.5.5.5.5.5.5.5.5.5.5.5.5.5.5.p.p.p.p.d.i.4.s.s.4.s.d.d.d._ U ] g s 2 u u ",
"] F.F.D.K.F.H.K.5.5.5.5.5.5.4.4.1.4.4.4.1.1.1.1.4.4.4.4.4.4.4.4.4.2.2.4.4.4.4.4.4.4.4.4.4.4.4.4.1.1.4.4.4.<.<.<.4.4.4.4.c.g ! z.4.4.4.4.4.4.4.4.4.4.4.4.4.4.4.4.s.s.s.4.4.4.4.4.4.4.4.4.4.4.4.4.4.4.4.4.4.4.4.4.d.n.5.] [ ! f n > > 2 E 4.g.n.C.D.G.l.4.<.%.>.5.4.<.<.<.4.<.<.4.4.4.i.i.s.i.i.=.s.s.4.4.4.4.u.u.s.s.s.s.s.s.s.s.s.s.q.s.s.4.4.4.4.4.4.4.4.4.4.4.s.s.s.4.4.4.4.4.4.4.4.4.4.4.4.4.<.<.4.4.4.4.4.4.4.4.4.5.5.5.5.5.5.5.5.5.5.5.5.5.5.5.5.5.5.5.5.5.5.5.5.5.p.p.5.p.p.s.s.4.4.4.s.d.{ #.s s I u 2 2 u u ",
"T F.F.F.W.F.K.K.5.5.5.5.5.4.4.4.1.1.4.4.4.4.1.1.4.4.4.4.4.4.4.4.4.4.4.4.4.4.4.4.4.4.4.4.4.4.4.4.1.1.4.4.4.4.<.<.4.4.4.4.z._ ~ z.4.4.4.4.4.4.4.4.4.4.4.4.4.4.4.4.s.s.s.4.4.4.4.4.4.4.4.4.4.4.4.4.4.4.i.i.4.4.=.=.F.z.>.] [ ! m t > > > / 4.g.n.D.D.J.l.4.<.<.>.5.4.<.<.<.<.<.<.4.4.4.i.i.s.s.4.4.s.s.4.4.4.4.4.s.s.s.s.s.s.s.s.s.s.s.s.4.s.i.4.4.4.4.4.4.4.4.4.4.s.s.s.4.4.4.4.4.4.4.4.4.4.4.4.4.<.4.4.4.4.4.4.4.4.4.4.5.5.5.5.5.5.5.5.5.5.5.5.5.5.5.5.5.5.5.5.5.5.p.5.4.i.4.4.4.4.4.4.4.4.s.d.d.] >.I I _ s s u u u ",
"Y F.F.F.W.F.K.T.5.5.5.5.5.4.4.4.1.1.4.4.1.1.1.1.4.4.4.4.4.4.4.4.4.4.4.4.4.4.4.4.4.4.4.4.4.4.4.4.1.1.4.4.4.4.<.<.4.4.5.4.z.#.~ 5.i.4.4.4.s.s.s.s.s.s.4.4.4.4.4.4.i.s.s.4.4.4.4.4.4.4.4.4.4.4.4.4.4.4.i.i.4.4.4.4.F.d.{ ] [ ! m 3 > > > E <.g.C.D.D.G.l.4.4.<.>.4.4.<.<.<.<.<.<.4.4.4.i.i.s.s.4.4.s.s.4.4.4.4.s.s.s.s.s.s.s.s.s.s.s.s.s.s.s.i.i.i.4.4.4.4.4.4.4.4.i.s.s.4.4.4.4.4.4.4.4.4.4.4.4.4.4.4.4.4.4.4.4.4.4.4.1.5.5.5.5.5.5.5.5.5.5.5.5.5.5.5.5.5.5.5.5.5.4.i.4.4.4.4.4.4.4.4.4.4.4.d.h.s.>.5.[ _ _ u s u 2 u ",
"Y D.K.F.W.F.K.T.5.w.5.4.5.4.5.4.4.4.4.4.4.4.4.4.4.4.4.4.4.4.4.4.4.4.4.4.4.4.4.4.4.4.4.4.4.4.4.4.1.1.4.4.4.4.<.<.<.<.d.4.d.4.~ 4.i.s.4.4.4.4.s.s.s.s.s.s.4.4.4.4.4.4.s.4.4.4.4.4.4.4.4.4.4.4.4.4.4.i.i.i.4.4.s.d.n.%.] { [ E m 3 > > 2 / <.g.C.D.D.G.d.=.<.4.>.4.4.<.<.<.<.<.4.4.4.4.4.i.q.4.4.4.4.4.=.=.4.4.4.4.s.s.s.s.s.s.s.s.s.s.s.s.s.4.s.4.4.4.4.4.4.4.4.4.4.4.s.4.4.4.4.4.4.4.4.4.4.4.4.4.4.4.4.4.4.4.4.4.4.4.1.5.5.5.5.5.5.5.5.5.5.5.5.5.5.5.5.5.5.5.5.5.q.s.s.4.4.4.4.4.4.4.4.=.s.d.q.*.d.z.[ ~ I u u 2 2 u ",
"Y D.K.K.W.F.K.W.5.q.5.4.5.5.5.4.4.4.4.4.4.4.4.4.4.4.4.4.4.4.4.4.4.4.4.2.4.4.4.4.4.4.4.4.4.4.4.4.1.1.4.4.4.4.<.<.4.<.d.4.p.d.~ >.i.s.4.4.4.4.s.s.s.s.s.s.4.4.4.4.4.4.s.4.4.4.4.4.4.4.4.4.4.4.4.4.4.i.i.4.4.s.l.n.q.] ] #.[ ~ f 3 & & 2 / <.d.C.D.J.J.h.=.<.4.1.1.4.<.<.<.<.<.4.4.4.4.4.i.q.q.4.4.4.=.=.=.4.4.4.4.s.s.s.s.s.s.s.s.s.s.s.s.s.4.4.q.4.4.4.4.4.4.4.4.4.4.s.4.4.4.4.4.4.4.4.4.4.4.4.4.4.4.4.4.4.4.4.4.4.4.1.5.5.5.5.5.5.5.5.5.5.5.5.5.5.5.5.5.5.5.5.5.q.s.s.4.4.4.4.4.s.s.=.=.s.d.=.] c.z.! l I s s 2 2 u ",
"T d.K.K.F.K.K.F.c.4.5.5.<.1.w.5.4.4.4.4.4.4.4.4.4.4.4.4.4.4.4.4.4.4.>.4.4.4.4.4.4.4.4.4.4.4.4.4.5.1.4.4.4.4.4.4.<.<.d.#.d.Q.d #.4.4.4.s.s.d.d.d.s.s.s.s.q.s.s.s.s.s.s.4.4.4.4.4.4.4.4.4.4.4.4.4.4.4.4.i.s.=.4.D.4.o._ ] [ ~ 8 & > > > O.<.<.G.D.D.G.=.%.4.<.4.4.<.<.<.<.<.<.4.4.4.4.4.4.i.s.s.s.s.s.s.s.s.4.4.4.s.s.s.s.s.s.s.s.s.s.s.s.s.s.q.s.s.s.s.4.s.4.4.4.4.4.4.4.4.4.4.4.4.4.4.4.4.4.4.4.<.<.<.4.4.4.4.4.5.5.5.5.5.5.5.5.5.5.5.5.5.5.5.5.1.1.5.5.5.5.5.5.s.q.=.=.4.s.4.4.=.l.s.=.d.d.*.%.d.| W J s g g 2 2 u ",
"Y s.K.K.F.W.W.H.j.4.4.d.4.4.5.4.4.4.4.4.4.4.4.4.4.4.4.4.4.4.4.4.4.4.>.4.4.4.4.4.4.4.4.4.4.4.4.4.1.1.4.4.4.4.4.4.4.%.d.4.d.F.2 #.d.s.s.s.s.s.s.s.s.s.s.s.s.s.s.s.s.s.4.4.4.4.4.4.4.4.4.4.4.4.4.4.4.i.4.i.s.=.4.F.#.] ] { [ ~ 8 3 & > > O.<.<.D.D.D.J.=.%.4.<.5.4.1.<.<.<.<.<.4.4.4.4.4.4.4.s.s.s.s.s.s.s.s.4.4.4.s.s.s.s.s.s.s.s.s.s.s.s.s.s.s.s.s.s.s.4.s.4.4.4.4.4.4.4.4.4.4.4.4.4.4.4.4.4.4.4.<.<.4.4.4.4.4.4.5.5.5.5.5.5.5.5.5.5.5.5.5.5.5.5.1.1.5.1.5.5.5.5.q.q.4.q.s.s.4.4.d.*.*.d.d.] @.F.c.X.~ J d g g 2 2 u ",
"P 4.F.K.K.W.W.K.d.<.4.d.4.4.5.4.4.4.4.4.4.4.4.4.4.4.4.4.4.4.4.4.4.4.4.4.4.4.4.4.4.4.4.4.4.4.4.4.1.1.4.4.4.4.4.4.q.%.d.w.d.c.2 #.d.s.s.4.4.4.4.s.s.s.s.s.s.s.s.s.s.s.4.4.4.4.4.4.4.4.4.4.4.4.4.4.4.p.4.4.s.4.s.F.] ] ] { [ ~ p 8 & & > O.<.<.D.D.D.G.=.%.4.<.5.1.1.<.<.<.<.4.4.4.4.4.4.4.4.4.s.s.s.s.s.s.s.s.4.4.s.s.s.s.s.s.s.s.s.s.s.s.s.s.s.s.s.s.s.4.s.4.4.4.4.4.4.4.4.4.4.4.4.4.4.4.4.4.4.4.<.<.<.4.4.4.4.4.5.5.5.5.5.5.5.5.4.5.5.5.5.5.5.5.<.<.<.<.<.<.4.4.<.q.s.s.i.4.4.4.4.d.j.4.#.4.d.4.v.! 3 g d s g u 2 u ",
"P 4.F.K.K.T.T.K.z.4.4.5.4.4.5.4.4.4.4.4.4.4.4.4.4.4.4.4.4.4.4.4.4.4.4.4.4.4.4.4.4.4.4.4.4.4.4.4.1.1.4.4.4.4.4.4.4.4.w.w.d.m.g ] 4.4.4.4.4.4.s.s.s.s.s.s.s.s.s.s.4.s.s.4.4.4.4.4.4.4.4.4.4.4.4.4.i.p.4.4.s.4.s.F.%.{ ] { [ ~ f 8 & & > { <.<.D.C.D.G.=.=.4.<.4.1.1.<.<.<.<.4.4.4.4.4.4.4.=.4.s.s.s.s.s.s.s.s.s.s.s.s.s.s.s.s.s.s.s.s.s.s.s.s.s.s.s.s.s.4.s.4.4.4.4.4.4.4.4.4.4.4.4.4.4.4.4.4.4.4.<.<.<.4.4.4.4.4.5.5.5.5.5.5.5.5.5.5.5.5.5.5.5.5.<.<.<.<.<.<.<.4.<.q.s.i.=.=.4.4.4.c.d.H s n.E._ m.! 3 l l i 3 3 2 2 ",
"P =.D.K.H.H.H.F.F.d.4.5.4.4.w.4.4.<.<.<.4.4.4.4.<.<.<.4.4.4.4.4.>.>.>.4.4.4.4.4.4.4.4.4.4.4.4.4.1.5.4.4.4.4.<.<.<.4.5.4.5.Q.{ g d.s.s.d.d.s.s.s.s.s.s.s.s.s.s.s.4.4.4.4.4.4.4.4.4.4.4.4.4.4.4.4.i.d.4.4.s.i.s.n.d.%._ _ [ ! l 8 > & > / #.%.C.C.G.G.=.=.4.>.4.<.4.<.<.<.<.<.4.4.4.4.4.4.=.=.s.s.s.s.s.s.s.s.s.s.s.s.s.s.s.s.s.s.s.s.s.s.s.s.s.s.s.s.s.4.4.4.4.4.4.4.4.4.4.4.4.4.4.4.4.4.4.4.4.4.<.<.4.4.4.5.5.5.5.5.5.5.5.5.5.5.5.5.5.5.5.5.5.5.<.1.1.1.<.<.<.4.4.4.4.4.4.4.p.d.c.] s u u | n.b.m.` k W ~ i 2 2 2 3 ",
"H %.n.K.F.F.F.D.H.d.5.5.<.4.w.4.4.<.<.<.4.4.4.4.<.<.<.4.4.4.4.4.>.>.2.4.4.4.4.4.4.4.4.4.4.4.4.4.1.5.4.4.4.4.<.<.4.d.4.4.5. X5.g p.d.d.d.d.d.s.4.s.s.s.s.s.s.s.s.4.4.4.4.4.4.4.4.4.4.4.4.4.4.4.4.4.d.4.4.s.i.4.l.C.4._ _ [ ( m r > & & / O.%.C.C.G.G.=.%.4.%.4.<.4.<.<.<.<.4.4.4.=.4.4.4.=.=.4.4.4.4.s.s.s.s.s.s.s.s.s.s.s.s.s.s.s.s.s.s.s.s.s.s.s.s.s.4.4.4.4.4.4.4.4.4.4.4.4.4.4.4.4.4.4.4.4.4.4.4.4.4.5.5.5.w.5.5.5.5.5.5.5.5.5.5.5.5.5.5.5.5.<.1.<.1.<.<.1.4.%.4.4.4.4.i.d.j.| s H ] R g { p.,.d - k l g g 2 2 2 ",
"s @.n.F.F.N.N.D.F.d.4.5.4.4.w.<.4.<.<.<.4.4.<.4.<.<.<.4.4.4.4.4.>.>.>.4.4.4.4.4.4.4.4.4.4.4.4.4.1.1.4.4.4.4.<.<.q.q.4.4.5.Q.d.I #.%.4.d.d.d.s.4.s.s.s.s.s.s.s.s.4.4.4.4.4.4.4.4.4.4.4.4.4.4.4.4.4.d.i.4.s.i.4.s.C.4.{ ] { [ S t > > & E o.#.D.D.G.G.=.=.4.>.4.<.4.<.<.<.<.4.4.4.=.=.4.4.=.=.=.=.4.4.4.s.s.s.s.s.s.s.s.s.s.s.s.s.s.s.s.s.s.s.s.q.s.s.s.4.4.4.4.4.4.4.4.4.4.4.4.4.4.4.4.4.4.4.4.4.4.4.4.4.4.4.w.w.5.5.5.5.5.5.5.5.5.4.4.4.9.0.9.9.<.<.4.4.4.4.4.4.<.4.4.4.4.4.4.2.J >.5.5.2.| ! ! ` 3 - 2 3 g g u 2 2 ",
"u } l.F.F.N.N.D.m.5.4.5.4.5.w.<.4.<.<.<.4.4.<.<.<.<.<.4.4.4.4.4.>.>.>.4.4.4.4.4.4.4.4.4.4.4.4.4.1.1.4.4.4.4.<.<.d.4.4.d.5.Y.5._ I U #.4.d.d.d.s.p.s.p.s.p.s.p.s.4.4.4.4.4.4.4.4.4.4.4.4.4.4.4.4.4.d.i.4.i.4.=.4.n.5.#.#.{ ) S z > > & D ] #.D.D.G.G.=.=.4.>.4.<.<.<.4.<.<.4.<.<.=.=.=.4.=.=.=.=.4.4.4.i.i.s.s.s.s.s.s.s.s.s.s.s.s.s.s.s.s.s.s.s.s.s.s.4.4.4.4.4.4.4.4.4.4.4.4.4.4.4.4.4.4.4.4.4.4.4.4.4.4.w.w.w.5.5.5.5.5.5.5.5.5.4.5.4.5.9.5.9.<.<.5.4.5.4.5.4.4.4.4.4.4.>.] I 2.b.p.2.z.z.4.5.5.[ L u - 2 3 & 2 2 ",
"u @.n.F.F.F.F.D.c.d.4.>.4.4.4.<.4.4.4.4.4.4.4.4.4.4.4.4.4.4.4.4.4.4.4.4.4.4.4.4.4.4.4.4.4.4.4.4.4.4.4.4.4.4.4.4.j.4.4.j.j.d.F.XXXXm.] I #.d.d.4.d.5.4.4.4.4.5.d.4.s.s.s.i.=.4.=.4.4.4.4.i.s.i.4.4.4.4.4.4.4.4.4.4.F.>.] ! >.l m > > > z ] 4.l.D.G.G.d.=.<.4.<.<.=.=.4.=.=.=.4.4.=.=.=.4.=.4.4.4.4.4.4.4.4.4.4.4.i.i.i.4.4.4.s.s.i.i.i.i.i.i.i.i.4.4.4.4.4.4.4.4.4.4.4.4.4.4.4.4.<.<.<.<.<.<.4.<.4.4.4.9.9.0.0.0.w.0.w.w.w.w.w.0.w.5.1.5.w.w.5.1.>.1.5.w.w.5.1.>.#.5.z.4.] I { 5.5.5.p.i.i.4.4.4.c.>.~ J ~ d 2 2 2 2 ",
"s *.D.F.F.H.H.F.j.w.4.4.4.4.4.1.4.4.4.4.4.4.4.4.4.4.4.4.4.4.4.4.4.4.4.4.4.4.4.4.4.4.4.4.4.4.4.4.4.4.4.4.4.4.4.4.4.p.j.b.b.j.n.F.4.c.H.z.] I #.j.c.5.>.5.j.d.4.4.i.s.s.s.s.=.=.=.4.4.4.4.s.s.s.4.4.4.4.4.4.4.4.4.4.C.4.] [ | ~ ~ > > > e ] 4.c.D.G.G.d.=.<.<.%.<.=.=.=.=.=.=.4.4.=.=.4.4.4.4.4.4.4.4.4.4.4.4.4.4.p.p.4.4.4.4.p.p.i.i.i.i.i.i.i.i.4.4.4.4.4.4.4.4.4.4.4.4.=.=.4.4.<.<.<.<.<.<.<.<.4.4.4.9.4.0.0.0.0.0.w.w.w.w.0.0.1.5.w.5.1.1.1.5.w.5.>.O.O.1.w.c.c.5.{ ! _ #.5.z.5.5.i.i.i.4.4.4.b.4.] J ~ R g - u 2 ",
"H 4.F.K.H.H.K.K.d.4.4.4.1.5.4.4.4.4.4.4.4.4.4.4.4.4.4.4.4.4.4.4.4.4.4.4.4.4.4.4.4.4.4.4.4.4.4.4.4.4.4.4.4.4.4.4.4.j.c.j.d.b.j.4.d.5.4.d.c.j.#.I #.d.c.d.4.d.d.4.i.s.s.s.s.4.=.=.i.s.4.4.s.s.s.4.4.4.4.4.4.4.4.4.4.c.j.] { [ ! ~ 3 > > 2 ( 4.c.D.D.D.d.=.=.<.%.<.4.4.4.=.4.=.=.=.=.=.4.=.4.4.4.4.4.4.4.4.4.4.4.4.p.p.p.p.4.4.4.p.i.i.i.i.i.i.i.i.4.4.4.4.4.4.4.4.4.4.=.=.=.=.4.4.<.<.<.<.<.<.<.<.<.<.4.5.5.5.5.5.0.0.w.w.0.0.0.0.1.5.5.5.1.1.5.w.5.5.5.5.5.w.w.w.1.{ ( ] >.5.5.4.5.5.i.i.4.4.4.4.p.5.{ J ~ { R 2 u 2 ",
"P i.K.W.F.F.K.T.5.4.4.4.1.4.5.4.4.4.4.4.4.4.4.4.4.4.4.4.4.4.4.4.4.4.4.4.4.4.4.4.4.4.4.4.4.4.4.4.4.4.4.4.4.4.5.p.d.z.j.p.4.d.p.4.z.5.4.p.c.z.4.] _ %.5.d.5.5.5.5.i.s.s.s.s.4.=.=.s.s.4.4.4.q.s.4.4.4.4.4.4.4.q.4.<.d.c.{ >.R [ ~ y > > 2 _ <.c.D.C.D.d.=.=.=.%.<.4.4.4.4.=.=.=.=.4.=.=.4.4.4.4.4.4.4.4.4.4.4.4.4.4.4.4.4.4.4.4.4.4.i.4.4.4.4.i.i.4.4.4.4.4.4.4.4.4.4.=.=.=.=.4.4.4.4.<.<.4.4.4.4.1.4.4.5.5.5.5.5.0.0.w.w.0.0.0.0.w.1.<.1.w.w.5.1.5.w.c.Z.Z.c.w.1.~ ] >.5.d.5.4.>.5.5.i.4.4.4.4.4.p.2.! ~ ! [ I 2 u 2 ",
"T s.K.K.F.F.H.H.4.4.4.4.1.4.4.4.4.4.4.4.4.4.4.4.4.4.4.4.4.4.4.4.4.4.4.4.4.4.4.4.4.4.4.4.4.4.4.4.4.4.4.4.4.4.i.i.c.d.p.d.d.4.4.d.5.d.j.d.4.4.5.z.z.I 2 #.d.4.>.d.i.i.i.4.i.4.4.4.i.i.i.i.4.4.4.4.4.4.4.4.4.4.q.q.4.4.c.>.>.R { ~ r > > 2 R <.l.D.C.D.g.=.=.=.%.<.4.4.4.4.4.4.=.*.4.4.4.4.4.4.4.4.4.4.4.4.4.4.4.4.4.4.4.4.4.4.4.4.4.4.4.4.i.i.i.i.4.4.4.4.4.4.4.4.4.=.=.=.4.4.4.4.4.4.4.4.4.4.4.4.1.1.4.5.5.0.5.5.0.0.0.0.0.w.w.w.5.5.5.5.5.1.>.O.R R C C C C C C >.4.w.5.4.4.5.d.4.4.i.i.4.4.4.4.z.{ J _ ] I s s u 2 ",
"] d.F.K.F.F.F.D.4.4.4.4.1.1.4.4.4.4.4.4.4.4.4.4.4.4.4.4.4.4.4.4.5.5.5.5.5.4.5.4.5.5.5.5.5.5.5.5.4.4.4.4.4.4.i.p.p.4.p.c.j.4.4.d.d.5.4.4.d.d.d.5.z.4._ s I >.5.4.4.i.i.4.i.4.4.4.i.i.i.i.4.4.4.4.4.4.4.4.4.4.q.q.4.<.z.5.| ! { ~ r > > 2 I %.j.n.l.D.j.=.=.=.%.<.4.4.4.4.4.4.4.=.4.4.4.4.4.4.4.4.4.4.4.4.4.4.4.4.4.4.4.4.4.4.4.4.4.4.4.4.4.4.4.4.4.4.4.4.4.4.4.4.4.=.=.=.4.4.4.4.4.4.4.4.4.4.4.4.1.1.4.5.5.5.5.5.0.0.0.0.0.w.w.w.1.w.z.5.O.( { O.<.>.;.O.>.>.1.5.d.5.4.4.5.5.5.4.4.i.i.i.i.4.4.4.v.[ d R ! g 2 g 2 u ",
"*.j.F.F.F.F.D.c.4.4.4.4.<.<.1.1.4.4.4.4.4.4.4.4.4.4.4.4.4.4.4.4.4.4.4.4.4.4.4.4.4.4.4.4.4.4.4.4.4.4.4.4.4.4.p.p.%.4.j.j.d.d.d.p.>.5.z.d.4.>.5.z.#.m.n.U 2 _ 5.4.4.4.4.4.4.4.4.4.4.4.4.4.4.4.4.4.4.4.4.4.4.4.q.q.4.4.d.b.{ #.| ~ y > > 2 R %.d.n.l.G.l.=.<.=.%.9.4.4.4.4.4.4.4.4.4.4.4.4.4.4.4.4.4.4.4.4.4.4.4.4.4.4.4.4.4.4.4.4.4.4.4.4.4.4.4.4.4.4.4.4.4.4.4.4.4.4.4.4.4.4.4.4.4.4.4.4.4.4.4.4.5.1.1.5.5.5.5.5.5.5.5.5.5.5.5.5.w.5.1.O.O.O.;.<.1.1.5.w.w.w.w.w.4.4.4.5.d.5.<.#.4.4.i.i.i.4.4.4.n.#.J I R g s s 2 u ",
"=.l.F.F.F.F.N.l.4.4.4.4.<.<.1.4.4.4.4.4.4.4.4.4.4.4.4.4.4.4.4.4.4.4.4.4.4.4.4.4.4.4.4.4.4.4.4.4.4.4.4.4.4.p.p.p.| d.c.4.%.d.j.p.z.d.4.4.5.d.5.4.d.4.d.b.>.g _ z.4.4.4.4.4.4.4.4.4.4.4.4.4.4.4.4.4.4.4.4.4.4.q.q.q.4.d.m.{ 2.| ! y > > 2 R %.d.n.n.G.l.4.<.<.%.9.=.4.4.4.4.4.4.4.4.4.4.4.4.4.4.4.4.4.4.4.4.4.4.4.4.4.4.4.4.4.4.4.4.4.4.4.4.4.4.4.4.4.4.4.4.4.4.4.4.4.4.4.4.4.4.4.4.4.4.4.4.4.4.4.5.1.5.5.5.5.5.5.5.5.5.5.5.5.5.5.m.1.R R 1.z.r.1.5.1.1.1.1.1.1.5.4.5.w.w.4.4.4.d.4.4.i.i.i.4.4.4.n.1.! l J ~ g u u u ",
"s.n.F.n.D.K.F.d.4.4.4.4.1.1.1.1.4.4.4.4.4.4.4.4.4.4.4.4.4.4.4.4.s.s.s.4.4.4.4.4.4.4.4.4.4.i.s.s.p.p.4.4.p.d.d._ d.d.d.p.i.d.d.d.d.d.d.5.5.5.5.5.4.z.4.>.Q.{ I c.4.<.4.4.<.4.<.q.4.4.4.4.4.4.4.4.4.5.4.4.4.4.4.q.%.j.4.H.>.! { { t > > e ] <.d.c.j.l._.$.q.<.#.<.4.4.4.4.4.4.4.4.4.4.4.4.4.4.4.4.4.4.4.4.4.4.4.4.4.4.4.4.4.4.4.4.4.4.4.4.4.4.4.4.4.4.4.4.4.4.4.4.4.4.4.4.4.i.4.4.4.4.5.5.5.5.5.5.r.5.1.5.5.5.5.w.w.5.z.c.r.1.5.m.R ( O.1.5.w.5.1.5.5.5.5.5.5.5.5.5.5.5.5.4.4.4.4.4.4.i.i.i.4.4.4.p.p.g ~ l l 2 2 2 2 ",
"s.N.F.n.N.K.D.d.4.4.4.4.1.1.1.1.4.4.4.4.4.4.4.4.4.4.4.4.4.4.4.4.s.s.s.4.4.4.4.4.4.4.4.4.4.i.s.s.d.d.p.d.p.c.d.d.d.d.d.p.i.p.p.d.p.d.5.5.5.5.5.5.5.5.5.4.c.d.s d.4.<.4.4.4.<.<.4.4.4.4.4.4.4.4.4.5.5.4.4.4.4.4.4.<.d.<.m.>.{ { ! z > & e ] <.d.l.j.n.W.=.4.<.%.<.4.4.4.4.4.4.4.4.4.4.4.4.4.4.4.4.4.4.4.4.4.4.4.4.4.4.4.4.4.4.4.4.4.4.4.4.4.4.4.4.4.4.4.4.4.4.4.4.4.4.4.4.4.i.4.4.4.4.5.5.5.5.5.5.5.5.w.z.w.5.1.5.5.w.>.O.w.Y.z.( { O.<.5.w.5.5.1.5.5.5.5.5.5.5.5.5.5.5.5.4.4.4.4.4.4.i.i.i.i.4.4.p.p.g ~ l l 2 2 2 u ",
"d.N.D.n.n.F.n.i.4.4.4.4.<.<.1.1.4.4.4.4.4.4.4.4.4.4.4.4.4.4.4.4.4.4.s.4.4.4.4.4.4.4.4.4.4.4.s.s.4.d.p.p.%.c.] F.d.d.p.p.i.p.d.d.p.5.5.5.5.5.5.5.5.4.d.5.4.H.g #.d.q.4.<.<.4.4.<.4.4.4.4.4.4.4.4.5.5.4.4.4.4.4.4.4.q.4.z.>.{ { ~ S > & e { 4.d.j.j.D.K.=.<.<.%.<.4.4.4.4.4.4.4.4.4.4.4.4.4.4.4.4.4.4.4.4.4.4.4.4.4.4.4.4.4.4.4.4.4.4.4.4.4.4.4.4.4.4.4.4.4.4.4.4.4.4.4.4.4.i.4.4.5.5.5.5.5.5.5.5.1.1.5.r.5.1.5.w.w.r.c.U.m.r.;.( 1.1.5.w.w.5.5.5.5.5.5.5.5.5.5.5.4.4.4.4.4.4.4.4.4.4.i.i.4.4.4.4.5.5.g J d l 3 2 2 s ",
"j.N.D.n.n.N.l.4.4.4.4.4.4.1.1.1.4.4.4.4.4.4.4.4.4.4.4.4.4.4.4.4.4.4.s.4.4.4.4.4.4.4.4.i.4.i.s.s.4.d.4.4.#.n.s F.d.d.p.i.i.p.d.d.5.5.5.5.5.5.5.5.5.4.d.4.2.F.#.I d.q.4.<.<.q.4.=.4.4.4.4.4.4.4.4.5.5.5.5.4.4.q.q.4.q.d.d.>.{ { ~ G > & e o.q.d.d.j.G.G.=.<.<.%.<.4.4.4.4.4.4.4.4.4.4.4.4.4.4.4.4.4.4.4.4.4.4.4.4.4.4.4.4.4.4.4.4.4.4.4.4.4.4.4.4.4.4.4.4.4.4.4.4.4.4.4.4.4.i.4.4.5.5.5.5.5.5.5.5.5.1.1.1.5.5.r.z.5.r.m.Y.w.( ) w.w.w.w.w.w.5.5.5.5.5.5.5.5.5.5.5.4.4.4.4.4.4.4.4.4.4.i.i.4.4.4.4.4.p.g J d l s 2 u s ",
"l.N.N.n.c.n.d.4.4.4.4.4.4.4.4.4.4.4.4.4.4.4.4.4.4.4.4.4.4.4.4.4.4.4.4.4.4.4.4.4.4.4.4.4.4.s.s.s.d.d.4.d.4.H.I F.d.d.p.i.p.d.d.d.p.p.5.5.5.5.5.5.4.d.5.4.d.w.c.s <.4.4.<.<.w.4.<.4.4.4.4.4.4.4.4.5.5.4.4.4.4.q.q.<.q.n.d.| { { E S > > z #.w.d.d.j.K.n.q.=.<.%.<.4.4.4.4.4.4.4.4.4.4.4.4.4.4.4.4.4.4.4.4.4.4.4.4.4.4.4.4.4.4.4.4.4.4.4.4.4.4.4.4.4.4.4.4.4.4.4.4.4.4.4.4.4.i.4.4.5.5.5.5.5.5.5.5.r.w.5.5.r.z.r.5.;.1.O.l z >.z.r.w.w.5.5.5.5.5.5.5.5.5.5.5.5.5.5.4.4.4.4.4.4.4.4.4.4.4.4.q.s.s.4.4.z.J J s g s 2 u g ",
"l.n.n.l.l.l.d.4.4.4.4.4.4.4.4.4.4.4.4.4.4.4.4.4.4.4.4.4.4.4.4.4.4.4.4.4.4.4.4.4.4.4.4.4.s.s.s.s.p.p.4.d.d.T.#.n.d.d.p.i.p.d.d.d.5.5.5.5.5.5.5.4.4.z.>.4.c.#.F._ o.<.4.4.<.q.q.<.4.4.4.4.4.4.4.4.5.5.5.5.q.q.q.q.<.q.H.4.{ { { E y > > B >.w.j.d.j.W.j.s.%.4.<.%.4.4.4.4.4.4.4.4.4.4.4.4.4.4.4.4.4.4.4.4.4.4.4.4.4.4.4.4.4.4.4.4.4.4.4.4.4.4.4.4.4.4.4.4.4.4.4.4.4.4.4.4.4.i.4.4.5.5.5.5.5.5.5.5.5.w.w.5.5.5.>.{ >.;.) ( O.5.r.5.5.5.5.5.5.5.5.w.5.5.5.5.5.5.5.0.4.4.4.4.4.4.4.4.4.4.4.4.s.s.s.4.4.z.~ I u g s 2 2 g ",
"l.n.n.l.j.j.d.4.4.4.4.4.4.4.4.4.4.4.4.4.4.4.4.4.4.4.4.4.4.4.4.q.s.s.4.4.4.4.4.4.4.4.4.s.s.s.s.s.4.4.4.p.d.n.d.d.d.p.p.p.p.d.d.d.5.5.5.5.5.5.4.4.4.d.%.5.d.>.z.5.I #.w.4.<.9.w.4.4.4.4.4.4.4.4.4.5.5.5.5.q.q.q.q.q.<.Y.%.{ { { m 3 > 2 D <.e.d.d.g._.h.h.$.4.9.%.4.4.4.4.4.4.4.4.4.4.4.4.4.4.4.4.4.4.4.4.4.4.4.4.4.4.4.4.4.4.4.4.4.4.4.4.4.4.4.4.4.4.4.4.4.4.4.4.4.4.4.4.4.i.5.5.5.5.5.5.5.5.5.5.1.5.w.1.;.;.;.;.5.>.5.m.m.1.>.r.5.5.5.5.5.5.5.5.5.5.5.5.5.5.5.0.5.4.4.4.4.4.q.q.4.4.4.4.4.4.s.4.5.c.! ~ u g s 2 2 s ",
"l.l.l.l.l.j.d.4.4.4.4.4.4.4.4.4.4.4.4.4.4.4.4.4.4.4.4.4.4.4.4.5.s.s.s.4.4.4.4.4.4.4.4.s.s.s.s.s.p.d.d.w.p.d.n.4.d.5.p.5.p.w.d.d.5.5.5.5.5.4.4.4.5.5.%.d.4.w.>.Z.s o.w.4.<.4.w.4.4.4.4.4.4.4.4.4.5.5.5.5.5.q.q.q.d.4.F.{ { X.[ d > > 2 ( <.d.d.l.d._.s.h.$.<.q.%.4.4.4.4.4.4.4.4.4.4.4.4.4.4.4.4.4.4.4.4.4.4.4.4.4.4.4.4.4.4.4.4.4.4.4.4.4.4.4.4.4.4.4.4.4.4.4.4.4.4.4.4.4.4.4.5.5.5.5.5.5.5.5.5.5.z.z.>.) O.5.c.5.w.w.1.5.z.z.5.w.w.w.0.w.5.5.5.w.0.w.0.w.0.w.w.4.4.9.<.4.4.4.4.4.i.4.4.4.s.i.i.5.n.] _ u g s 2 2 s ",
"s.h.j.j.h.s.4.4.4.4.5.5.5.4.4.4.4.4.4.4.4.4.4.5.4.4.4.4.4.5.5.5.4.i.4.4.4.4.4.4.s.s.s.d.d.s.i.4.4.d.#.c.d.#.Q.5.5.5.5.5.5.w.5.w.4.4.4.4.4.4.4.4.4.4.5.5.5.5.5.5.I #.#.<.d.4.<.w.w.w.w.w.w.w.w.w.d.w.5.4.4.4.4.4.4.c.p.| ,.X.L f > & 2 ] 5.d.d.j.d.|.=.4.q.%.4.<.4.1.4.1.4.1.4.4.4.1.4.4.4.4.4.4.4.4.4.4.4.4.4.4.4.4.=.=.4.4.4.4.4.4.4.4.4.<.4.<.=.=.4.<.4.<.4.<.4.4.4.4.4.4.1.5.5.5.d.5.5.4.4.4.4.n.4./ >.z.w.w.5.w.5.w.w.w.w.w.4.w.d.w.d.w.w.w.d.w.d.w.w.w.5.q.d.s.s.q.q.4.s.s.s.i.4.i.s.s.i.*.z.d.>.I l C s & 2 g ",
"=.h.l.l.j.d.s.4.4.4.4.5.5.5.4.4.4.4.4.4.4.4.4.4.4.4.4.4.5.5.5.w.4.4.4.4.4.4.i.i.4.4.4.i.s.s.s.d.5.w.<.c.w.4.T.d.w.w.w.w.w.w.w.d.w.w.w.w.w.w.w.w.5.4.5.5.5.5.5.5.#.2 4.<.d.<.<.4.4.4.4.4.5.4.4.4.4.4.4.5.5.5.d.d.1.v.5.{ >.{ L m 2 & e { 5.d.d.j.j.|.=.<.<.%.<.<.4.4.4.5.5.5.4.4.4.4.4.4.4.4.4.4.4.=.4.=.4.4.4.4.=.=.=.=.*.=.=.=.<.<.<.<.<.<.<.<.%.%.=.=.<.<.<.<.4.4.4.4.4.4.1.1.,.4.5.5.4.4.5.d.z.w.O.{ 4.w.5.w.w.w.w.d.d.d.d.d.d.d.d.d.d.d.d.d.4.4.5.q.w.d.d.d.=.4.s.s.s.s.s.s.s.i.i.=.=.4.s.d.w.w.<.R s g s 2 2 s ",
"@.s.l.l.l.n.d.%.4.4.5.5.5.5.5.5.5.5.4.4.1.1.5.1.4.4.4.5.5.5.5.w.s.4.4.s.s.s.s.s.d.d.s.s.s.s.s.s.d.4.w.d.5.w.c.d.5.4.4.4.1.4.4.5.1.1.4.1.1.1.1.1.<.<.<.<.<.<.<.<.z.+ w.4.w.<.4.4.5.5.5.5.5.5.5.5.d.d.5.5.5.5.5.5.5.z.5.{ { [ L f & & e o.d.j.d.j.l._.=.<.<.<.<.<.4.4.4.4.5.4.4.4.4.4.5.5.4.4.4.4.4.4.4.4.4.4.4.4.4.4.=.=.4.=.4.4.4.4.4.4.4.4.4.4.%.=.=.=.<.4.4.4.4.4.4.4.4.4.4.4.d.4.>.4.d.j.d.4.n.O.] 1.w.4.5.w.w.w.w.w.w.w.w.w.z.j.d.d.d.d.d.j.z.j.d.d.5.4.4.4.s.s.s.h.s.s.4.4.=.i.d.s.4.4.4.s.w.w.1.( g s s 2 2 s ",
"P =.l.d.l.D.c.4.4.4.5.4.5.1.1.1.4.4.4.4.4.4.4.4.4.4.5.5.5.5.5.5.d.d.s.s.s.s.i.4.d.d.s.4.4.4.s.w.d.<.d.4.4.d.4.w.w.w.5.4.4.5.w.w.5.5.5.5.5.5.5.5.w.w.w.w.5.5.5.5.c.2 O.>.5.1.1.4.1.5.1.5.1.5.1.5.5.5.5.5.5.5.5.1.v.z.,.{ { { L 8 & & d O.d.j.j.j.n.W.=.4.<.4.<.1.4.4.4.4.1.4.4.4.5.5.5.5.4.4.4.4.4.4.4.4.4.4.4.4.4.4.4.4.4.4.4.4.4.4.4.4.4.4.4.4.=.=.=.<.<.4.<.<.4.4.4.4.4.4.4.4.d.4.4.4.4.w.5.4.w.( o.d.w.4.d.w.w.w.w.w.w.w.w.w.d.5.5.5.5.5.d.d.4.4.4.5.5.d.d.d.d.h.h.h.h.s.i.4.4.i.s.s.i.4.i.4.w.w.<.] I C s 2 2 g ",
"] s.l.d.d.D.n.4.4.4.4.4.1.1.1.1.4.4.4.4.4.4.4.4.5.5.5.5.5.5.5.5.4.4.4.4.4.4.4.4.4.4.4.4.4.5.d.d.w.>.c.1.5.c.1.z.5.5.1.1.1.1.1.1.1.1.1.1.1.1.1.1.5.5.5.5.1.1.1.1.1.1.r ;.,.5.5.1.1.1.1.5.1.5.1.5.4.4.4.5.5.w.d.z.U.z.>.{ { ..~ & & & d O.d.j.j.j.F.K.<.w.<.0.<.<.1.1.1.1.1.1.1.1.1.1.1.1.1.1.1.1.p.5.4.4.4.4.4.5.4.4.2.4.4.4.4.4.4.4.<.<.<.<.<.<.<.<.<.<.<.<.<.<.<.<.4.4.4.4.4.4.#.4.d.w.%.#.4.z.{ ( 1.w.1.5.w.1.w.w.w.w.w.w.w.w.4.5.5.5.5.5.5.5.z.d.w.w.5.5.1.4.4.4.4.4.s.s.d.d.l.d.4.2.4.i.d.z.<.O.( R R R l 2 u g ",
"s.l.D.l.l.n.c.s.5.5.5.5.5.5.w.z.5.5.5.w.8.w.5.d.1.5.1.1.1.5.1.5.4.4.4.5.p.d.d.d.d.d.5.5.5.4.5.5.5.5.z.5.z.m.1.c.w.w.w.5.5.5.5.1.5.5.5.5.5.5.5.5.5.5.5.5.1.1.1.1.>.I.& ,.1.t.t.8.8.8.8.8.8.8.8.5.5.w.w.5.5.5.5.5.Y.1.{ { { ..! & & & e O.w.d.d.j.H.D.4.w.>.w.<.1.5.5.5.5.1.1.1.1.1.1.1.1.1.1.1.1.5.5.1.2.2.2.2.2.1.1.2.2.2.1.1.4.<.<.<.<.<.<.<.<.<.<.<.<.4.<.<.<.<.1.1.1.4.4.4.4.w.<.<.4.d.z.d.5.C { 5.5.>.1.w.1.5.5.5.5.5.5.5.5.5.5.z.z.z.w.5.5.v.v.z.z.5.5.1.1.d.s.4.4.4.4.4.4.4.4.4.d.j.d.4.>._ C r l R R s > u g ",
"g.n.D.n.c.l.j.d.d.d.5.5.1.1.1.1.,.,.,.1.1.1.1.1.1.1.1.1.1.1.1.1.5.5.5.5.5.5.5.5.w.w.w.w.5.5.4.4.1.r.5.>.5.5.{ 1.z.c.v.v.v.z.r.r.z.z.z.z.r.r.z.z.r.r.r.w.5.5.5.5.,.>.3 ,.>.,.7.,.,.,.,.,.,.,.,.,.5.5.5.5.1.1.1.1.v.>.{ X.[ { ) 2 > & 3 { 5.d.d.j.H.c.4.w.O.w.<.<.1.1.1.1.1.1.1.,.>.>.>.>.,.,.,.,.,.,.,.,.,.>.>...>.>.>.>.>.>.>.>.>.#.>.#.>.>.>.>.>.#.>.<.>.<.>.>.>.>.>.>.>.>.>.>.z.>.) ;.z.v.1.( { 1.5.1.1.5.1.5.5.5.1.5.1.1.1.1.1.1.1.,.,.>...{ ! ! { >.,.5.z.z.d.d.q.4.4.4.4.4.#.>.5.d.5.#._ l z 2 2 r C C e > 2 l ",
"s.d.l.n.c.j.d.d.5.4.>.#.{ ) E E ~ ~ E ! ! [ [ [ 1.1.1.1.1.1.1.1.1.4.1.>.>.#.{ { [ { O.>.1.5.5.5.1.z.>.{ >.! r S { { ;.;.;.{ ) ) ) ) ( ) ) ) ) ) ) ) ( ! ! E E E ..+ & ..^ ^ ..^ ^ ^ ^ ^ ^ ^ ^ ^ { { >.,.1.5.z.z.8.{ { >.! ) [ r > & 2 { 1.w.d.z.Y.j.1.5.{ 5.;.;.;.;.;.;.;.;.;.;.>.>.>.>.,.,.,.,...>.,.,.,.>...` ! ! W ! W ! ! ! >.#.>.#.>.#.>.#.>.#.>.>.>.#.>.>.;.;.;.;.;.;.;.>.! ..,.;.! m m S 5.z.5.1.z.r.1.z.z.r.r.r.r.r.r.8...{ ! ~ m f 8 8 p f f f m m m S >.<.4.d.j.z.z.z.z.d.>.] d 2 3 d z z r z z e 2 > 2 s ",
"%.d.n.l.d.j.4.#.{ { [ ( E E E S E ^ ~ ~ ~ ~ ~ ~ ~ E ! ) { { ..;.E E E E E R ~ R ~ R ~ E ) { ;.>.;.;.) ^ ^ ^ n > ^ ^ G D D D D D D D D D D D D D G G G E E G D S & 4 N ^ ^ G G ^ ^ G G G G N N D D ~ ^ ! ) { ....{ ;.{ [ ) ) E z > & > S ,.d.d.4.5.>.{ ! E ^ D n n z t y t t t t t t t y n n N D ..{ { ! ^ D m n f f c c c n n n z S ! { ;.;.{ { ;.;.>.>.>.;.;... .^ G M c w w , x x w w w 4 c c n D E ) ) ) ) ) ) ) ) ) ) ) ^ D f f t t q 8 q t t t t t t t t t l C I / ( ( _ _ R ~ l d d d d d 2 2 r r r 2 > & e e ",
"@.s.n.l.d.q.<.{ ] ] ( E E E E E S S m m m m m m n n n m S D D ~ m S m S S S S S S S m S D E ! ) ^ ^ G S D G n 2 S S S S S S S S D D D D D D D D ^ D S D ^ ^ n y , q M G G N N N M M N N N N N N ~ ~ ^ ! ! ) { { [ { { [ [ [ E z > > > z O.1.4.4.>.{ ! S S n c t n n c t c t t t t t t t c n c n N N m m c c t q c c f f f f f f r z S E ) ) ! ! m C D S D S n f x x x x x x x x x x = * x x x v c n S G G ^ G ^ ^ ^ ^ ) ) ^ G n t t q q 8 3 8 8 8 8 8 8 q q q 8 d s C I R R ~ ~ C l d e 3 3 8 8 2 y t t r 2 > & e 2 ",
"T <.c.l.w.4.#.( R R S C z z S n m m m n n n n n n n n n f f f f t y n z n n M S n S n n n n D D D D n n D D n y t t c n n S S n c c n n n n c c D n t n D D y & t c M M G M M M M M M M M M G N D D D ~ ^ ^ E E E ) ) ) ) ) E z > > > y { ,.1.,.{ ! S z t c t 3 c t q 4 4 3 4 3 4 4 4 3 w 3 4 4 q q x x c x x x c c c c x q q 4 3 3 t f m m m m D ~ ~ ~ D n t 3 * * * * * * = = = = = * = 1 x v t t n n D D D D D D D ^ ^ G n t f t q q 8 3 3 3 5 5 3 3 8 8 q 8 e e z C S S S l z f r 2 2 2 3 3 3 3 t y t 2 > & 2 2 ",
"V #.d.g.q.<.o./ C C C z y r t t n n n n n n f f n f f t f t t t t t t t t c c c n n n n n n D D D D D D D D n t 3 3 t n D D D S n c n n n n c c D n c n n c , & n c c M M G M M M M M M M M M M M N N D ~ ^ ^ ^ E ! ) ) ) ) S z > & > r E O.,.,.! ~ n f t c 4 4 q 4 4 4 4 4 4 4 4 4 , , , 4 4 4 c c M M M M c c 4 q q q 4 4 4 4 q 8 t f n n m m D ~ ~ D n 8 > & x 1 , * * * * * * * * = 1 x x c c c n D D D D D D D G ^ ) ^ D c t c q q 8 8 8 8 5 5 8 8 q q q t r r z l C C l n f t 8 8 3 3 3 3 , 3 y 3 3 > > & > > ",
"u U %.<.%.o.] E R S S z y y y y 4 4 3 3 3 3 3 3 , , , , 5 5 5 5 q y y 4 4 3 4 4 4 4 t c n D D G D M n n c y , , > > 3 t c c c c D D D D D D D D n D D D c t 3 , t y y t c n c c M M n c c t t t c c n M N D D D D E E G D S z 2 & & & > d E [ { ~ l f t q 4 4 , x x x x x x x x x x x x x c v c c c c t y 3 , > > > > > , , 3 3 c c c n n M M N N N D N n t 3 , , , : : $ : , , $ * , , x x x x c c n n M M M M D D G ^ ^ ^ D c 3 3 3 3 3 3 , 3 5 5 3 3 3 3 3 3 2 2 r t t t t t 3 3 3 5 , , , , , , , > > & & & > > ",
"2 s U ] / U C l l l r 2 > > > > & & & & & & & # & & & & > > > > , , > > > > & & & > > , y c n n t 3 , , > # # # & & > > , , , , y y y y y y y y , y c t , > > , > , , , 3 3 3 3 t y 4 3 , > > > & & > , 3 3 q 4 r y r 2 2 2 > & & & & & > 2 3 d r 8 3 5 5 , , , , , , , , , , , , , , , 4 4 4 x , , , > & & # # # # # & & > > > 3 3 3 3 3 3 3 3 t c c n n n c c , , : > & & # # & $ , , , 4 , , 4 4 4 4 4 y y y 4 4 4 y t t 3 , > > > > > > > > > > > > > > > > > > > > > > > > > > & & & & & & > & $ & & & & & > > ",
"2 u u s s s e e 2 2 > > > > > > & & & & & & & & & & & & > > > > & & & & & & & & # & & & : : , , > & # & & + + & # & & & & & & & & & & & & & & & & & & & & & & & > , 3 3 > > > > , > > > & & & & # & & & & & & > > 2 > > > > > & > : > & & & & > 3 3 3 , * * , , $ $ $ $ $ $ $ $ * * * * , , * , & > > & & & # # & & & & & > > > & & & * * & & & # # # & & & & > , > : # # O o o # : > > > > > > > > > > > > > > & & & & & & & # & > > > > > 2 3 > > > > > > > > & & > & & & & & & & & & & & & & & & & & & & > > > > ",
"s u 2 u u u u u u 2 2 2 2 y r r 3 3 3 2 2 2 3 3 & & & & & & & & & & & & & > > > & & & & & & # # & # # & & # & > & & & & & & & & & & & & & & & & > & & & > > > > > r n r 2 > > > > > > > > > > > 3 3 3 3 3 3 2 2 r z e 2 2 e e 2 > > > > & & & 2 2 2 2 3 > > , , 5 5 5 5 5 5 5 3 t q q 4 3 3 3 3 > > > 3 3 3 3 3 > > > > > > 2 2 3 3 8 8 8 3 3 > 3 3 3 > & > & > # # # & & & : : # & > > > > > & > & & & & & & & > & & & > > > > > > > 2 2 e r r 3 3 2 2 2 > > > > > > > & & & & & & & > > > & & > & & & > > 2 2 2 2 ",
"P P P Y Y Y Y I I I I E / ( R C I U U U _ _ _ _ g g g s s s s u u e s s d 3 3 2 2 2 - & - & 2 2 3 3 3 r d d z l d 3 3 3 3 3 2 & & & & > > > & & & & > > 2 2 u s ] { { I s s g g s s s s g g g g I I U I I _ ] #.#.o.] _ I s u u s s s u u u u u u u u s V B C C _ _ ] ] _ I g s I I I I g g g g s g 2 I I > I R I C g g g C g I J l l g k J W W W ~ k u 2 2 2 2 & & & & & & & > l _ ] / / _ _ I u 2 2 2 2 - & & # K . 3 d 2 > g s V V V I I I I s s u 2 2 2 s s s I U / _ _ _ _ _ _ U I g s u 2 u u 2 2 2 u u u g s ",
"u.u.s.s.h.s.s.s.q.q.q.q.e.e.w.0.s.s.s.s.d.d.d.d.d.j.d.d.d.d.d.d.d.d.d.j.d.d.p.p.| | ] ! R R R R ! ! ! ! ! ! ! ! g d s d g g d 3 2 > > > > > & & & > 2 2 s I _ o.d.n.B.c.p.%.] U _ _ _ _ _ ] | #.4.4.4.4.4.4.d.j.c.l.j.d.4.4.=.%./ _ I I I U U ] @.#.$.$.=.=.=.<.4.4.4.4.4.*.@.] ] ] ] _ _ T T T Y =.T *.@.4.d.%.i.4.4.4.=.=.=.*.#.#.| ] ] ] { ] ] _ H s u 2 2 2 > & & & & & 2 e _ #.4.=.4.i.i.4.*.#.] _ I g u 2 & 2 >.] 4.%.4.] @.@.@.@.$.@.*.*.*.@.@.] ] #.@.*.s.d.l.n.n.l.n.n.l.j.h.d.d.s.i.4.=.=.*.*.*.*.=.=.4.4.",
"J.G.G.J.G.G.D.D.C.n.n.C.C.C.C.n.n.n.n.n.n.n.n.n.l.c.l.l.c.c.c.c.n.n.n.n.c.n.c.c.c.b.j.d.5.4.2.2.#.#.{ { ] ] ] ] ] _ _ ] { { { ] E S r > > > & & & 2 d I ] #.w.g.l.n.D.D.D.F.F.F.l.j.j.d.j.l.n.C.n.D.F.D.D.D.F.F.F.F.F.D.n.n.c.c.w.4.4.<.%.<.d.d.l.l.l.C.C.C.D.D.D.D.D.F.D.n.l.l.d.d.d.d.d.d.d.d.d.l.n.4.D.d.F.4.F.F.D.n.n.c.c.c.n.n.b.j.d.d.j.j.>.| _ I H s u - > & > > & & e R >.5.b.n.N.F.L.G.H.F.D.D.n.b.j.d._ u H.D.n.F.G.h.l.l.l.l.l.l.n.n.D.D.n.n.n.n.N.N.n.N.D.F.D.D.D.F.L.F.F.F.F.F.F.F.F.D.D.D.D.D.D.F.F.F.",
"G.J.J.G.G.G.D.D.C.C.n.C.n.C.C.n.n.n.c.c.c.c.c.c.c.c.n.n.n.n.n.n.n.n.n.n.n.n.n.n.B.B.B.n.n.n.v.b.c.z.z.j.d.d.5.5.5.4.5.5.d.d.d.5.1.;.) S t 3 > & & d ! #.4.d.n.H.T.H.F.n.n.F.H.K.K.K.H.H.H.K.T.W.F.F.F.F.F.F.F.F.F.F.F.D.n.n.n.n.Z.n.c.c.c.n.C.F.D.F.D.D.F.F.D.D.F.H.K.K.K.K.K.H.F.F.F.F.F.F.F.F.F.n.D.F.H.j.l.l.F.F.F.F.F.F.F.F.F.F.F.F.F.H.H.H.c.d.4.4.2.#.U s > > > > & > C #.d.c.D.F.K.P.P.^.P.J.P.P.P.P.K.K.n.#.s._.G.!.A./.P.P.P.P.P.K.P.K.K.K.K.K.K.K.K.K.F.F.K.K.K.K.K.K.F.F.F.F.F.F.F.F.K.K.K.F.F.K.K.K.K.K.",
"F.P.P.G.F.F.D.D.H.F.F.F.F.F.F.F.F.F.D.D.D.D.n.N.D.D.D.D.D.F.F.F.F.G.F.F.F.F.F.F.F.F.F.F.F.F.F.F.H.H.F.F.F.Z.m.m.m.n.n.n.F.F.m.n.m.z.5.;.) S 2 & 8 ~ >.w.z.c.F.H.W.H.H.H.H.H.F.F.H.H.H.H.H.H.H.F.H.T.Y.Y.Y.H.F.F.T.T.Y.H.F.F.F.Z.F.F.Z.Z.Z.Z.F.F.F.F.F.H.H.H.H.H.K.K.H.H.H.F.F.F.F.F.F.F.F.D.D.D.n.Y.z..Xd.T.d.T.F.H.F.F.F.F.F.F.n.n.n.n.D.D.F.F.W.K.F.F.F.n.4.{ z > > > & 2 _ 5.z.n.F.K.P.P.P./.P.L.L.J.J.G.J.G.^.G.+.A.P.L.S./.J.J.J.P.P.P.J.P.P.P.P.P.P.L.L.F.K.W.W.W.T.T.T.W.W.W.W.T.K.K.K.K.K.K.H.H.H.K.K.K.K.K.",
"F.G.F.G.F.F.F.F.F.F.F.F.F.F.Z.C.F.F.F.F.D.D.D.D.n.D.D.D.D.D.D.D.D.D.D.D.F.F.D.F.F.H.H.H.H.H.F.F.F.F.F.F.F.F.F.F.H.H.F.H.H.H.F.Z.Z.v.t.1.;.G 8 & m { 5.c.m.n.F.H.~.H.n.n.C.F.H.W.H.H.W.W.W.W.H.H.`.Q.W.W.W.W.T.T.W.W.W.T.Y.H.H.F.F.F.F.F.F.F.F.F.H.H.K.W.H.W.!.!.).W.T.H.F.F.D.D.D.D.D.D.D.D.D.D.c.Y.XXn.m.H.T.F.H.H.F.F.m.n.n.n.F.F.D.D.D.N.D.D.K.F.H.K.K.F.j.4.) z > > > 2 ( d.c.n.D.P.P.P./._././././.P.P.P.P.J.}.s.&./.S./.S.L.P.L.L.P.J.J.J.P.P.P.P.P.P.L.L.H.K.K.K.K.H.K.K.W.W.W.W.K.T.K.K.K.K.K.K.K.K.K.K.K.K.",
"D.D.D.D.D.D.D.D.D.D.C.D.F.D.C.n.D.D.n.n.n.n.n.c.F.F.F.F.F.F.F.F.D.G.H.H.P.H.F.F.F.F.F.H.F.F.F.F.H.H.H.H.T.T.T.T.H.F.F.F.H.H.F.Z.z.r.5.>...G 8 & ! >.z.c.m.n.F.T.+XW.d.<.<.q.d.g.D.F.H.K.W.W.W.W.T.H.F.F.F.F.F.Z.m.m.n.n.n.c.c.c.c.c.c.c.n.F.H.H.H.H.H.H.H.H.H.H.K.H.F.N.n.c.c.c.n.n.n.n.n.c.c.c.c.c.$X%.H.c.T.c.F.F.m.n.n.c.c.c.D.D.D.n.n.c.l.l.s.d.d.l.c.c.j.d.<.E 2 > > 2 / w.c.n.D.P.P.P.P._.L.L.L.L.L.L.L.L.J./.^.u.A.S.(.J./.^.^.P.P.L.P.P.^.P.P.P.P.L.L.L.K.K.T.K.K.K.T.W.F.F.F.F.F.F.F.F.H.H.F.F.F.F.F.F.F.F.",
"n.n.n.n.n.D.D.D.H.K.H.K.W.K.F.F.F.F.F.D.D.n.n.n.c.n.n.n.n.n.n.n.l.l.C.D.D.D.n.n.n.n.N.D.F.F.D.D.n.n.n.C.C.C.C.C.F.F.F.F.H.H.F.Z.5.1.;.{ ^ S 8 > ` >.z.c.c.m.Y.~.C.s.%.<.d.d.q.q.q.q.d.g.l.C.C.F.c.j.w.5.w.d.d.w.5.4.4.4.4.4.4.4.d.5.5.5.d.z.n.F.F.F.F.C.n.g.g.d.d.s.i.4.4.4.4.i.4.4.4.4.4.4.4.4.4.4.4.n.>.W.d.T.m.m.m.n.n.n.n.n.s.s.4.4.4.4.=.=.*.*.=.4.s.j.c.n.z.{ 2 > > > I <.n.n.D.P.P.G.J./._././.^.P.L.J.J.^.J.[./.&.J.J.[.L.L.J.J.J.J.J.J.D.D.M.M.M.l.l.l.c.n.n.n.n.n.n.D.F.F.F.F.F.F.F.F.n.c.c.c.c.c.c.n.n.n.",
"d.d.d.d.d.d.d.d.d.d.d.d.d.d.d.d.d.d.d.s.s.s.s.s.4.4.4.4.4.4.4.4.4.=.-.-.q.q.s.s.d.j.l.n.n.n.c.c.n.n.n.n.n.n.n.n.z.z.g.d.d.q.d.d.O.{ ^ ^ ^ D 8 & ~ >.z.c.m.Z.F.H.4.4.4.q.q.q.q.q.q.q.q.q.w.w.w.w.w.w.w.w.w.5.5.5.5.5.5.5.5.5.5.5.5.5.5.5.5.5.4.4.4.4.4.4.4.4.q.q.4.4.4.4.4.4.4.4.4.4.4.4.4.4.4.4.4.<.#.T.o.w.>.5.1.1.1.1.<.<.<.4.4.=.=.=.=.=.=.=.=.4.4.*.=.i.s.4.5.;.S > > B %.g.g.l.D.P.h.h.u.s.s.s.h.l.N.D.J.L.^._.J.*Xh.@.{.P.J.J.J.J.J.D.D.D.h.h.s.s.i.i.i.i.d.d.d.d.d.d.d.d.4.4.4.5.5.w.d.d.5.5.5.d.d.d.d.d.d.d.",
"d.d.d.d.d.d.d.d.d.d.d.d.d.d.d.d.d.d.d.d.s.s.s.s.4.4.4.4.4.4.4.4.4.=.=.-.q.q.q.4.4.4.s.d.d.d.s.s.w.q.w.w.q.q.q.q.d.d.d.d.q.q.d.d.{ { ^ ^ ^ D 8 & ~ ;.5.z.c.n.c.c.5.5.w.w.w.w.w.w.w.w.w.w.w.w.w.w.w.w.w.w.w.5.5.5.5.5.5.5.5.5.5.5.5.4.5.5.5.5.4.4.4.4.4.4.4.4.q.4.4.4.4.4.4.4.4.4.4.4.4.4.4.4.4.4.4.<.<.c.4.4.<.5.1.1.1.1.<.<.<.<.4.=.=.=.=.=.=.=.%.=.=.*.*.=.=.%.O.{ z > 2 C <.g.d.g.l.H.4.s.y.s.i.i.i.i.s.h.h.h.i.i.h.{.N.} OX).D.A.A.l.l.k.h.h.h.s.s.s.i.i.i.i.p.5.5.5.5.5.5.5.4.4.4.5.5.w.d.d.5.5.5.d.d.d.d.d.d.d.",
"d.d.d.d.d.d.d.d.d.d.d.d.d.d.d.d.d.d.d.d.d.s.s.s.4.4.4.4.4.4.4.4.4.=.=.4.4.4.4.4.4.4.4.p.p.p.4.4.4.4.4.4.4.4.4.4.4.5.5.5.4.w.d.z.{ ) E E ^ D 8 & m { 5.z.c.c.j.5.5.5.5.5.w.w.w.w.w.w.w.w.w.w.w.w.w.w.w.5.5.5.5.5.5.5.5.5.5.5.5.5.5.5.5.5.5.5.5.5.4.4.4.4.4.4.4.4.4.4.4.4.5.5.5.5.4.4.4.4.4.4.4.4.5.1.4.4.c.1.>.5.1.1.1.1.1.1.1.<.4.4.4.4.=.4.4.4.%.4.=.%.%.%.#.] E S r > 2 D <.g.j.g.j.G.=.u.y.s.s.p.i.i.i.4.4.=.=.*.d.j.E.J ).B.l.j.h.h.s.s.4.=.s.s.i.i.i.i.i.i.4.4.4.4.4.4.4.4.5.5.4.5.5.d.w.d.5.5.5.5.5.5.p.5.d.d.",
"d.d.d.d.d.d.d.d.d.d.d.d.s.s.s.d.d.d.d.d.d.s.s.s.4.4.4.4.4.4.4.4.4.4.4.4.4.4.=.=.4.p.p.d.d.d.p.d.d.d.d.d.d.d.d.d.4.4.5.5.5.5.d.z.{ ) E E ^ S 8 & m { 5.c.v.n.d.4.5.5.5.5.5.5.5.w.5.w.5.w.5.w.5.w.w.w.w.5.5.5.5.5.5.5.5.5.5.5.5.5.5.5.5.5.5.5.5.5.4.4.4.4.4.4.4.4.4.4.4.4.5.5.5.5.4.4.4.4.4.4.4.4.4.5.4.>.c.5.>.5.<.1.1.1.1.1.1.<.<.4.=.=.=.=.4.4.=.4.4.=.4.=.@._ z y 3 > 2 D >.z.j.g.l.H.i.s.s.h.i.i.i.i.i.4.i.4.d.d.h.4.W.H n.p.s.s.s.s.s.q.i.4.4.4.4.4.i.s.i.d.5.5.5.5.5.5.5.5.5.5.4.5.5.p.d.d.5.5.5.5.5.5.5.5.d.d.",
"z.r.z.d.d.d.d.d.d.d.d.d.s.s.s.s.d.d.d.d.d.s.s.s.4.4.4.4.4.4.4.4.4.4.4.4.4.4.4.4.4.5.5.5.p.p.p.p.5.5.5.5.5.5.5.5.5.p.p.5.5.5.d.z.{ ) E E E S 8 & 8 { 5.z.c.n.d.<.5.5.5.5.5.w.5.w.5.w.5.w.5.w.5.w.w.w.w.5.5.5.5.5.5.5.5.5.5.5.5.5.5.5.5.5.5.5.5.5.5.5.4.4.4.4.4.4.5.5.4.4.4.4.4.4.4.4.4.4.4.4.4.4.1.w.>.1.w.w.O.5.<.<.1.1.1.1.<.<.<.4.4.4.4.4.4.4.2.4.4.4.4.4.#._ S t > & > S >.z.j.c.n.W.s.h.i.s.4.4.4.4.4.4.4.=.4.s.=.4.N._ 4.4.4.q.s.q.4.q.s.q.4.<.4.4.4.4.p.5.5.5.5.5.5.5.5.5.5.5.5.5.5.w.w.w.5.5.w.w.w.w.w.w.d.d.",
"r.z.z.z.d.d.d.d.j.j.d.s.s.s.s.s.d.d.d.d.d.s.s.s.s.i.4.4.4.4.4.4.4.4.4.4.4.4.4.4.p.p.p.p.p.p.p.p.5.5.5.5.5.5.5.5.d.d.d.p.5.5.d.d.{ ) G G G S 8 > 3 [ 5.d.z.z.d.4.5.5.8.5.8.8.8.r.8.r.8.r.8.r.8.r.w.w.w.5.5.5.5.5.5.5.5.5.5.5.5.5.5.5.5.5.5.5.5.5.5.5.4.4.4.4.4.4.5.5.4.4.4.4.4.4.4.4.4.4.4.4.4.4.1.5.>.5.1.5.>.1.<.<.1.1.1.1.<.<.>.4.2.4.4.4.2.4.>.2.2.*.4.4.| ~ D c > & & l ,.z.d.z.n.T.i.s.=.4.4.4.4.4.4.=.=.=.=.q.*.s.j.%.4.4.q.q.q.4.<.<.<.<.4.4.4.5.5.5.5.5.5.5.5.5.5.5.5.5.5.5.5.5.5.w.w.w.w.w.w.w.w.w.d.d.d.d.",
"z.z.z.z.z.d.d.d.c.j.d.d.s.s.s.d.d.d.d.d.d.s.s.s.s.s.s.s.q.4.4.4.4.4.4.4.4.4.4.4.p.p.p.p.p.p.p.p.p.p.p.p.5.5.5.5.5.p.p.5.5.5.d.z.{ / G D D S 8 > 3 { z.d.p.j.j.5.5.8.8.8.8.8.8.8.8.8.8.8.8.8.8.8.w.w.w.5.5.5.5.5.5.5.5.5.5.5.5.5.5.5.5.5.5.5.5.5.5.5.4.4.4.4.4.4.5.5.5.5.4.4.5.4.5.5.5.5.4.4.4.4.4.>.w.1.1.>.5.<.<.<.1.1.1.<.<.<.2.2.2.2.2.4.2.2.2.2.2.%.2.2.{ J D c 5 & 3 S ,.z.z.z.c.K.4.4.*.4.s.q.q.q.q.=.=.=.q.-.-.s.s.*.4.4.9.9.4.<.4.<.<.<.4.<.4.5.5.5.5.4.5.5.5.5.5.5.5.5.5.5.5.5.5.w.w.w.w.w.d.d.d.d.d.d.d.d.",
"z.z.z.z.z.z.d.d.c.c.j.d.d.d.d.d.d.d.d.d.d.s.s.s.s.s.s.s.s.4.4.4.4.4.4.4.4.4.5.5.5.5.5.5.5.5.5.5.5.p.p.p.5.5.5.5.5.5.5.5.5.5.d.z.{ / D D D M t > 8 >.c.d.w.d.z.w.5.8.8.8.8.8.8.8.8.8.8.8.8.8.8.r.w.w.w.5.5.5.5.5.5.5.5.5.5.5.5.5.5.p.p.5.5.5.5.5.5.4.4.4.4.4.4.4.5.5.5.4.4.4.5.5.5.5.5.5.4.4.4.4.5.{ c.O.5.{ c.>.<.<.1.1.1.1.<.<.2.2.2.2.4.4.2.4.4.4.2.2.2.2.{ l n c 3 > 2 ~ 1.z.c.n.n.H.4.4.*.i.4.4.=.=.=.=.=.-.-.$.q.q.s.@.q.%.<.<.4.4.4.9.w.0.<.<.5.5.5.5.1.1.5.5.5.5.5.5.5.5.5.5.5.5.5.w.w.w.d.d.d.d.d.d.j.d.d.d.",
"z.z.z.z.z.z.z.z.d.d.d.d.d.d.j.j.h.h.d.d.s.s.s.i.i.i.i.i.s.i.i.q.4.4.4.5.5.5.5.5.5.5.5.5.5.5.5.5.5.5.5.5.p.p.5.5.d.d.p.5.p.d.d.j.{ / S S D D t > e O.d.e.0.z.z.1.1.1.8.8.8.8.8.8.8.8.8.8.8.8.8.8.r.w.8.5.5.5.5.5.5.5.5.5.5.w.w.p.4.i.i.4.i.4.4.4.4.4.4.4.4.4.4.4.4.4.4.5.5.5.5.5.5.5.5.5.5.5.5.5.>.w.d./ d.4.4.4.4.4.4.1.4.1.4.1.1.<.<.4.4.=.=.=.4.%.>.4.4.O._ S n S y > > R 4.c.d.j.F.b.4.5.2.d.4.4.4.4.4.4.4.4.4.*.s.j.%.s.I #.<.<.4.4.4.4.4.<.5.4.5.5.1.1.1.1.5.5.5.5.5.5.5.5.5.5.5.0.0.0.w.w.d.d.d.d.d.z.b.z.c.c.",
"z.z.z.z.z.z.z.z.d.d.d.d.d.d.z.j.d.d.d.d.s.s.s.s.i.i.i.i.i.i.i.4.4.1.5.5.1.5.5.5.5.5.5.5.5.5.5.5.5.5.5.5.5.p.5.5.d.d.p.p.p.d.d.j.O./ S D D M t > B %.g.w.w.c.z.8.1.1.8.8.8.8.8.8.8.8.8.8.8.8.8.8.r.r.r.5.5.5.5.5.5.5.5.5.5.w.w.d.i.i.i.i.i.4.4.4.4.4.4.4.4.4.4.4.1.1.1.1.5.5.5.5.1.1.1.1.1.<.1.1.4.5.5.{ 4.4.5.4.4.4.4.4.4.4.4.1.<.<.<.<.=.=.=.=.4.%.%.4.<.O.E S c c 3 & > R 4.z.b.c.F.b.4.p.2.p.4.4.4.4.4.4.4.4.4.4.4.2.j.#.s ] =.4.4.4.4.4.4.4.5.5.5.5.1.<.1.1.5.5.5.5.5.5.5.5.5.5.5.0.0.0.w.w.d.d.d.d.d.z.b.b.b.b.",
"z.z.z.j.z.z.d.d.d.d.d.d.d.d.z.z.d.d.d.d.d.s.s.s.i.i.i.i.i.i.i.4.4.5.5.5.5.5.5.5.5.5.5.5.5.5.5.5.5.5.5.5.p.p.5.5.d.d.p.p.p.p.d.d.O./ S D D n 3 & C <.c.g.w.c.z.r.1.8.8.8.8.8.8.8.8.8.8.8.8.8.8.8.r.r.w.5.5.1.5.5.5.5.5.5.5.5.d.d.4.i.4.4.4.i.4.4.4.4.4.4.4.4.4.4.1.1.1.1.5.5.5.5.5.5.1.1.1.<.5.5.4.5.4.4.#.5.5.4.4.4.4.4.4.4.4.1.<.<.<.<.<.=.=.=.=.*.%.4.<.{ R S c y > & 2 ] 4.d.n.n.K.j.4.5.2.4.4.4.4.4.4.4.4.4.4.d.4.#.F.U I ] =.4.4.4.4.4.4.4.4.4.5.5.4.<.5.5.5.5.5.5.5.5.5.5.5.5.5.0.0.w.w.w.d.d.d.d.d.z.z.b.d.d.",
"j.j.j.d.d.d.d.d.j.d.d.d.d.d.j.j.d.d.d.d.d.s.s.i.i.i.i.i.i.i.i.4.4.5.5.5.5.5.5.5.5.5.5.5.5.5.w.w.w.w.w.w.d.d.d.d.d.p.p.p.p.p.d.d.#./ S D D c > & D <.g.g.e.c.t.8.8.8.8.8.8.8.r.r.8.8.8.8.8.8.8.8.8.8.w.5.5.1.5.5.5.5.5.5.5.5.5.w.4.4.4.4.i.i.4.4.4.4.4.4.5.5.5.5.1.5.5.5.5.5.5.5.5.1.1.1.1.1.5.5.4.4.4.j.] 5.5.4.4.4.4.4.4.4.4.<.<.<.<.<.%.=.=.=.=.%.>.4.>.{ R S S < & & r O.p.d.c.n.F.d.2.4.2.4.4.4.4.4.4.4.4.4.4.p.%.d.n._ %.4.4.4.4.4.4.4.4.4.4.4.5.5.5.5.5.5.5.5.5.5.5.5.5.5.5.5.5.0.w.w.w.d.d.d.d.d.d.z.z.z.d.d.",
"d.d.d.d.d.d.d.d.j.j.d.d.d.d.d.d.d.d.d.d.d.s.i.i.i.i.i.i.i.i.i.4.4.1.5.5.5.5.5.5.5.5.5.5.5.w.w.w.w.w.w.w.d.d.d.d.d.p.p.p.i.i.s.s.<./ S D N t > & D #.e.e.w.r.r.1.8.8.8.8.8.r.r.r.8.8.8.8.8.8.8.8.8.w.w.5.5.5.5.5.5.5.5.5.5.5.5.5.4.4.i.i.4.4.4.4.4.4.4.4.5.5.5.5.5.5.5.5.5.5.5.5.4.4.1.1.1.1.5.5.5.4.4.z.{ 5.5.4.4.4.4.4.4.4.4.<.<.<.<.<.=.=.=.=.=.%.<.4.>.] R S S < & & z >.d.j.j.l.D.4.%.4.2.4.4.4.4.4.4.4.4.4.4.4.%.H.%.] j.4.4.4.4.4.4.4.4.4.4.4.5.5.1.1.5.5.5.5.5.5.5.5.5.5.5.5.0.0.w.w.e.e.d.d.d.d.d.d.z.z.d.d.",
"d.d.d.d.d.d.d.d.j.d.d.d.d.d.d.d.d.d.d.s.d.s.i.i.i.i.i.i.i.i.i.4.5.5.5.5.5.5.5.5.5.5.5.5.w.w.w.w.w.w.w.w.d.d.d.d.d.p.p.p.i.i.i.s.1.( S D N q & & D O.9.e.w.r.r.1.8.8.8.8.r.r.r.r.8.8.8.8.8.8.8.w.8.w.w.5.5.5.5.5.w.w.5.5.5.5.5.5.4.4.i.i.4.4.4.4.4.4.5.5.5.5.5.5.5.5.5.5.5.5.5.5.5.4.1.1.<.1.5.5.4.5.5.d.>.4.4.4.4.4.4.4.4.4.4.<.<.<.<.%.%.%.=.=.=.%.4.4.>.] S S c , & & l >.z.c.j.c.N.4.*.i.4.4.4.4.4.4.4.4.4.4.4.4.4.n._ #.d.4.=.4.4.4.4.4.4.4.4.4.5.5.1.1.5.5.5.5.5.5.5.5.5.5.5.5.0.0.w.w.w.w.d.d.d.d.d.d.d.d.d.d.",
"d.d.d.d.d.d.d.d.d.d.d.d.d.d.d.w.d.d.d.d.d.s.s.4.4.4.4.4.s.s.s.4.5.5.5.5.5.5.5.5.5.5.5.w.w.w.w.w.w.w.w.w.d.d.d.d.d.d.s.s.i.i.i.4.1./ n D N 4 & > D O.9.w.r.r.r.1.8.8.8.r.r.r.r.r.8.8.8.8.8.8.8.w.5.w.w.5.5.5.5.5.w.w.w.5.p.4.4.4.4.4.4.4.4.4.4.4.5.5.5.5.5.5.5.5.5.5.5.5.5.5.5.5.5.5.5.1.<.5.5.5.4.5.d.4.5.>.>.5.4.4.4.4.4.4.4.1.<.<.<.%.%.%.=.=.=.=.4.4.>.! S S y > # & l >.z.c.n.N.D.4.*.s.4.4.4.4.4.4.4.4.4.4.4.j.p.] | 4.#.4.4.4.4.4.4.4.4.4.4.4.5.5.1.1.1.5.5.5.5.5.5.5.5.5.5.5.5.0.0.w.w.w.d.d.d.d.d.d.d.d.d.d.",
"5.d.w.d.d.d.d.d.d.d.d.5.5.5.5.5.d.s.d.d.d.s.s.s.4.4.4.4.s.s.q.4.5.5.5.5.5.5.5.5.5.5.5.w.w.w.w.w.w.w.w.w.d.d.d.d.d.s.s.s.i.i.4.4.1./ z N N 4 & > D O.<.w.z.z.r.8.8.8.8.r.r.r.r.r.8.8.8.8.8.8.8.r.w.w.w.5.5.5.5.5.w.w.w.5.p.4.4.4.4.4.4.4.4.4.4.4.5.5.5.5.5.5.5.5.5.5.5.5.5.5.5.5.5.5.5.1.<.<.5.5.4.d.z.%.z.#.>.5.4.4.4.4.4.4.4.1.<.<.<.<.%.%.=.=.=.=.4.4.>.! S S 4 > # & z >.j.c.D.F.F.4.*.s.=.=.4.4.4.4.4.4.4.4.4.n.d.2 d.j.] d.4.4.4.4.4.4.4.4.4.4.5.5.1.1.1.5.5.5.5.5.5.5.5.5.5.5.5.0.0.w.w.w.d.d.d.d.d.d.d.d.d.d.",
"d.d.d.5.5.p.d.d.d.d.d.d.d.5.5.5.d.d.d.d.d.w.w.5.4.5.5.4.4.4.5.w.w.w.5.5.5.5.w.w.5.w.w.w.w.w.w.w.w.w.w.d.d.d.5.4.s.s.s.s.s.i.i.4.w.D D c x M & # E O.<.0.w.v.x.8.r.r.r.r.r.8.8.r.r.r.r.r.r.8.8.r.5.5.5.5.w.w.5.5.5.5.p.p.s.s.s.s.4.5.4.4.4.4.5.5.4.4.5.5.5.5.5.5.5.5.5.5.5.1.1.1.5.5.5.5.1.1.1.5.d.5.5.5.5.4.4.4.4.4.4.4.4.4.4.1.<.<.<.<.%.%.=.=.4.4.4.4.O.~ z S , O + & r #.c.n.n.P.P.j.=.=.=.4.4.4.4.4.4.4.4.4.d.4.I 2.4.d.4.4.4.4.4.4.d.d.d.4.4.4.5.5.5.4.4.5.1.1.1.1.5.5.1.1.5.5.5.0.0.0.w.w.d.d.d.d.d.d.d.d.j.j.",
"d.d.d.d.d.p.d.d.d.d.d.d.5.5.5.5.d.d.d.d.w.d.w.5.4.5.5.4.4.4.4.w.w.w.w.5.5.5.5.w.5.w.w.w.w.w.w.w.w.w.w.d.d.d.w.q.s.s.s.s.s.s.i.4.0.D D c x M * # D O.<.0.r.v.x.8.r.r.r.r.r.r.r.r.r.r.r.r.r.8.8.8.5.5.5.5.w.w.5.5.5.5.p.p.s.s.s.s.i.5.4.4.4.4.5.5.4.4.5.5.5.5.5.5.5.5.5.5.5.1.1.1.5.5.5.5.1.1.1.5.5.5.5.5.4.4.4.4.4.4.4.4.4.4.4.1.<.<.<.<.<.%.=.=.=.4.4.4.O.~ n n , # # & 2 { b.n.n.F.K.D.s.=.=.4.4.4.4.4.4.4.4.4.b.#._ 4.4.d.2.4.4.4.4.4.d.d.w.4.4.4.5.5.1.5.4.5.1.1.1.5.5.5.5.1.5.5.5.5.0.0.w.w.d.d.d.d.d.d.d.d.d.d.",
"d.d.d.d.d.d.d.d.d.d.d.d.5.5.5.5.d.d.d.d.d.5.5.5.5.5.5.5.4.4.5.w.5.5.5.5.5.5.w.w.w.5.w.w.w.w.w.w.w.e.e.w.d.d.q.q.s.s.s.s.s.s.s.4.0.S D M c N , & B O.<.w.z.v.x.8.r.r.r.r.r.r.r.r.r.r.r.r.8.8.8.5.5.w.w.w.w.w.w.w.p.p.s.s.i.i.s.s.i.4.4.4.5.5.5.5.5.5.5.5.1.1.1.1.5.5.5.5.5.1.1.1.5.5.1.5.<.<.5.5.5.5.5.5.4.4.4.4.4.4.4.4.4.4.4.1.>.>.<.<.<.<.4.=.2.4.4.4.O.~ f n , # & > 2 ( d.n.n.G.P.P.l.-.=.=.4.4.4.4.4.4.4.4.n.I %.4.4.i.2.p.4.4.4.4.w.d.5.4.4.4.5.5.1.1.5.5.1.1.5.5.5.5.1.1.5.5.5.5.w.0.w.w.d.d.d.d.d.d.d.d.d.d.",
"d.p.p.5.d.d.d.d.d.d.5.5.5.5.5.5.5.d.d.d.d.5.5.5.5.5.5.5.4.4.5.w.5.5.5.5.5.5.w.w.5.5.w.w.w.w.w.w.w.e.w.e.d.d.q.q.s.s.s.s.s.s.s.s.5.S D c M N w & y { 1.w.c.v.x.t.8.r.r.r.r.r.r.r.r.r.r.8.8.8.8.5.5.w.w.w.w.w.w.w.p.p.s.s.i.i.s.s.d.w.5.5.5.5.5.5.5.5.5.5.1.1.1.1.5.5.5.5.5.1.1.1.5.5.1.<.<.<.5.5.5.5.5.4.5.4.4.4.4.4.4.4.4.4.4.1.<.>.<.<.<.<.4.=.2.2.2.4.{ E f c , # & > & C 4.n.n.D.P._.P.l.-.=.4.4.4.4.4.4.4.4.B.2 4.4.p.4.2.d.4.4.4.4.5.w.4.4.4.4.5.5.1.1.5.5.1.1.5.5.5.5.1.1.1.5.<.5.5.0.0.w.d.d.d.d.d.d.d.d.p.p.",
"5.p.d.d.d.d.d.5.d.p.p.p.p.5.5.5.w.w.w.w.w.w.5.5.5.5.w.5.4.4.5.w.5.5.5.5.5.5.5.5.5.5.w.w.w.w.w.w.w.w.w.w.q.q.s.s.s.s.s.s.s.s.s.s.5.S D M M G w & 2 { 0.w.c.v.v.t.8.r.r.r.r.r.r.r.r.r.8.8.8.8.8.5.5.w.w.w.w.d.d.d.s.s.i.i.s.s.s.s.d.5.5.5.5.5.5.5.5.5.1.1.1.5.5.5.5.5.5.5.5.5.5.4.1.1.1.1.5.5.5.5.5.5.5.5.5.4.4.4.4.4.4.4.4.4.4.1.<.<.,.<.4.4.4.4.2.2.>.>.;.! n n , # & > # e *.l.D.D.F._.].P.k.=.4.4.4.4.4.4.4.4.B.u d.4.4.4.4.d.4.4.4.4.4.4.4.4.4.4.5.5.1.1.1.5.1.5.5.5.1.1.<.1.1.1.<.4.5.5.0.w.d.d.d.d.d.d.d.d.p.p.",
"5.5.d.5.d.d.p.5.p.p.p.5.5.5.5.5.w.w.w.w.w.5.5.5.5.5.5.5.4.4.5.w.5.5.5.5.5.5.5.5.5.5.5.w.w.w.w.w.d.w.w.w.q.q.s.d.d.s.s.s.s.s.s.s.5.S D M M N w & > / 5.r.c.v.v.t.8.r.r.r.r.r.r.r.8.8.8.8.8.8.8.1.5.w.w.5.w.w.d.d.s.s.i.i.s.s.s.i.d.d.p.p.w.w.5.5.5.w.w.5.1.1.5.5.5.5.5.5.5.5.5.4.<.<.1.1.5.5.5.5.5.5.5.4.4.4.4.4.4.4.4.4.4.4.4.1.<.<.1.1.2.4.4.4.4.2.>.>.>.! m n , # & > # 2 %.l.D.D.P._.|.].D.=.4.4.4.4.4.4.4.4.c._ d.p.4.4.4.p.4.4.4.4.4.4.4.4.4.4.5.5.1.1.1.5.1.5.5.5.5.5.<.<.1.1.<.<.4.5.0.w.d.d.d.d.d.d.d.d.d.p.",
"5.5.d.d.d.d.p.5.5.5.5.5.5.5.5.5.5.w.w.w.w.5.5.4.5.5.5.5.4.4.5.w.w.w.5.5.5.5.5.5.5.5.5.w.w.w.w.0.d.w.w.q.q.q.s.s.d.d.s.s.s.s.s.s.5.D D M v N w & > / 0.c.v.v.v.x.8.r.r.r.r.r.r.r.8.8.8.8.8.8.8.1.5.p.5.5.w.w.s.s.s.s.s.s.s.s.s.i.w.w.w.w.w.w.5.5.r.r.w.5.5.5.1.5.5.5.5.5.5.1.5.4.5.5.1.1.1.5.1.1.4.4.4.4.4.4.4.4.4.4.4.4.4.4.4.1.<.1.1.1.2.2.4.4.4.2.>.4.>.[ D n y # # > # 2 %.l.n.P.P.P._.].G.s.4.4.4.4.4.4.4.4.d.4.4.p.4.4.4.4.4.4.4.4.4.4.4.4.5.5.5.5.1.1.1.1.5.5.5.5.5.5.5.5.1.1.1.<.4.4.4.4.5.p.p.p.p.p.p.p.p.p.",
"5.5.d.d.d.d.5.5.5.5.5.5.5.5.5.5.5.w.w.w.w.5.5.4.5.5.5.5.4.4.5.w.w.w.5.5.5.5.5.5.5.5.5.w.w.w.w.0.d.d.d.q.q.q.s.d.d.d.d.s.s.s.s.q.5.D D M x N , & > / 5.c.v.v.v.x.8.r.r.r.r.r.r.r.5.5.5.5.5.1.1.5.w.d.w.w.w.w.s.s.s.s.i.i.i.i.i.i.5.w.5.w.5.5.w.5.w.r.w.w.5.5.5.5.5.5.5.5.5.1.5.5.5.1.5.1.1.1.1.1.4.4.4.4.4.4.4.4.4.4.4.4.4.4.4.4.<.1.1.<.2.2.4.4.4.2.>.4.>.[ ~ n c # # > & e %.n.l.P.'.P.H._.P.s.4.4.4.4.4.4.4.4.4.n.2.d.2.4.4.4.4.4.4.4.4.4.4.4.5.5.5.5.5.5.5.5.5.5.5.5.5.5.5.4.1.1.4.4.4.4.4.4.5.p.p.p.p.p.p.p.p.p.",
"d.d.d.d.4.4.4.4.i.i.i.5.5.5.i.i.4.4.4.i.s.s.d.5.4.5.5.d.w.w.5.5.5.5.5.5.5.5.5.5.5.5.5.5.5.0.0.w.d.s.s.s.s.s.s.s.s.s.s.d.d.d.d.d.,.G c c N x & # > ) 1.w.v.v.v.m.8.8.8.8.8.8.5.1.5.5.0.0.0.0.0.q.s.s.4.4.4.4.s.s.d.d.d.d.d.d.d.p.w.w.w.w.w.w.w.w.w.w.w.5.5.5.5.5.5.5.5.5.5.4.4.4.5.5.5.5.5.4.4.4.4.4.4.4.4.4.4.4.4.4.4.4.4.4.4.4.4.4.4.4.2.>.>.>.4.>.2.5.,.{ L m y < # # & 2 %.l.D.P.W._._.P.C.q.4.4.4.4.4.4.4.4.4.4.4.4.4.4.4.4.4.4.4.4.4.4.4.4.4.4.4.4.4.4.4.4.4.4.4.4.4.4.4.4.4.4.4.4.4.4.4.4.4.4.4.4.4.p.p.p.d.d.",
"d.d.d.p.4.4.4.4.i.i.4.4.5.5.i.i.i.i.i.i.i.i.s.s.4.5.5.5.w.w.5.5.5.5.5.5.5.5.5.5.5.5.5.5.5.0.0.w.s.s.s.s.s.s.s.s.s.s.d.d.d.d.d.w.,.G c c M 4 & # # ) r.v.U.Z.v.Z.r.8.8.r.r.r.r.z.5.0.w.w.q.q.q.q.s.s.s.d.d.d.s.s.d.d.p.p.p.p.p.5.5.w.w.w.w.w.w.w.w.w.w.5.5.5.5.5.5.5.5.5.5.4.4.4.5.5.5.5.5.4.4.4.4.4.4.4.4.4.4.4.4.4.4.4.4.4.4.4.4.4.4.4.4.>.>.<.4.>.2.5.2.{ W m t < # & & 2 =.c.D.G.K._.]._.D.4.4.4.4.4.4.4.4.4.4.4.4.4.4.4.4.4.4.4.4.4.4.4.4.4.4.4.4.4.4.4.4.4.4.4.4.4.4.4.4.4.4.4.4.4.4.4.4.4.4.4.4.4.4.4.4.4.d.d.",
"4.4.4.4.i.4.p.i.i.i.i.i.5.5.5.i.4.4.4.4.i.i.4.s.4.5.5.5.w.5.5.5.5.5.5.5.5.5.5.5.5.5.5.5.5.0.0.w.s.s.s.s.s.s.s.s.s.s.d.d.d.d.d.w.,.G c c M 4 & # & ..t.v.Z.Z.c.Z.8.8.8.5.5.5.r.r.5.0.w.w.q.q.s.s.4.4.s.s.d.s.s.4.d.d.p.p.p.p.p.p.5.w.w.w.w.w.w.w.w.w.w.5.5.5.5.5.5.5.5.5.5.4.4.4.5.5.5.5.5.4.4.4.4.4.4.4.4.4.4.4.4.4.4.4.4.4.4.4.4.4.4.4.4.>.<.<.4.>.4.4.2.{ W m t y # & & u 4.n.G.G.P._.|.].D.=.4.4.4.4.4.4.4.4.4.4.4.4.4.4.4.4.4.4.4.4.4.4.4.4.4.4.4.4.4.4.4.4.4.4.4.4.4.4.4.4.4.4.4.4.4.4.4.4.4.4.4.4.4.4.4.4.d.d.",
"4.4.4.4.p.4.p.p.4.4.4.4.4.4.4.4.4.4.4.4.i.i.4.4.4.5.5.5.w.5.5.5.5.5.5.5.5.5.5.5.5.5.5.5.5.0.0.w.q.s.s.s.s.s.s.s.s.s.d.d.d.d.d.w.,.G c c c , & # G 1.t.r.v.v.c.v.8.8.8.5.5.5.5.5.5.5.w.w.q.q.q.q.4.4.4.s.s.s.s.s.d.d.p.p.p.p.p.d.r.w.r.w.r.r.r.r.w.w.w.5.5.5.5.5.5.5.5.5.5.4.4.4.5.5.5.5.5.4.4.4.4.4.4.4.4.4.4.4.4.4.4.4.4.4.4.4.4.4.4.4.4.>.<.4.4.>.4.4.3.>.` m t y & & & u 4.n.D.G.P._.].!.l.%.4.4.4.4.4.4.4.4.4.4.4.4.4.4.4.4.4.4.4.4.4.4.4.4.4.4.4.4.4.4.4.4.4.4.4.4.4.4.4.4.4.4.4.4.4.4.4.4.4.4.4.4.4.4.4.4.4.4.",
"4.4.4.4.4.i.i.4.4.4.4.4.4.4.4.4.4.4.4.i.i.i.4.4.4.5.5.5.w.5.5.5.5.5.5.5.5.5.5.5.5.5.5.5.w.w.w.q.q.s.s.s.s.s.s.s.s.s.d.d.d.d.d.w.;.G c c c , & & ..r.x.z.Z.Z.m.v.5.8.r.r.r.w.5.5.5.5.5.5.q.q.q.q.d.s.s.s.s.s.d.d.p.p.p.p.d.d.d.d.r.r.r.w.w.r.r.r.w.w.w.5.5.5.5.5.5.5.5.5.5.5.4.4.5.5.5.4.4.4.4.4.4.4.4.4.4.4.4.4.4.4.4.4.4.4.4.4.4.4.4.>.4.<.<.4.<.4.4.4.1.,.[ m t c & & & s p.n.C.G.P._.P.C.s.*.4.4.4.4.4.4.4.4.4.4.4.4.4.4.4.4.4.4.4.4.4.4.4.4.4.4.4.4.4.4.4.4.4.4.4.4.4.4.4.4.4.4.4.4.4.4.4.4.4.4.4.4.4.4.4.4.4.4.",
"4.4.4.4.4.4.4.4.4.4.4.4.4.4.4.4.4.4.4.4.i.i.4.4.4.5.5.5.w.5.5.5.5.5.5.5.5.5.5.5.5.5.5.5.w.w.w.q.s.s.s.s.s.s.s.s.s.s.d.d.d.d.d.w.;.G c c c , & & n ;.r.t.Z.Y.n.c.1.1.5.5.w.0.5.5.5.5.4.4.4.4.4.q.s.s.s.4.4.4.4.s.p.p.d.d.d.d.d.d.d.r.r.r.r.r.r.r.w.w.w.5.5.5.5.5.5.5.5.5.5.4.4.4.5.5.5.4.4.4.4.4.4.4.4.4.4.4.4.4.4.4.4.4.4.4.2.4.4.4.4.>.4.<.<.4.4.4.4.4.1.2.{ m t Z > & & s 4.c.n.G.W.P.D.s.=.=.4.4.4.4.4.4.4.4.4.4.4.4.4.4.4.4.4.4.4.4.4.4.4.4.4.4.4.4.4.4.4.4.4.4.4.4.4.4.4.4.4.4.4.4.4.4.4.4.4.4.4.4.4.4.4.4.4.4.",
"4.4.4.4.4.4.4.4.4.4.4.4.4.4.4.4.4.4.4.4.4.i.4.4.4.5.5.5.w.5.5.5.5.5.5.5.5.5.5.5.5.5.4.0.w.w.w.q.s.s.s.s.s.s.s.s.p.d.d.d.d.d.d.w.;.G n n c > # & > ..5.r.c.Z.Z.Z.z.z.r.5.5.5.5.5.5.5.5.4.i.i.4.4.s.d.d.d.d.s.4.4.p.p.d.d.d.d.d.d.d.w.w.w.w.w.w.w.w.w.w.5.5.5.5.5.5.5.5.5.5.4.5.4.5.5.5.4.4.4.4.4.4.4.4.4.4.4.4.4.4.4.4.4.4.,.4.4.4.4.4.>.<.>.>.>.>.4.4.2.1.1...m c Z > & & s 4.l.N.D.K.K.l.=.=.4.4.4.4.4.4.4.4.4.4.4.4.4.4.4.4.4.4.4.4.4.4.4.4.4.4.4.4.4.4.4.4.4.4.4.4.4.4.4.4.4.4.4.4.4.4.4.4.4.4.4.4.4.4.4.4.4.4.4.",
"4.4.4.4.4.4.4.4.4.4.4.4.4.4.4.4.4.4.4.4.4.i.4.4.4.5.5.5.w.5.5.5.5.5.5.5.5.5.5.5.5.5.4.0.w.w.w.q.s.s.s.s.s.s.s.s.p.d.d.d.d.d.d.d.;.G n n c > # & 3 ;.z.w.c.n.H.`.Q.T.m.z.w.w.d.d.5.5.4.4.4.4.4.4.l.n.D.F.D.n.j.d.d.d.d.d.d.d.d.j.d.w.w.w.w.w.w.w.w.w.w.5.5.5.5.5.5.5.5.5.5.4.5.4.5.5.5.4.4.4.4.4.4.4.4.4.4.4.4.4.4.4.4.4.4.4.4.4.4.4.4.>.<.>.>.>.>.4.4.,.1.5.X.N c A > & & e 4.j.D.D.F.F.j.=.=.s.4.4.4.4.4.4.4.4.4.4.4.4.4.4.4.4.4.4.4.4.4.4.4.4.4.4.4.4.4.4.4.4.4.4.4.4.4.4.4.4.4.4.4.4.4.4.4.4.4.4.4.4.4.4.4.4.4.4.",
"4.4.4.4.4.4.4.4.4.4.4.4.4.4.4.4.=.=.4.4.4.4.4.4.4.4.5.5.5.5.5.5.5.5.5.5.5.5.5.5.4.4.4.4.4.4.4.4.s.s.s.s.s.i.p.p.p.d.p.d.d.d.d.5.;.^ n n c > & > 3 { r.c.c.z.4.o.{ O.1.w.z.z.d.5.w.5.p.d.d.b.n.n.4.*.T Y ] =.d.n.n.n.n.n.m.B.B.F.m.c.c.m.c.w.z.c.w.w.5.5.5.5.5.5.4.d.d.5.5.d.5.>.4.5.5.4.4.4.4.5.5.5.5.5.5.4.4.4.4.4.4.4.4.4.4.4.,.,.4.4.4.4.4.4.4.<.>.4.2.X.` ^ G < & & & 2 | l.n.L.K.n.s.s.s.4.4.4.4.4.4.4.4.4.4.4.4.4.4.4.4.4.4.4.4.4.4.4.4.4.4.4.4.4.4.4.4.4.4.4.4.4.4.4.4.4.4.4.4.4.4.4.4.4.4.=.=.=.=.=.=.=.4.4.",
"4.4.4.4.4.4.4.4.4.4.4.4.=.4.4.4.=.=.4.4.4.4.4.4.4.4.5.5.5.5.5.5.5.5.5.5.5.5.5.5.4.4.4.4.4.4.4.4.s.s.s.s.s.s.p.p.p.d.d.d.d.p.d.p.>.^ D D c > & & & ) 5.c.Z.F.n.w.w.0.<.1.4.w.z.c.m.c.j.p.4.%.*.*.4.s.s.d.d.s.=.#.I U I U _ _ _ _ { ( / { ( R R / c.c.c.z.z.w.w.w.d.j.d.4.2.4.5.5.4.4.5.5.4.4.4.5.5.5.5.5.5.4.4.4.4.4.4.4.4.4.4.4.,.,.2.>.4.4.4.4.4.>.>.4.2.| ` ~ D , & & > e | b.n.F.F.l.4.4.4.4.4.4.4.4.4.4.4.4.4.4.4.4.4.4.4.4.4.4.4.4.4.4.4.4.4.4.4.4.4.4.4.4.4.4.4.4.4.4.4.4.4.4.4.4.4.4.4.4.4.=.=.=.=.=.=.=.4.4.",
"4.4.4.4.4.4.4.4.4.4.4.=.<.4.<.<.=.=.4.4.4.4.4.4.4.4.5.5.5.5.5.5.5.5.5.5.5.5.4.4.4.4.q.q.4.4.q.q.s.s.s.s.p.d.d.p.d.d.d.d.p.p.p.p.>.) D D n > & & > ! 5.m.F.T.H.n.w.w.w.w.4.9.4.4.2.2.4.4.4.p.d.d.d.d.j.l.l.j.s.4.b.b.b.b.b.b.b.z.d.w.w.w.w.5.5.w.O.O.O.{ / ( ( E 4.d.j.5.>.2.5.d.4.4.5.5.5.4.4.4.5.5.5.5.5.4.4.4.4.4.4.4.4.4.4.4.2.,.2.>.<.<.<.<.4.>.>.4.2.{ ! D D , & & > s #.j.n.D.D.s.=.4.4.4.4.4.4.4.4.4.4.4.4.4.4.4.4.4.4.4.4.4.4.4.4.4.4.4.4.4.4.4.4.4.4.4.4.4.4.4.4.4.4.4.4.4.4.4.4.4.4.4.4.=.=.=.=.=.4.4.4.4.",
"4.4.4.4.4.4.4.4.4.4.=.=.=.=.=.4.=.4.4.4.4.i.4.4.4.4.4.5.4.4.4.4.5.5.5.5.4.4.4.4.5.5.q.q.4.4.q.q.s.s.s.s.d.d.d.d.d.d.d.d.d.p.p.p.>.) D D n > & & 8 ) 5.z.Z.F.F.n.4.0.w.d.e.4.4.%.4.4.4.4.i.p.d.d.j.d.s.4.s.j.c.n.d.d.d.d.d.p.p.5.w.w.w.w.0.5.5.5.w.w.w.w.0.0.0.0.%.4.d.d.d.5.4.4.4.4.5.5.4.4.4.5.5.5.5.5.5.4.4.4.4.4.4.4.4.4.4.4.4.2.4.2.<.<.4.4.<.>.,.4.,.{ W m c : & > 2 g #.j.n.N.n.i.%.=.4.4.4.4.4.4.4.4.4.4.4.4.4.4.4.4.4.4.=.4.4.4.4.4.4.4.4.4.4.4.4.4.4.4.4.4.4.4.4.4.4.4.4.4.4.4.4.4.4.4.4.4.4.4.4.4.4.4.4.4.",
"=.=.=.=.=.=.4.=.=.=.=.=.=.=.=.=.4.4.4.4.4.4.4.4.4.4.5.5.4.4.4.4.5.5.5.5.4.4.4.4.4.q.q.q.s.s.s.s.s.s.p.d.d.d.p.d.d.d.d.d.d.d.p.p.>.) D D m 3 & & f { 5.z.n.F.D.n.z.d.w.4.4.q.d.d.j.j.d.d.p.i.i.i.s.d.d.l.j.d.s.4.j.j.d.d.d.d.d.d.z.c.z.d.d.z.z.w.<.<.<.<.<.<.<.<.4.4.5.z.c.z.d.5.5.5.5.4.4.4.4.5.5.5.5.4.4.4.4.4.4.4.4.4.4.4.4.4.>.>.>.>.<.<.<.<.4.>.4.4.,.[ ~ m c : # > 8 ~ >.b.n.N.n.4.%.4.4.4.4.4.4.4.4.4.4.4.4.4.4.4.4.4.4.4.4.=.=.=.4.4.4.=.4.4.4.4.=.=.=.4.4.4.4.4.4.4.4.4.4.4.4.4.4.4.4.4.4.=.=.=.=.=.=.=.=.=.",
"4.4.q.q.q.q.q.4.=.=.=.=.=.=.=.=.4.4.4.4.4.4.4.4.4.4.4.4.4.4.4.4.4.4.4.4.4.4.4.4.4.q.q.q.i.i.s.s.s.s.d.d.d.d.d.d.d.d.d.d.d.d.p.a.>.^ D D m 3 & & l { w.z.n.F.F.C.e.w.w.w.d.q.s.s.4.4.4.p.d.d.j.j.s.d.j.l.j.d.d.d.d.d.d.d.d.d.d.5.4.5.4.1.4.0.5.1.d.w.w.w.0.0.5.5.d.5.4.d.z.b.c.c.d.d.d.5.4.4.4.5.5.5.5.4.4.4.4.4.4.4.4.4.4.4.4.4.>.>.>.>.<.<.4.<.4.4.4.4.>.! L m 4 & # > f R >.b.n.N.c.4.=.4.4.4.4.4.4.4.4.4.4.4.4.4.4.4.4.4.4.4.4.=.=.=.=.4.=.=.=.=.=.=.=.=.=.=.4.4.4.4.4.4.4.4.4.4.4.4.4.4.4.4.4.4.=.=.=.=.4.4.=.=.",
"4.4.4.4.q.q.q.q.4.4.=.=.=.=.=.=.i.i.4.i.4.4.4.4.4.4.4.4.4.4.4.4.4.4.4.4.4.4.4.4.i.i.q.q.i.4.4.4.s.p.d.d.d.d.d.d.d.d.d.d.z.z.z.a.;.E S D S 8 2 2 z { p.z.n.H.F.C.<.q.d.d.d.q.4.=.d.d.d.d.p.p.i.4.d.d.s.s.s.d.c.D.j.j.d.d.d.d.d.d.d.d.w.w.w.c.c.w.w.0.0.9.4.4.<.<.d.5.5.d.d.5.d.c.j.z.c.z.d.w.5.4.5.5.5.4.4.4.4.4.4.4.4.4.4.4.4.4.>.4.2.2.4.4.4.4.4.4.4.>.{ W L D 4 # # > z ! 2.b.c.n.l.4.=.4.4.4.4.4.4.4.4.4.4.4.4.4.4.4.4.4.4.4.4.=.=.=.4.4.4.4.=.=.=.=.=.=.=.=.4.4.4.4.4.4.4.4.4.4.4.4.4.4.4.4.4.4.=.=.=.4.4.4.=.=.",
"4.4.4.4.4.4.4.4.4.4.4.4.4.4.4.4.i.i.i.i.4.4.4.4.4.4.4.4.4.4.4.4.4.4.4.4.4.4.4.4.i.i.s.s.4.4.4.4.s.p.d.d.d.d.d.d.d.d.d.d.z.z.z.a.;.^ S G D y > > d { 5.z.n.F.D.l.C.g.s.<.<.4.d.l.4.4.i.s.d.d.d.d.s.d.j.d.d.s.d.j.j.d.d.d.d.d.d.j.w.d.w.0.w.z.c.w.w.w.w.w.w.w.w.w.4.4.p.j.p.>.4.d.z.c.m.m.c.d.5.4.5.5.5.4.4.4.4.4.4.4.4.4.4.4.4.4.4.4.2.2.4.4.4.4.4.4.4.>.{ ~ J ~ , # # > l ( >.b.j.n.l.4.=.4.4.%.4.4.4.4.4.4.4.4.4.4.4.4.4.4.4.4.4.=.=.=.=.4.4.4.=.=.=.=.=.=.=.=.4.4.4.4.4.4.4.4.4.4.4.4.4.4.4.4.4.4.4.=.4.4.4.4.4.=.",
"4.4.4.4.4.4.4.4.4.4.4.4.4.4.4.4.4.4.4.4.4.4.4.4.s.4.4.4.4.<.4.4.4.4.4.4.4.4.4.4.4.4.4.4.4.4.4.4.<.4.5.w.d.d.d.d.d.d.d.z.z.z.z.z.;. .G D n 3 > & 2 { d.c.n.D.F.D.l.j.s.q.q.q.4.4.s.s.s.s.d.d.d.d.d.d.d.j.j.j.j.j.j.j.j.z.j.j.j.j.d.d.d.d.d.d.d.d.4.4.<.<.<.4.4.4.i.i.i.i.i.i.4.4.4.p.d.d.d.d.d.w.<.<.4.<.<.#.<.4.<.<.<.<.<.<.<.<.<.<.<.<.<.<.<.<.<.4.<.{ _ R R R & & & 2 I o.4.g.j.d.s.=.=.=.4.4.4.4.4.=.4.4.4.4.*.*.*.*.*.*.%.*.4.4.4.4.4.4.4.4.4.4.=.=.*.=.=.=.4.4.4.<.<.<.4.4.4.4.4.4.4.4.4.4.4.4.4.4.4.4.<.4.s.s.",
"4.4.4.4.4.4.4.4.4.4.4.4.4.4.4.4.d.d.s.q.s.q.s.q.4.<.4.<.4.<.4.<.4.4.4.4.4.4.p.w.4.4.4.4.4.4.4.4.5.w.d.w.d.d.d.w.z.z.z.z.z.z.p.5. .G A Z c , & & > ( w.z.c.D.F.D.l.g.s.q.s.s.s.s.q.q.s.q.d.w.s.d.p.5.p.5.p.d.d.d.d.d.d.d.d.w.p.w.j.d.j.j.j.j.j.j.j.d.d.w.d.5.p.p.4.i.i.4.i.4.4.4.4.4.4.4.5.5.w.w.z.z.w.w.4.4.4.5.5.5.4.4.1.<.<.>.1.4.4.4.5.5.5.5.5.5.4.O._ R R ~ & & & 3 I #.d.g.d.h.s.s.4.4.4.4.*.*.2.*.2.*.2.=.2.=.2.4.2.4.4.4.2.*.2.=.4.4.4.4.2.4.4.4.4.i.i.s.4.<.4.4.4.%.4.=.*.%.4.<.4.<.4.<.4.<.4.4.4.4.4.4.4.<.",
"4.4.4.4.5.w.d.w.5.5.5.5.5.5.5.5.4.4.4.<.4.4.4.4.4.4.4.4.4.q.4.5.4.4.5.5.5.5.5.5.5.w.5.w.5.w.5.w.1.1.4.1.5.5.5.5.5.5.5.1.1.>.>.;.G A c Z c , & & > ( w.z.c.n.n.n.C.c.g.g.g.g.c.g.q.q.w.w.d.w.d.w.d.d.d.d.z.z.z.d.m.n.m.n.c.c.c.c.d.d.d.d.d.d.d.d.5.5.4.4.4.4.4.4.p.p.p.5.5.5.5.5.z.z.d.w.w.r.v.v.c.z.5.1.1.1.5.5.5.5.5.5.1.1.<.>.1.1.1.1.1.1.1.1.1.1.>.{ R R S S & & # 2 ~ O.4.w.4.q.q.q.4.4.4.4.4.4.4.4.4.4.4.4.2.2.2.2.2.2.2.2.%.%.>.2.2.4.2.4.2.*.2.4.4.4.4.4.4.<.4.<.>.<.>.%.%.#.>.<.4.<.4.<.>.<.4.<.4.<.4.<.4.4.",
"[ ( ( ( [ ) [ { ! E ! E ! E ! E ( ( ] ( { { O.O.>.>.>.>.>.1.4.1.1.1.,.>.>.;.>.;.[ { [ { [ { [ { { { { O.{ { ..;.......) ) ^ ^ G A v v v v , & & 2 { w.z.j.j.j.q.<.<.#.O.#.O.#.O.1.1.1.1.1.1.4.1.1.5.1.1.1.1.5.5.( ( ! E ! R ~ D ! / ( ( ! ( ! ( ) ) ) ) { { { O.,.,.,.>.>.>.,.>.>.O.{ { ..;.>.1.;.;.{ ) ;.;.;.;.;.;.;.;.;.;.;.;.;.;.;.;.....{ ) ) ) ) D S D ~ S 3 & # > l { O.#.<.<.%.%.#.#.#.#.>.>.>.>.>.2.4.4.>.>.>.>.>.#.#.#.#.>.>.#.#.#.#.#.{ { { { { { { { >.>.>.>.>.>.>.>.>.>.>.>.>.>.>.>.O.O.{ { { ( ( ( ( ( ",
"S S m n n c n n f t f t f t f t l z z z l S E E E G E E ! ^ ) ) ) ) ! ^ E G ~ D D D S S S S S S G G E ^ ^ G G G G D G D G D M M v v v N v , & & 3 [ 5.d.5.5.4.>.O.O./ / / / E D ) ) ) / ) ^ ! ^ ^ ^ E E E E E E ! ^ E G ~ D D S n n n n n n n n f t f y n S S D ~ ~ ~ ~ ~ ~ ~ D n n n S D D G G S n n D ^ ^ ^ G S S D D D D D G ^ ^ ^ G D D n n c n n t n D D n 4 $ # & y / { { >.O.O.] ( _ ! ( ! ! ! ! ! ) ) [ ;.;.;.;.>.>.>.>.{ { { [ [ ) ! ! ~ ~ ~ ~ ~ ~ ~ S ) ^ ) ) { { { { { { { { { ) ) ^ E E E S S z z z z z ",
"^ G D N M M n n M M M M M M M M t t t t t t t t t t n n n n n D M M M M N M M M ^ G G G G G G G D D D G G A G A M M N N N N N N v v v v x * & > 8 { 5.w.5.5.5.4.>.;.{ ) ) ^ ^ E S S n n n n n n c c c c c t t t c c c c t t t t M N N N N N N N c c t q 4 4 4 q q q q q q q q q n M D G G G G D t t c n D n c t n n n c c t c c t t c c v c c n c c c t c D M c , $ & , c ^ { { >.O.) R S S ~ D f f f f f c f f n m m ~ ^ ! ^ ) ~ ^ ~ D m n n f t t f f c n m n c n n M D D D D D D D D D n n n t t n n n n c n D D ",
"4 4 4 4 , , , 4 4 4 4 4 4 4 4 4 c c c 4 4 4 4 x c c c c c c M M c c M M M M M M 4 4 4 4 x x x 4 c c M c M c c c v c v v v v v v v x v c 4 & & > 3 ) 1.1.>.>.>.;.G D n c n c t y n n c c c c c c c c c c c c c c c c c c c c c 4 , , , , , , , , x x 4 w , , , , 4 4 x x 4 4 4 4 4 4 c c c y 4 4 c c c c c y 4 y c c c c c y c c , , 4 4 x c c c x c x 4 x c c , $ $ # & 4 n G / ) ) E S m z n n c t t q q q 4 4 , , 3 3 q t c c c c c c t t t q 3 4 q t t c c c q y y y y y y y c c c c c t t t y y t t t t c c t t ",
"4 4 4 4 4 4 x x w w w w w w w w w , , , w 4 x x 4 4 4 x x x x x c x x x x 4 4 4 c c c c c c c c c c c c c c x 1 x x x x 1 1 1 1 v x x x , # # & # m { ) ~ ~ ~ n n c t t c t y 4 c c t 4 x 4 4 4 4 4 w w , , , , , , , , w w w w x x x x x x x x , * * * * * , , w w w x x w w w 1 x c c 4 , , , 4 c c 4 , , , c , , , , , 4 4 4 , , , , , , , , , , , , 4 v c , $ $ # & & , t n D D S S n f t q c x x q 4 w 5 5 q q q 4 4 4 4 4 x x c c c c c c x x x q q q q 4 c c c 4 4 4 , , 4 4 c c c c c c c 4 4 4 4 4 4 4 c c ",
"4 x x x , : & # , , , , , , , , , , , , , , : $ 1 , , , , , , , 4 4 , , , $ $ $ : : : $ $ $ $ & & # # # $ $ $ $ $ $ $ * * * $ $ , * $ & & & & & & , f m S n r 2 3 , , > , , , , , , , , , , , , : : : : : $ $ $ $ $ $ & & & $ $ , 1 1 , , * * * 1 * * 1 , $ $ , 1 , $ $ * , , , , , , , , : & & : : , , , , , , , , , 4 4 4 , , 4 , , , , , 4 4 x , , , $ & & # $ $ & & & & > > 2 3 8 t f f c c 5 , , , , , , , , , , , , 4 4 4 M c c 4 q q c c 4 4 4 4 4 4 4 4 c y 4 , , , , , c c 4 4 , , , : , , , , 4 c c c c c ",
", , $ $ # # # # # # # # # # # # + + + + # # # + # + + + # # $ & , : : $ $ $ $ $ & & # # # # # # # # # # # + + + + + $ $ + + @ $ $ & & # & # # & + # & > > & & & # # # # + # # # # # # $ # # # # & & & & & & & & # # # + + + + + o o o o . . . . + + # , , # + + o o o o + + + + # & & & & & # # # # # & & & & & & & & & & & & & & & $ & $ : , , # & # & # # # # + + # # # # # & & & & & & & & & & & & & & # # # # # & & & , , , , , & & & & & & , , , , 4 4 4 4 > > > > : & & : & & & & # # # # & & & & : : , , c c ",
"& & # + + + + # + # # # # # + + + + + + # # # + + + + + + # # # # # # # # # # & + + + + + + + o o o o o o o o o o o + O o o + # + + + # # # # # & & & & & & & > & & & & & & & & # # # + + + + + + + + + + + # # # # + + + + + + + + # # + # # # . . + # $ + + o . . o o o o o o o + + # # + + o o o + # # # # # # # # # # # # # # # # # # & # & # # # # # # # # & & & & > > > > # # # # & # # # # # # # # # # # & & # # # # # # & # # # # # # # + # # & & & & & # # & & & & & & # # # # + + + + # # # # # & & & > > ",
"& # # # # # & & & & & & & & # # # # # # # & # # # # # # # # # # # # # # # # # # + + + + + + + + o o # O # O # O # O + o # + # # # # & & & & # # # # # + + + # # + + + o o + + + # # # + + + + + o o o + + + # # # # # # + + + + + + + + + + + + + + + + + + + # + o o o o o # & & & > > > > & & & # # # # + + # # # # # # # # & # # # # # # + + # # # # # # # # # # # # & & & & # & & & & & & & # # # # # # # # & & # # # # # # & & & & & & & & + # # # & # # # & # # # # # # & # # # & & & & & & & & # # # # # # # ",
"# & & > , , > > > > > > > > > > & # # + # # # + + # & > > & & > 3 , > > > > & & & & & & & & & & > > > , y y y y c , $ : 4 c 4 , t t f f t 8 3 > > > > > > > > > & & & & & & & & & & & & & & & & & & & & & > > > & & & # # # # # + + + + + # # # * & # # # & & # o o o o # & 3 t ^ E E E E R R C C y 2 > & & & & & & & & & & & & 3 > 3 > > > & & & & & & & > > > 2 2 e e u e s s 2 2 2 2 2 2 - - & & & & & & # # + + + + # # & & & & & & & & & & & & & & & & # # & & # # # # & & & & & > > > 2 2 > > > > & & # # & & ",
"3 y t z S S n z D S D S D S S n y 3 & # # # # # & 2 n D D D D E G G D S S z z z z z n z n z n z S D G ^ ) ) ) ^ ..^ D D )  .) ^ { { ) ) ! ! G G E ^ ) ) { ) ) / ^ ) ) { ) ) ) ) D D D D D D D D S S S S D S G G n z y r r r r r q q q q q t t c 5 4 t t c t & + o o o # , D ) ..;.;.;.O.O.o.o.o.>.{ ( C l l B C l l l l l l l l R R R E D C l l z B C R E ( ) ) O.O.O.O.O.#.#.#.] ] ] _ _ R J l l C z z z z z z 2 2 2 > > > & > 2 2 2 2 2 2 2 2 3 e 2 2 2 2 2 2 2 > > & & > > > > > > 2 y z y z z z z r y 2 > > 2 > ",
"{ { { { { { { { ;.;.;.;.;.O.{ { { E t > # # # & z E ..;.......;.{ O.{ { { { [ ) { { { { { { { O.O.;.;.;.;.;.;.;.,.,.;.;.....;.;.>.;.;.;.O.O.O.O.) { { O.O.O.{ { ;.O.>.>.>.>.;.;.>.>.>.,.,.,.,.,.;.;.;.>.>.>.>.>.;.;.{ { { { [ [ ~ ~ ~ ~ ~ ~ ~ ~ ^ ! ) ! ! ^ q # # o # > D ;.;.;.;.O.#.#.%.%.>.<.4.4.<.#.#.#.#.#.#.#.#.#.#.#.#.#.>.>.1.1.1.>.#.#.>.>.1.1.4.4.4.4.<.<.<.%.%.%.%.=.q.s.4.4.4.2.2.#.>.>.,.>.>.>.>.#.>.#.{ ] ! I ~ C ! ( ( ] [ ] [ ( ( / ! _ ! ( [ { z C S R E E E R R R E ( ) { { { O.O.O.{ { { { { R R ",
"w.5.5.4.1.1.4.4.>.>.>.>.>.>.O.O.;.) d & # # # # E { >.>.>.O.{ O.#.#.#.#.#.#.#.#.>.>.1.1.1.1.4.1.>.<.<.<.<.;.;.O.>.1.1.>.{ ) ;.1.;.;.O.O.O.;.>.>.>.>.>.>.<.<.1.<.<.1.4.4.4.4.1.1.4.4.4.4.1.1.1.1.5.5.5.4.4.4.4.4.4.4.1.>.>.>.>.>.,.,.,.,.,.>.>.>.>.>.>.{ { ..~ 3 # # # y ) ;.;.{ #.#.%.%.4.4.s.s.4.q.s.d.d.d.d.d.d.d.d.d.d.d.d.d.w.d.d.z.z.d.d.d.d.d.d.w.w.4.4.4.q.q.q.q.q.q.q.s.s.s.s.d.d.d.d.d.d.d.d.d.d.d.d.d.d.d.w.w.w.d.d.d.4.5.5.d.d.d.w.w.d.w.5.5.5.d.z.c.] o.>.4.5.w.4.<.4.4.5.5.5.w.w.w.w.w.w.d.d.d.z.z.4.4.",
"d.j.d.d.s.q.4.4.<.4.4.4.4.>.>.>.{ ) D > # # & & { >.>.>.#.#.#.#.4.4.4.4.5.5.5.4.5.5.d.d.d.j.j.z.z.z.z.z.r.z.w.w.w.5.w.z.5.;.1.z.w.w.d.w.5.w.5.5.d.d.d.w.d.d.d.d.j.g.g.g.g.g.g.g.j.j.j.j.g.g.g.g.j.j.j.j.j.j.d.d.j.j.j.j.d.d.d.d.5.5.4.4.4.4.4.4.4.w.1.>.;.>.! 3 # + & S O.#.%.4.*.4.s.d.j.l.l.l.j.l.M.N.M.l.N.N.l.l.l.l.n.n.n.l.l.l.l.l.l.n.n.n.n.n.l.l.l.g.g.g.j.j.j.j.j.l.l.l.l.l.l.l.l.l.l.l.l.j.j.j.j.j.l.l.g.g.d.d.d.d.j.j.s.d.h.h.h.h.j.j.n.s.4.F.l.Z.d.%.d.d.d.d.d.d.d.d.d.j.d.j.j.j.j.j.z.z.z.c.c.c.n.n.c.c.",
"c.c.l.l.l.l.j.j.d.d.d.d.p.4.2.>.{ ) D > # # & & ' >.,.>.#.%.4.<.j.d.d.j.c.c.c.c.n.n.B.B.B.m.n.n.c.c.c.c.z.z.z.z.c.c.z.Z.r.w.w.Z.m.n.n.n.n.n.n.n.d.j.z.z.n.n.Z.F.n.n.n.C.C.C.D.D.D.G.G.G.F.F.F.F.D.D.D.n.D.D.n.n.D.D.D.n.n.c.c.c.j.j.d.d.d.d.d.d.d.d.5.>.;.;.E > & # > R #.<.2.4.d.h.j.l.l.D.D.D.^.^.L.J.J.J.J.L.J.G.D.G.F.F.F.G.D.C.C.C.D.D.D.D.C.C.C.l.l.g.g.g.j.j.j.l.l.l.l.l.D.D.D.D.D.D.N.D.D.D.A.A.V.V.l.V.V.l.l.l.l.l.l.n.D.D.N.N.M.M.l.l.s.l.C.H.s.g.d.d.j.j.j.j.j.j.j.j.l.l.l.c.c.c.c.c.n.n.n.n.D.F.F.F.F.F.",
"F.F.D.n.n.n.l.l.l.l.c.c.z.p.4.>.{ ) D 3 # # & & ! >.1.>.#.4.d.c.n.c.b.c.n.n.n.c.n.n.n.c.c.c.j.j.d.w.r.w.w.w.w.w.5.5.<.z.1.1.;.5.5.4.4.4.4.4.4.4.4.5.d.d.z.c.n.C.F.F.F.F.F.F.F.F.D.D.D.D.G.D.D.F.W.W.T.T.W.T.T.T.T.K.H.H.F.F.D.D.F.F.F.D.C.C.C.C.g.d.4.O.{ { ~ > # # > E >.4.4.s.n.l.N.P.'.'.|.#XoX[.^.J.J.J.L.L.G.G.D.D.D.D.D.n.F.F.H.H.H.H.H.H.H.H.F.D.C.n.n.l.n.n.D.D.D.D.D.D.G.G.G.G.G.G.G.G.G.G.G.D.D.D.D.D.D.D.l.l.l.n.D.D.D.D.D.D.D.A.l.l.j.H.K.K.4.l.n.F.c.c.c.c.c.c.c.c.c.c.n.n.n.n.n.n.n.n.D.D.F.F.H.K.F.F.",
"F.F.D.n.c.l.g.d.l.j.b.c.b.p.2.#.) ) D 3 & # & & { >.1.1.4.d.c.C.c.j.d.d.d.d.d.p.4.4.4.4.4.4.4.4.5.5.5.1.1.1.1.1.5.1.5.5.w.>.1.1.4.4.4.4.4.4.4.4.4.4.4.4.4.w.d.d.s.s.s.s.s.s.s.s.d.d.d.d.d.g.g.j.g.l.l.j.l.j.j.j.j.d.d.d.d.s.4.4.d.d.d.d.q.q.q.s.w.4.O.( ! ) m > # # > ( 1.4.p.d.D.N.P.|.%X#X#X&X%XoX^.L.P.^.^.P.^.P.P.F.F.G.D.n.n.n.n.C.C.C.C.C.F.C.Z.C.n.n.c.n.n.n.n.n.n.l.l.n.n.n.n.n.n.n.n.n.n.n.n.n.n.n.D.D.D.l.n.l.l.l.n.n.n.n.M.M.M.A.A.D.F.P.l.d.*.D.F.m.b.l.l.l.g.g.j.j.l.l.l.l.l.c.c.c.l.l.c.n.N.D.F.F.F.F.",
"c.c.l.j.d.s.q.4.i.4.p.d.d.p.>.{ ) ) D 3 & # & & ..>.,.1.p.c.m.n.p.4.4.4.4.4.4.4.4.4.4.4.4.4.4.4.5.5.5.5.5.5.5.1.w.>.z.>.c.>.w.1.d.d.d.d.d.d.d.d.5.5.4.4.4.4.5.4.4.4.4.4.4.4.4.4.s.s.s.s.s.s.s.s.4.4.4.4.4.4.4.4.4.4.4.4.4.4.4.4.4.4.4.<.4.4.4.%.q.<.] R ~ ~ f > # + > E <.4.p.d.D.L._.OX|._.F.J.h.u.&.&.&.y.=.&.s.4.=.=.=.=.=.*.4.4.4.4.4.q.w.q.d.d.d.d.d.d.d.d.d.d.h.s.s.i.i.i.i.s.i.i.i.i.i.i.s.s.d.h.d.d.j.j.l.l.l.j.l.j.l.l.l.l.l.l.l.l.l.l.l.j.=.=.] z.z.4.w.w.w.w.w.w.w.w.5.5.w.w.d.d.d.d.d.d.d.j.l.c.c.c.n.n.",
"4.4.4.4.4.4.4.=.=.*.2.4.p.5.>.[ { ) D > # # & & X.>.,.4.d.c.c.d.4.4.2.4.4.p.d.p.4.4.4.4.p.d.d.d.5.5.5.5.5.5.5.5.1.>.r.O.w.{ 5.<.4.4.4.4.4.4.4.4.5.5.5.5.5.w.w.s.d.s.s.s.d.d.d.d.s.s.s.s.s.s.s.s.j.j.j.d.d.d.d.d.d.d.d.d.d.d.d.d.d.d.d.d.d.d.d.d.d.1.{ ! S m 8 & # + & R >.4.p.d.N.P.[.|.P.n.s.4.s.s.y.y.s.s.s.s.s.i.4.s.s.d.d.s.<.<.<.4.4.4.4.4.4.4.4.4.4.4.4.4.s.s.i.4.4.=.=.=.=.4.=.=.4.4.4.4.=.=.4.4.4.4.i.s.i.i.4.4.4.4.4.4.h.s.s.s.s.s.s.s.@.4.4.d._ 4.4.>.4.4.4.4.4.4.4.4.4.4.4.4.4.4.4.4.s.s.s.s.d.d.d.j.d.d.",
"4.4.4.4.4.4.=.=.=.*.*.4.p.4.>.[ { ) m > # # & > { >.,.1.p.d.d.4.4.4.4.4.d.d.d.p.4.4.4.4.p.d.d.d.5.5.5.5.5.1.1.1.5.w.r.w.5.5.5.w.5.w.w.w.5.5.4.4.4.4.4.4.4.4.4.4.4.=.=.=.=.=.4.4.4.4.s.s.s.s.s.s.s.s.4.4.4.4.4.4.4.4.4.4.4.4.4.4.4.4.4.4.<.<.4.4.d.<.{ ! E S r > & # & R >.4.d.j.j.P.'.P.l.d.s.4.y.y.y.y.y.y.y.=.=.=.%.=.=.4.4.4.4.4.4.4.4.4.5.5.4.4.4.4.4.5.5.5.q.q.4.4.4.4.4.4.s.s.4.4.4.4.4.4.4.4.4.4.4.4.4.4.4.=.*.*.%.%.2.=.4.4.=.=.=.=.=.=.$.=.q.l.] %.>.5.4.4.4.4.4.4.4.4.>.>.<.<.4.4.4.4.4.4.i.4.s.s.s.s.4.4.",
"4.4.4.4.4.4.=.=.4.=.2.4.p.5.>.[ { ) m > # # & 3 ! >.1.5.5.4.<.#.4.4.4.4.p.4.4.4.4.4.4.4.4.p.p.5.5.5.5.5.5.5.5.5.>.z.1.c.( w.>.d.5.w.5.5.5.4.4.4.w.5.4.4.4.4.4.4.s.s.s.s.s.s.s.s.s.s.s.s.s.s.s.s.d.s.s.s.s.4.4.4.d.d.d.d.s.s.4.4.i.i.4.4.4.4.4.4.4.#.( ! E D f 5 & # > D >.4.d.l.j.P._.M.=.=.s.4.y.s.s.i.y.=.=.=.s.s.4.4.4.4.=.*.4.4.4.4.4.4.4.4.4.4.4.4.4.4.4.4.<.4.4.4.4.4.4.4.4.4.4.4.4.4.4.4.p.4.4.4.4.4.4.4.4.4.4.4.4.4.4.4.=.4.=.=.=.=.=.=.q.=.#.q.] #.>.5.4.4.4.4.4.4.4.4.<.4.4.4.4.4.4.4.4.4.4.4.4.4.4.4.4.4.",
"4.4.4.4.4.4.=.=.4.4.4.4.d.2.{ { ) ^ n 3 # # & 3 { { 1.w.>.#.4.4.4.4.4.4.4.4.4.4.4.4.4.4.4.p.p.5.5.1.1.5.5.5.5.5.w.5.5.1.O.1.w.5.5.4.4.4.4.4.5.5.4.4.4.4.4.4.4.4.4.4.4.4.4.4.4.s.s.s.s.s.s.s.s.s.s.s.s.s.s.s.s.s.4.4.s.s.s.s.s.s.4.5.4.4.4.4.4.4.z.O.( ! m n c , & & > E >.4.d.l.N.G.|.j.s.s.s.4.y.y.y.y.=.=.=.=.4.4.4.4.4.4.4.4.4.5.5.5.5.5.5.5.5.5.5.5.5.5.5.5.4.<.<.<.<.4.4.4.<.<.4.4.4.4.4.<.4.4.4.4.4.4.4.4.4.>.4.4.4.>.4.4.4.4.4.4.=.=.=.=.$.g.<.<.Z.C { 5.1.1.<.<.<.<.<.1.4.4.1.1.1.1.1.4.4.4.4.4.4.4.4.4.4.4.",
"4.4.4.4.4.4.4.=.4.4.4.4.d.2.{ { ) ^ n > # # & 3 { { 1.5.>.#.4.4.4.4.4.4.4.4.4.4.4.4.4.4.4.4.p.5.5.1.1.5.5.5.5.5.5.5.w.5.>.1.w.5.5.4.4.4.5.5.5.5.4.4.4.4.4.4.4.4.4.4.4.4.4.4.4.s.s.s.s.s.s.i.s.s.s.s.s.s.s.s.s.s.4.4.s.4.s.s.s.i.4.4.5.4.4.4.4.4.d.O.! ! m n f > & # > E >.4.d.l.N.D.|.h.s.s.s.4.y.=.y.y.=.=.=.=.4.4.4.4.4.4.4.4.4.5.5.5.5.5.5.5.5.5.5.5.5.5.5.5.4.<.4.<.<.4.4.4.<.4.4.4.4.4.4.4.4.4.4.4.4.4.4.4.d.4.4.5.4.4.<.4.4.4.4.4.=.=.=.=.$.s.%.<.c.( ( 5.4.4.4.<.<.<.<.1.4.4.1.4.1.1.1.1.4.4.4.4.4.4.4.4.4.4.",
"4.4.4.4.4.4.=.=.4.4.4.4.p.2.{ { ) ^ n > # # & 8 { { 1.5.>.#.4.%.4.4.4.4.4.4.4.4.4.4.4.4.4.4.4.4.5.1.1.5.5.5.5.5.5.5.w.w.1.5.w.4.5.4.4.5.4.5.5.5.4.4.4.4.4.4.4.4.s.4.4.4.4.4.4.4.s.s.s.s.i.i.i.i.s.s.s.s.s.s.s.s.s.4.4.4.4.4.s.4.4.4.4.4.4.4.4.4.w.{ ! ! m n f & & # > E >.4.d.l.n.D.[.h.s.s.s.4.=.=.=.=.=.=.4.4.4.4.<.<.4.4.4.4.4.4.4.4.4.4.4.5.4.4.4.4.4.4.4.5.4.4.<.<.4.4.4.4.<.<.<.4.<.<.<.<.4.4.4.4.4.4.4.4.c.d.4.4.4.4.<.4.4.4.4.4.=.=.=.=.=.<.#.<.0.1.R 5.1.1.4.4.4.4.1.1.4.4.4.1.4.4.1.4.4.4.4.4.4.4.4.4.4.4.",
"4.4.4.4.4.4.=.=.4.4.4.4.d.2.{ [ ! E n > # # 3 t { ;.5.5.#.%.4.=.4.4.4.4.4.4.4.4.4.4.4.4.4.4.4.4.5.1.1.5.5.5.5.5.5.5.w.5.>.5.w.4.5.4.4.5.4.4.4.5.4.4.4.4.4.4.4.4.s.4.s.s.s.s.4.4.s.s.s.s.s.s.s.s.s.s.s.s.s.s.s.s.4.4.4.4.4.4.4.4.4.5.4.4.4.4.4.4.4.] ! ! m c q & # # > E >.4.p.l.n.N._.s.s.=.4.i.=.=.=.=.4.4.4.4.4.4.<.<.4.4.4.4.4.5.4.4.4.4.4.5.4.4.4.4.4.4.4.4.4.4.<.4.4.4.4.4.4.4.4.4.4.4.4.4.4.4.4.4.4.4.4.4.c.d.4.4.4.4.4.4.4.4.4.4.4.4.=.=.<.%.%.4.1.z.C >.5.5.4.4.4.4.1.1.4.4.4.4.4.4.4.4.4.4.4.4.4.4.4.4.4.4.",
"4.4.4.4.4.4.=.=.4.4.4.4.d.2.] [ ! G t > # # 5 f { >.5.5.#.%.4.=.4.4.4.4.4.4.4.4.4.4.4.4.4.p.4.4.5.1.5.5.5.5.5.5.5.1.5.<.O.1.r.5.5.5.5.5.5.5.5.5.4.4.4.4.4.4.4.4.i.d.d.d.d.p.p.4.d.d.p.p.p.p.d.d.s.s.s.q.s.s.s.s.4.4.4.4.4.4.4.4.5.5.4.4.4.4.4.4.4.] ~ ! m c q & # # > E >.4.p.j.l.l.P.s.s.=.=.s.=.4.4.=.4.4.4.4.4.<.4.4.4.4.4.4.4.4.4.4.4.4.4.4.4.4.4.4.4.4.4.4.4.4.4.4.4.5.4.4.4.4.4.4.4.4.4.4.<.<.<.<.<.<.<.<.d.4.%.<.4.4.<.<.4.4.4.4.<.<.<.<.<.%.<.0.<.c.S { 1.5.5.5.4.1.1.1.1.1.1.1.1.1.1.1.4.4.4.4.4.4.4.4.4.4.",
"4.4.4.4.4.4.=.=.4.4.4.i.d.2.` ! ! D t > # # 5 n { >.5.1.| %.4.%.4.4.4.4.4.4.4.4.4.4.4.4.4.p.4.4.5.5.5.5.5.5.5.5.w.5.5.1.O.1.r.5.5.4.5.5.5.5.5.5.4.4.4.4.4.4.4.4.i.d.d.d.d.d.p.4.d.d.d.d.d.d.d.d.s.s.s.s.s.s.s.s.4.4.4.4.4.4.4.4.5.5.4.4.4.4.4.4.4.] ~ ~ n c q & # # > E >.4.p.h.l.h.P.y.s.=.=.s.s.s.s.s.4.4.4.4.4.4.4.4.4.4.4.4.4.4.4.4.4.4.4.4.4.4.4.4.4.4.4.4.4.4.4.4.0.9.4.w.4.5.5.5.9.9.q.q.<.<.<.<.<.<.<.<.q.<.#.<.4.<.<.<.4.4.4.4.<.<.4.4.<.%.<.9.4.d.O.( 1.1.1.1.4.1.1.1.1.1.1.1.1.1.1.4.4.4.4.4.4.4.4.4.4.4.",
"4.4.4.4.4.4.4.4.4.4.4.p.z.2.! ! ! D t & # # 5 n ' >.5.4.{ >.4.%.4.4.4.4.4.4.4.4.4.4.4.4.4.p.p.5.5.5.5.5.5.5.5.5.5.5.5.5.>.1.r.5.5.4.4.4.4.4.5.5.4.4.4.4.4.4.4.4.d.d.d.d.d.d.d.p.d.d.d.d.d.d.d.d.s.s.s.s.s.s.s.s.4.4.4.4.4.4.4.4.5.5.5.5.4.4.4.4.5.( ~ ~ n c x & # # > E >.4.p.d.l.h.J.y.s.=.=.s.s.s.4.4.4.4.4.4.<.<.4.4.4.4.4.4.4.4.4.4.4.4.4.4.4.4.4.4.4.4.4.4.4.4.4.9.9.9.w.w.4.4.5.5.9.q.q.q.<.<.<.<.<.<.<.<.<.<.%.<.<.<.<.4.4.4.4.<.<.4.<.<.%.<.<.<.0.<.w.{ >.>.1.1.4.1.1.1.1.1.1.1.1.1.1.1.4.4.4.4.4.4.4.4.4.4.",
"4.4.4.4.4.4.4.4.4.4.4.p.z.2.! ! ! D t & # # 5 n { >.5.1.{ >.5.>.4.4.4.4.4.4.4.4.4.4.4.4.4.p.p.5.4.4.4.5.5.5.5.5.5.4.w.w.1.5.d.4.4.4.i.4.4.4.5.5.4.4.4.4.4.4.4.4.p.d.d.j.j.d.d.p.d.d.d.d.d.d.d.d.p.s.s.s.s.s.s.s.4.4.4.4.4.4.4.4.5.5.5.5.5.4.4.4.5.] ~ ~ n c b , # + > E ,.4.i.d.l.s.D.=.s.=.=.s.i.i.i.4.4.4.4.4.<.<.4.4.4.4.4.4.4.4.4.4.4.4.4.4.4.4.4.4.4.4.4.4.4.4.4.4.9.w.w.w.9.9.5.5.4.q.9.9.4.<.<.<.<.<.<.<.<.<.4.q.4.=.4.4.4.4.4.<.<.4.<.<.<.<.<.>.w.>.m.{ ;.>.1.1.4.4.4.1.1.1.4.4.4.1.1.4.4.4.4.4.4.4.4.4.4.4.",
"i.4.4.4.4.=.=.4.q.<.d.4.c.{ [ ) S D 4 # & # & z [ <.q.%.@.*.4.4.4.4.4.4.4.4.4.4.4.4.4.4.4.4.i.p.4.4.5.5.5.4.5.4.d.4.d.4.j.4.U d.s.s.i.s.i.s.s.s.4.4.5.5.5.5.5.5.5.d.d.d.d.d.d.d.d.d.d.d.d.5.5.w.d.d.p.p.p.4.4.4.4.4.4.4.4.4.4.4.4.4.4.<.4.4.4.4.p.] l ~ n t 4 * # + # S >.2.5.j.d.n.j.4.4.4.=.q.4.4.4.4.4.4.4.4.4.4.4.4.4.4.4.4.4.4.4.4.4.4.4.4.4.4.4.4.4.4.4.4.5.5.5.w.5.5.5.5.4.4.5.5.5.5.5.5.5.5.5.4.4.4.4.4.4.4.4.4.4.4.4.4.4.4.4.4.<.<.4.4.%.<.<.>.>.c.>.R.l >.5.,.4.5.4.4.4.4.4.4.4.4.4.4.4.=.4.=.4.=.4.=.i.s.",
"i.4.4.4.=.=.=.4.q.<.d.4.v.{ [ ) S G y # & # & z ] %.q.=.*.%.4.4.4.4.4.4.4.4.4.4.4.4.4.4.4.4.i.p.4.4.5.5.p.p.4.4.d.4.d.4.j.4._ s.i.s.s.s.i.i.s.s.4.4.5.5.5.5.5.5.5.d.d.d.d.d.d.d.d.d.d.d.d.5.5.5.d.d.p.p.p.4.4.4.4.4.4.4.4.4.4.4.4.4.<.<.4.4.4.4.d.] I D n q w & # + & D >.,.5.j.d.n.j.4.4.4.<.4.4.4.4.4.4.4.4.4.4.4.4.4.4.4.4.4.4.4.4.4.4.4.4.4.4.4.4.4.4.4.4.4.5.5.5.w.5.5.5.5.4.4.5.4.5.5.5.5.5.1.1.1.5.1.4.4.4.4.4.4.4.4.4.4.4.4.4.4.4.4.4.4.<.4.1.1.1.z.5.m.C ,.5.,.4.5.4.4.4.4.4.4.4.4.4.4.4.=.=.=.=.=.=.=.s.s.",
"i.4.4.4.=.=.4.4.q.<.d.4.v.{ [ ) G G y # & # & r { %.q.q.=.=.4.4.4.4.4.4.4.4.4.4.4.4.4.4.4.4.p.p.p.p.d.d.d.d.p.p.p.4.d.d.j.p.] 4.i.s.s.s.i.i.s.s.4.4.5.5.5.5.5.5.d.d.d.d.5.5.d.d.d.d.d.d.p.p.5.5.d.p.p.p.p.4.4.4.4.4.4.4.4.4.4.4.4.4.4.<.4.4.4.4.z.{ ~ D f 3 , & # + & D >.,.5.j.d.n.d.4.4.4.<.4.4.4.4.4.4.4.4.4.4.4.4.4.4.4.4.4.4.4.4.4.4.4.4.4.4.4.4.4.4.4.4.4.5.5.5.5.5.5.5.5.4.4.4.4.4.4.5.4.5.5.5.5.5.5.4.4.4.4.4.4.4.4.4.4.4.4.4.4.4.4.4.4.1.4.5.1.5.5.c.1.R <.5.<.5.5.4.4.4.4.4.4.4.4.4.4.4.=.=.=.=.=.=.=.4.4.",
"i.i.4.4.4.=.4.s.q.<.d.4.c.{ ! ! G G t & # # # r { <.s.s.4.4.4.4.4.4.4.4.4.4.4.4.4.4.4.4.4.4.p.p.p.d.d.d.d.d.d.p.4.4.d.d.j.d.>.=.s.s.s.s.i.i.s.s.4.4.5.5.5.5.w.w.d.d.d.5.5.5.d.d.d.5.p.p.p.d.5.5.d.p.p.p.p.4.4.4.4.4.4.4.4.4.4.4.4.4.<.<.4.4.4.4.z.{ I S f 3 , & # + * ^ >.,.p.j.j.n.d.4.4.4.<.4.4.4.4.4.4.4.4.4.4.4.4.4.4.4.4.4.4.4.4.4.4.4.4.4.4.4.4.4.4.4.4.4.4.5.5.5.5.5.5.4.4.4.4.4.4.4.4.4.5.5.5.5.5.5.4.4.4.4.4.4.4.4.4.4.4.4.4.4.4.4.4.4.4.4.5.1.5.>.Z./ ] 4.4.1.5.5.4.4.4.4.4.4.4.4.4.4.4.4.4.4.4.4.4.4.4.i.",
"i.i.4.4.4.s.s.s.q.<.d.4.v.{ ! ! G G t & # # # r #.<.s.s.s.4.2.4.4.4.4.4.4.4.4.4.4.4.4.4.4.5.p.p.s.s.s.d.d.s.s.s.4.4.4.d.d.s.s.%.s.s.s.s.i.i.s.s.4.4.5.5.w.w.w.w.d.d.d.5.5.5.d.d.5.5.5.5.p.p.p.5.d.d.d.p.p.p.p.p.p.i.i.4.4.4.4.4.4.<.4.4.4.4.4.4.j.] J m f 4 4 $ + + 5 ^ >.1.p.b.b.n.d.=.4.4.<.4.4.4.4.4.4.4.4.4.4.4.4.4.4.4.4.4.4.4.4.4.4.4.4.4.4.4.4.4.4.4.4.4.4.4.5.5.5.5.4.4.4.4.4.4.4.4.4.4.5.5.4.5.4.4.4.4.4.4.4.4.4.4.4.4.4.4.4.4.4.4.4.4.4.4.4.1.5.;.v.C O.4.5.1.5.4.>.4.4.4.4.4.4.4.4.4.4.=.=.=.4.4.4.4.4.s.",
"i.i.4.4.s.s.s.s.q.4.d.4.v.{ ! ! G G y # & # & r >.<.q.s.s.4.2.4.4.4.4.4.4.4.4.4.4.4.4.4.4.4.p.p.s.s.s.s.s.s.s.s.4.s.4.d.4.s.l.*.s.s.s.s.i.i.s.s.5.5.5.5.w.w.w.w.5.d.d.5.5.5.p.d.5.5.5.5.p.p.p.5.d.d.d.p.p.p.p.p.p.p.p.4.4.4.4.4.<.<.4.4.4.4.4.4.j.] l m f 4 4 * + # 5 ) ,.1.p.b.c.n.s.=.4.4.<.4.4.4.4.4.4.4.4.4.4.4.4.4.4.4.4.4.4.4.4.4.4.4.4.4.4.4.4.4.4.4.4.4.4.4.5.5.5.5.4.4.4.4.4.4.4.4.5.4.5.5.4.5.4.4.4.4.4.4.4.4.4.4.4.4.4.4.4.4.4.4.4.4.<.4.4.1.5.1.5.R >.5.4.1.5.4.>.4.4.4.4.4.4.4.4.4.q.4.4.4.s.s.s.s.4.4.",
"s.s.i.4.4.s.s.s.d.4.d.5.v.{ ! ! S G t # & # & z >.%.4.s.s.4.2.4.4.4.4.4.4.4.4.4.4.4.4.4.4.4.4.4.4.4.s.s.s.s.4.4.4.d.4.d.4.s.D.#.s.s.s.s.i.i.s.s.5.5.5.5.w.w.w.w.5.5.d.d.p.5.p.d.5.5.5.5.5.p.p.p.d.d.d.p.p.4.p.p.d.d.p.5.4.4.4.4.<.<.4.4.4.4.4.4.b.{ J m f 3 w $ + # w ) ,.,.p.c.c.n.s.=.4.q.<.4.4.4.4.4.4.4.4.4.4.4.4.4.4.4.4.4.4.4.4.4.4.4.4.4.4.4.4.4.4.4.4.4.4.4.4.5.5.4.4.4.4.4.4.4.5.5.5.5.5.5.5.5.5.5.4.4.4.4.4.4.4.4.4.4.4.4.4.4.4.4.4.4.1.4.4.5.5.w.{ >.1.5.4.1.5.4.>.4.4.4.4.4.4.4.4.4.s.s.=.4.i.i.s.s.4.4.",
"s.s.i.4.4.s.s.s.d.4.d.5.v.{ ! ! S D 4 # & # & z 1.%.<.s.i.=.2.4.4.4.4.4.4.4.4.4.4.4.4.4.4.4.4.4.4.4.4.s.s.4.4.4.s.d.4.s.4.s.F.#.s.s.s.s.i.i.s.s.5.5.5.p.w.w.w.w.4.5.d.d.d.5.5.5.5.5.5.5.5.p.p.p.d.d.d.p.p.4.4.p.d.d.p.p.4.4.4.4.<.<.4.4.4.4.4.4.c.{ ~ m t 5 , & + # 4 ) ,.,.p.c.n.n.s.=.4.q.<.4.4.4.4.4.4.4.4.4.4.4.4.4.4.4.4.4.4.4.4.4.4.4.4.4.4.4.4.4.4.4.4.4.4.4.4.5.5.5.4.4.4.4.5.5.5.5.5.5.5.5.5.5.5.5.4.4.4.4.4.4.4.4.4.4.4.4.4.4.4.4.4.4.1.4.5.5.5.c.R 5.4.w.4.1.5.4.>.4.4.4.4.4.4.4.4.4.s.s.=.=.=.s.s.s.=.=.",
"4.i.i.4.4.4.4.4.q.<.4.d.5.{ W ^ D D 3 & # + & S >.<.=.=.N.*.4.4.4.4.4.4.4.4.4.4.4.4.4.4.4.p.5.4.4.4.s.q.i.4.4.i.s.4.4.4.d.=.D.T 4.4.4.4.i.i.4.4.4.4.5.5.w.w.5.5.d.d.5.5.5.5.5.p.d.d.d.5.5.5.5.5.d.d.d.i.4.4.4.4.p.d.d.p.4.4.4.5.q.q.q.4.4.4.4.4.p.4.g r m 5 , $ # + & D >.1.d.n.n.n.d.=.4.q.<.<.4.4.4.4.4.4.4.4.4.4.4.4.4.4.4.4.4.4.4.4.4.4.4.4.4.4.4.4.4.4.4.4.5.5.4.4.4.5.5.5.5.5.5.5.5.5.5.5.5.5.5.4.4.4.4.4.4.4.4.4.4.i.i.i.4.4.4.4.4.4.4.4.4.d.4.4.w.m./ c.4.4.4.4.4.4.4.4.4.4.4.4.4.4.4.4.4.=.=.=.=.=.=.=.s.s.",
"4.4.4.4.4.4.4.4.s.<.4.d.5.{ W ~ S D 3 & # + & S >.<.=.q.N.%.4.2.4.4.4.4.4.4.4.4.4.4.4.4.4.p.p.i.4.4.4.s.i.4.4.4.s.4.=.d.%.l.4.*.4.4.4.4.4.i.4.4.5.4.5.5.w.w.w.5.d.d.p.d.5.5.d.d.d.d.d.5.5.5.5.5.p.d.i.i.4.4.4.4.p.d.d.p.4.4.4.5.q.9.4.4.4.4.4.4.p.4.J d m 5 , $ o # M ,.8.1.4.p.j.n.d.4.q.q.<.<.4.4.4.4.4.4.4.4.4.4.4.4.4.4.4.4.4.4.4.4.4.4.4.4.4.4.4.4.4.4.4.4.5.5.4.4.4.5.5.5.5.5.5.5.5.5.5.5.5.5.5.4.4.4.4.<.4.4.4.4.4.i.i.i.4.4.4.4.4.4.4.4.4.4.z.>.v.1.>.5.4.4.4.4.<.4.4.4.4.4.4.4.4.4.4.4.=.=.=.=.=.=.=.=.s.s.",
"i.4.4.4.4.4.4.4.s.4.4.d.5.{ ~ ~ S D 3 & & + & S #.<.=.q.D.*.4.2.4.4.4.4.4.4.4.4.4.4.4.4.4.p.p.i.4.4.s.s.i.i.4.4.s.4.s.s.=.n._ s.4.4.4.4.i.i.4.4.5.5.5.5.w.w.5.5.d.p.d.d.d.d.d.d.p.p.p.5.5.5.5.5.p.p.4.4.4.4.4.4.4.p.p.p.4.4.4.5.q.q.4.4.4.4.4.i.p.5.I d n 5 , & o # q ) >.,.p.n.4.n.n.4.#.#.%.g.4.4.4.4.4.4.4.4.4.4.4.4.4.4.4.4.4.4.4.4.4.4.4.4.4.4.4.4.4.4.4.4.5.5.4.4.4.4.5.5.5.5.5.5.4.5.5.5.5.5.4.4.4.4.<.<.4.4.4.4.4.s.s.i.4.4.4.4.4.4.4.4.4.4.w.5.c.O.5.<.4.4.4.4.<.4.<.4.4.4.4.4.=.=.=.=.=.=.=.=.=.=.4.4.s.s.",
"s.i.i.i.s.s.q.q.q.4.4.d.1.{ ~ ~ S S 3 & & + & l O.<.<.s.D.*.4.2.4.4.4.4.4.4.4.4.4.4.4.4.4.p.p.i.4.4.s.s.s.s.4.4.4.=.l.*.l.=.@.d.i.i.i.i.i.i.s.s.5.5.5.5.5.w.5.5.d.d.d.d.d.d.d.d.p.p.p.5.5.5.5.5.p.i.i.i.d.d.d.d.4.4.4.4.4.4.4.5.4.4.4.<.4.4.4.i.4.p.R f n 5 w & + + # t ! { p.F.W.F.4.*.q.j.<.#.4.4.4.4.4.4.4.4.4.4.4.4.4.4.4.4.4.4.4.4.4.4.4.4.4.4.4.4.4.4.4.4.5.5.4.4.4.4.5.5.5.5.5.5.4.5.5.5.5.5.4.4.4.4.<.<.4.4.4.4.4.s.s.s.4.4.4.4.4.4.4.4.<.z.>.m.>.O.1.<.4.4.4.4.<.4.<.4.4.4.4.4.=.=.=.=.4.=.=.=.4.4.4.4.4.4.",
"s.s.i.i.s.s.q.q.q.<.w.d.1.[ ~ ~ S Z 3 & & + # z O.<.4.s.D.*.4.4.4.4.4.4.4.4.4.4.4.4.4.4.4.4.4.4.4.q.q.s.q.q.q.q.=.h.s.=.n.T =.s.i.i.i.i.i.i.i.i.5.5.5.5.5.5.5.5.d.d.d.d.d.d.d.5.d.d.d.5.5.5.5.5.d.d.d.d.d.d.d.d.4.4.i.4.4.4.4.5.<.<.<.<.4.4.4.i.4.d.! f c 5 w & + + * ^ ,.,.#.%.E.W.D.d.d.q.%.%.4.4.4.4.4.4.4.4.4.4.4.4.4.4.4.4.4.4.4.4.4.4.4.4.4.4.4.4.4.4.4.4.5.4.4.4.4.4.4.5.5.5.5.5.4.5.5.5.9.9.4.4.4.<.<.<.4.4.=.i.s.s.s.s.4.4.4.4.4.4.4.4.4.z.#.c.O.O.5.1.4.4.4.<.<.4.<.<.4.4.=.=.=.=.=.=.4.4.=.=.=.=.i.4.4.4.",
"s.s.s.s.s.s.s.s.q.4.w.d.1.( ~ ~ B Z 3 & & + # z O.<.q.s.D.#.4.4.4.4.4.4.4.4.4.4.4.4.4.4.4.4.4.4.4.q.s.s.q.q.q.q.*.C.@.l.=.$.=.s.s.s.s.s.i.i.s.s.5.5.5.5.5.5.5.5.d.d.d.d.d.d.5.5.d.d.d.5.5.5.5.5.d.d.d.d.d.d.p.p.4.4.4.4.4.4.4.5.<.<.<.<.4.4.4.i.4.d.] z c 3 w # # # 5 ..8.w.4.4.| j.N.l.d.4.4.d.4.4.4.4.4.4.4.4.4.4.4.4.4.4.4.4.4.4.4.4.4.4.4.4.4.4.4.4.4.4.4.4.5.5.4.4.4.4.4.5.5.5.5.4.5.5.5.5.9.q.4.4.4.<.4.<.4.4.=.i.s.s.s.s.4.4.4.4.4.4.4.4.w.5.w.>.w.{ 5.1.4.4.4.<.<.4.4.<.4.4.=.=.=.=.=.=.4.4.=.=.=.=.i.i.s.s.",
"s.s.s.s.s.s.s.s.4.4.d.d.1.! m ~ y c , & & + # z #.<.q.s.n.@.4.4.4.4.4.4.4.4.4.4.4.4.4.4.4.i.4.4.i.s.s.s.q.q.q.q.=.h.4.l.@.4.4.4.s.s.s.s.i.i.s.s.w.w.5.5.5.5.5.5.5.w.d.d.p.p.5.5.d.d.d.p.5.5.5.5.d.d.d.p.4.4.4.4.4.4.4.4.4.4.4.5.<.<.<.<.4.4.4.i.4.d.[ z n 3 4 # & + & ^ 1.z.b.n.p.4.] @.c.F.j.<.4.4.4.4.4.4.4.4.4.4.4.4.4.4.4.4.4.4.4.4.4.4.4.4.4.4.4.4.4.4.4.4.4.4.4.4.4.4.4.4.5.5.4.4.5.5.5.5.q.q.q.<.4.4.4.4.4.4.=.s.s.s.s.s.4.4.4.4.4.4.4.4.5.4.z.O.c.1.O.5.4.4.<.<.<.<.<.<.4.4.=.=.=.=.=.=.4.4.4.4.=.=.=.i.s.4.",
"s.s.s.s.s.s.s.s.4.4.d.d.,.! m ~ y c , & & + # z #.<.q.q.n.@.4.4.4.4.4.4.4.4.4.4.4.4.4.4.4.i.4.4.4.s.s.s.4.q.q.q.s.@.G.=.*.4.s.=.s.s.s.s.i.s.s.s.w.w.q.w.5.5.5.5.5.w.d.d.d.d.5.w.d.d.d.d.p.5.5.5.p.p.4.4.4.4.4.4.4.4.4.4.4.4.4.s.<.<.<.<.=.4.4.4.4.z.[ l c 4 4 # + + , ^ >.1.d.c.n.W.T.d.o.] 4.T.4.4.4.4.4.4.4.4.4.4.4.4.4.4.4.4.4.4.4.4.4.4.4.4.4.4.4.4.4.4.4.4.4.4.4.4.4.4.4.4.5.5.4.5.5.5.5.5.4.q.q.q.4.4.4.4.4.4.4.s.i.s.s.s.4.4.4.4.4.4.4.4.<.w.4.5.w.m.I w.4.4.<.<.<.<.<.<.4.4.=.=.=.=.=.=.4.4.4.4.=.=.4.4.s.s.",
"s.s.s.s.s.s.s.s.s.<.d.z.>.R ~ m S c 3 & + # 5 f >.<.s.g.d.4.2.4.4.4.4.4.4.4.4.4.4.4.4.4.4.4.4.4.p.5.4.4.i.i.s.4.s.=.s.l.T i.j.4.s.q.s.q.s.q.q.q.w.w.w.q.d.s.d.q.d.d.d.d.d.s.d.s.j.d.d.s.s.s.d.d.s.s.s.4.4.4.4.4.=.4.4.s.s.4.4.4.4.4.q.s.q.q.4.<.4.d.>.m p w * $ + # > ^ >.5.d.d.c.F.n.d.c.w.] o.c.4.4.5.z.4.4.5.4.4.4.4.4.4.4.4.4.4.4.4.4.4.4.4.4.4.4.4.4.s.4.4.4.4.4.4.4.4.4.4.4.5.5.4.4.4.4.4.i.i.i.i.i.4.4.4.4.4.4.4.4.4.4.4.d.w.5.4.4.4.d.j.>.d.d.>.4.z.5._ 4.d.o.<.j.#.%.q.4.4.4.4.i.i.4.=.=.=.=.=.=.4.4.4.s.s.",
"s.s.s.s.s.s.s.s.s.<.d.z.>.R ~ S S c 4 & # # 3 r >.<.s.g.s.4.2.4.4.4.4.4.4.4.4.4.4.4.4.4.4.4.4.4.p.p.4.i.i.i.s.i.4.s.=.D.P s.p.4.s.q.q.q.q.q.q.q.w.w.q.q.s.q.s.q.d.d.d.d.d.s.s.s.d.d.d.d.s.s.s.s.s.s.s.4.4.4.4.4.4.4.4.4.4.4.4.4.=.-.-.s.q.q.<.<.4.d.,.L f p * * + # > G >.5.d.j.j.c.4.%.w.w.5.c.{ z.z.5.{ z.5.4.4.4.4.4.4.4.4.4.d.i.4.4.4.4.4.s.4.4.4.4.4.s.4.4.4.4.4.4.4.4.4.4.4.4.5.5.4.4.4.i.i.i.i.i.i.y.4.4.4.4.4.4.4.4.4.4.>.4.5.d.5.4.>.%.4.d.5.>.4.z.d.>.o.4.w.<.q.%.<.4.4.4.4.4.4.i.i.=.=.=.=.=.=.4.4.4.s.s.",
"s.s.s.s.s.s.s.s.s.<.d.z.>.R ~ m S c 4 & # # 5 r 1.<.q.s.s.=.2.4.4.4.4.4.4.4.4.4.4.4.4.4.4.4.4.4.4.4.4.4.i.i.s.s.=.h.=.G.H d.4.d.s.q.q.q.q.q.q.q.q.q.q.q.q.q.q.q.d.d.d.d.d.d.s.s.d.d.d.d.d.d.s.s.s.s.4.4.4.4.4.4.4.4.4.4.4.4.4.4.=.=.q.q.q.q.<.<.4.z.,.~ c x ; * # # > S >.5.z.c.n.c.<.%.4.4.5.z.>.#.z.>.b.{ 5.5.4.4.4.4.4.4.4.4.4.4.4.4.=.=.4.4.4.4.4.4.4.s.s.i.5.5.4.4.4.4.4.4.4.5.5.5.5.5.4.i.i.i.i.i.i.y.4.4.4.4.4.4.4.4.4.4.5.d.d.5.5.5.5.d.5.5.4.4.4.d.z.z.] o.n.<.4.%.q.%.4.4.4.4.4.4.=.=.=.=.=.=.4.4.4.4.s.s.",
"s.s.s.s.s.s.s.s.s.<.d.z.>.E ~ m S c 4 & # # > r >.<.q.s.s.4.2.4.4.4.4.4.4.4.4.4.4.4.4.4.4.4.4.4.4.4.4.4.4.=.=.=.=.h.=.n.T 4.4.d.s.q.q.q.q.q.q.q.q.q.q.q.q.q.q.q.d.d.d.d.d.d.d.d.d.d.d.d.d.d.s.4.s.s.4.4.4.4.4.4.4.4.4.4.4.4.4.4.4.=.=.q.q.q.4.<.4.z.,.~ c x ; * # # & S ;.5.z.n.n.l.q.4.w.4.<.1.d.4._ m.4.b.#.5.4.4.4.4.4.4.4.4.4.4.s.s.4.4.=.%.4.4.4.4.4.s.s.s.p.p.p.p.5.5.5.5.5.5.5.5.5.4.4.4.i.i.i.i.i.y.4.4.4.4.4.4.4.4.4.4.4.4.>.>.#.>.4.d.5.4.4.4.4.4.j.n.o.I z.<.4.%.d.%.4.4.4.4.4.4.=.=.4.=.=.s.4.4.s.s.s.s.",
"s.s.s.s.s.s.s.s.s.<.d.z.>.R ~ m S c y , # # & 8 #.<.s.l.j.4.2.4.4.4.4.4.4.4.4.4.4.4.4.4.4.4.4.4.4.4.4.4.4.=.=.-.=.=.h.d.=.*.4.s.i.5.5.5.5.5.5.5.d.d.w.w.w.w.5.5.s.d.d.d.d.d.d.d.d.d.d.d.d.s.s.4.s.4.4.4.4.4.4.4.4.4.4.4.4.4.4.4.4.4.4.4.q.q.4.4.4.d.>.D c x * * # # & S ;.5.z.n.c.4.<.d.w.q.5.<.5.5.v._ j.4.c.{ 4.4.4.4.4.4.4.4.d.d.s.s.4.4.4.4.4.4.4.4.4.s.s.s.p.p.5.5.5.5.p.5.5.5.5.5.5.5.5.4.s.i.i.i.4.4.4.4.4.4.4.4.4.4.4.4.4.5.d.z.d.5.4.>.4.4.4.5.4.4.5.z.d.E #.<.4.*.q.<.4.4.4.4.=.=.=.=.4.4.s.s.4.s.s.s.s.s.",
"s.s.s.s.s.s.s.s.s.<.d.z.>.~ ~ m B c y : # # & 2 #.%.s.l.l.s.2.4.4.4.4.4.4.4.4.4.4.4.4.4.4.4.4.4.4.4.4.=.=.=.=.=.=.=.j.4.d.*.4.4.4.q.5.5.5.5.5.5.w.w.w.w.d.d.5.5.s.d.s.s.d.d.d.d.d.d.s.s.s.s.4.4.4.4.4.4.4.4.4.4.4.4.4.4.4.4.4.4.4.4.i.s.q.q.q.w.5.z.>.D c q ; * # # > S ;.5.z.c.F.4.=.4.<.4.0.5.>.z.4.z.] 5.%.5.4.4.4.4.<.<.4.4.d.s.=.#.#.%.4.d.4.4.4.4.4.s.s.4.p.p.p.p.p.p.p.p.5.5.4.4.5.5.5.4.i.i.i.i.4.4.4.4.4.4.4.4.4.4.4.4.c.c.c.z.d.5.4.4.4.4.5.d.5.4.4.5.Z.<.I 4.q.*.q.4.4.4.4.4.=.=.=.=.s.s.s.s.s.s.s.s.s.s.",
"s.s.s.s.s.s.s.s.s.<.d.z.>.~ ~ S B c y , & # & 2 #.%.s.g.j.4.4.4.4.4.4.4.4.4.4.4.4.4.4.4.4.4.4.4.4.=.=.=.=.=.=.-.-.-.q.q.d.=.=.s.4.4.w.w.5.5.5.5.w.w.w.w.d.d.d.w.s.s.s.s.s.s.s.s.d.s.s.4.4.4.4.4.4.4.4.4.4.4.4.4.4.4.4.4.4.4.4.4.4.4.q.s.d.d.w.w.5.z.,.~ n c , , # # > S ;.5.d.c.E.4.4.q.<.<.5.<.d.#.5.5.z.] <.d.4.4.4.4.<.<.<.<.4.4.*.@.@.*.=.4.4.4.4.4.4.4.4.4.p.p.p.p.p.p.p.p.4.4.4.4.4.4.4.4.i.i.i.i.4.4.4.4.4.4.4.4.4.4.4.4.b.d.4.#.{ { >.4.4.5.5.5.5.5.4.4.F.H.e w.4.%.s.<.4.4.4.4.4.4.4.4.i.s.s.s.s.s.s.s.s.s.",
"s.s.s.s.s.s.s.s.s.<.d.z.>.R ~ S B y y , & # & 2 #.%.q.g.d.4.4.4.4.4.4.4.4.4.4.4.4.4.4.4.4.4.4.4.4.4.=.=.=.=.-.-.u.s.$.s.4.s.*.d.5.5.5.5.5.5.5.5.w.w.w.w.d.d.w.w.s.s.s.s.s.s.s.s.d.s.4.4.4.4.4.4.4.4.4.4.4.4.4.4.s.4.4.4.4.4.4.4.4.q.d.d.d.d.d.d.w.z.1.^ n c w , # # > D ;.5.d.z.B.*.%.d.4.4.0.<.4.d.4.4.5.c.d.%.4.4.4.4.<.<.<.<.4.4.4.4.4.4.4.4.4.4.4.4.4.4.s.4.p.p.p.p.p.p.p.p.4.4.4.4.4.4.4.4.i.i.i.i.i.4.4.4.4.4.4.4.4.4.4.4.d.d.d.d.5.5.5.d.4.5.d.4.4.p.5.4.C.XXu w.=.=.s.%.4.4.4.4.4.4.4.4.4.s.s.s.s.s.s.s.s.s.",
"s.s.s.s.s.s.q.q.d.4.5.j.>.! ~ S B c t , & # & 2 { <.s.s.4.4.4.4.4.4.4.4.4.4.4.4.4.4.4.4.4.4.4.4.=.=.=.=.=.=.=.=.-.-.-.$.l.g.I >.4.5.5.4.4.4.4.4.4.4.4.5.5.5.d.d.4.4.4.4.4.4.4.s.i.4.4.4.4.4.4.4.s.s.4.4.4.4.4.=.s.s.4.4.4.4.4.s.4.4.5.4.4.4.4.1.1.r.,.D 4 v x & + # & y { 5.z.c.n.<.%.<.4.4.0.1.p.5.4.4.4.d.5.#.n.%.4.d.=.=.q.=.4.4.4.4.4.4.4.4.4.4.4.4.4.4.4.4.4.4.4.4.s.s.s.4.4.4.i.s.s.4.4.4.s.s.i.4.4.4.4.4.4.4.4.5.4.4.4.4.4.4.4.4.4.1.1.5.>.4.5.4.4.4.4.4.w.@XI w.4.%.q.%.4.4.4.4.=.=.4.4.4.4.s.s.s.s.h.h.s.s.",
"i.i.i.s.s.s.s.s.d.4.4.d.>.R ~ m B c t , & # & 2 ] %.q.q.4.4.4.2.p.p.4.4.4.4.4.2.4.4.4.4.4.4.4.4.q.q.-.-.q.-.-.-.-.s.=.q.q.c.g >.5.5.5.5.5.5.5.5.5.5.4.4.4.5.5.4.p.s.s.s.s.s.s.s.4.4.4.4.4.4.4.4.4.4.4.4.4.4.4.4.s.s.4.4.4.4.s.d.5.w.w.w.5.4.4.5.5.z.1.^ c v x & # # > y { 5.z.c.n.4.4.4.4.q.w.1.5.5.4.2.4.w.4.%.d.4.<.q.<.<.q.<.4.4.4.4.4.4.4.4.4.4.4.4.4.s.s.s.s.s.s.d.d.d.d.s.i.i.s.s.s.s.4.4.s.s.i.4.4.4.4.4.4.4.4.5.4.4.4.4.4.4.4.5.4.4.5.5.4.5.5.4.4.4.4.4.z.`./ w.<.%.q.<.4.4.4.4.=.=.4.4.4.4.s.s.s.s.s.s.s.s.",
"s.s.s.s.s.s.s.s.s.4.4.d.{ ~ ~ m B c t , & # & 2 ] %.q.s.d.s.4.%.2.4.4.5.4.4.4.4.4.4.2.2.2.2.2.*.%.$.%.%.%.%.$.%.@.q.$.d.4.m.{ z.4.4.4.4.5.5.5.5.5.5.5.5.5.5.5.4.4.4.4.4.4.4.4.4.4.4.4.4.4.4.4.4.s.s.4.4.4.4.4.4.s.s.4.4.4.4.s.p.d.w.w.5.5.5.5.5.<.r.5.) c c x , # # > B ;.5.z.c.n.s.<.q.4.4.w.1.4.5.4.4.4.4.4.4.4.s.q.<.q.q.=.4.4.4.4.4.4.4.4.s.4.4.4.4.4.4.4.4.4.4.4.4.4.4.4.4.s.s.s.s.s.s.s.s.s.s.i.4.4.4.4.4.4.4.5.5.5.5.4.4.5.5.4.4.4.4.4.4.5.4.4.4.5.5.4.4.Z.n.#.<.4.%.q.<.4.4.4.4.=.=.=.4.4.4.s.s.s.s.s.s.s.s.",
"s.s.s.s.s.s.4.4.q.<.w.5.{ ~ ~ m S c t , & # & > { %.s.f.j.j.p.2.4.4.4.4.4.4.4.4.4.4.4.4.4.4.4.4.<.<.<.=.=.-.<.<.=.g.<.d.4.4.! 1.5.5.5.5.p.p.5.5.4.4.4.4.5.5.5.5.4.4.4.4.4.4.4.4.s.q.s.4.4.4.4.4.4.4.4.4.4.4.4.4.s.4.4.4.4.4.4.4.d.w.5.5.5.4.5.5.>.w.5.{ D c c 4 # & > S ;.0.z.c.n.4.<.q.4.4.0.1.4.5.d.w.4.5.d.d.@.g.d.%.q.q.=.q.4.4.4.4.4.4.4.4.4.4.4.4.4.4.4.4.d.d.d.d.d.d.d.d.s.s.i.4.4.4.s.s.s.i.i.4.4.4.4.4.4.4.4.4.1.1.1.1.4.4.4.4.4.4.4.4.5.4.4.4.5.4.4.4.F.<.4.#.q.4.4.<.4.4.4.4.=.=.=.=.4.=.s.s.s.s.s.s.s.s.",
"s.s.s.s.s.s.s.s.q.4.d.5.{ ~ ~ S S n c , & # & > { #.4.q.d.d.4.>.d.d.4.4.4.4.4.4.4.4.4.4.4.4.4.4.%.%.%.%.%.$.%.%.#.<.w.,.r.{ 3.5.1.4.4.4.4.4.2.>.1.4.1.4.4.4.4.4.d.s.d.s.s.4.4.4.4.4.4.4.4.4.4.4.%.%.=.4.4.4.4.4.4.4.4.4.4.4.4.4.p.w.w.5.1.1.1.1.1.r.8...D n c 4 # & > S ;.5.z.c.c.4.<.q.4.4.5.1.4.4.w.d.q.q.d.c.$.g.s.$.q.q.=.q.4.4.4.4.4.4.4.4.4.4.4.4.4.4.4.4.4.4.4.4.4.4.4.4.s.i.4.4.4.4.4.s.4.4.4.4.4.4.4.4.4.4.1.1.1.1.1.1.4.4.4.4.4.4.4.4.5.4.>.4.4.4.4.5.Z.o.w.#.d.4.4.<.4.4.4.4.=.=.=.=.4.4.s.s.s.s.s.s.s.s.",
"4.4.4.i.s.s.s.s.q.4.d.5.[ ~ E D S S c 5 & # & > { #.4.q.4.s.5.4.4.4.4.4.4.4.p.d.4.4.4.4.4.4.4.4.=.%.<.%.%.%.%.<.%.<.z.,.v.{ v.x.v.c.c.c.c.c.z.z.d.d.d.d.5.5.5.5.4.4.4.4.4.4.4.4.4.4.4.4.4.4.4.4.s.s.4.4.4.4.4.4.4.4.4.4.4.4.4.4.5.5.5.w.5.5.1.<.r.r.1...G M x , # & > S ;.5.z.z.z.<.4.d.4.4.0.<.4.4.4.4.4.<.q.j.=.s.q.=.q.q.=.4.4.4.4.4.4.4.4.4.4.4.4.s.s.d.d.d.s.s.s.s.4.4.4.4.4.4.4.4.4.4.4.4.4.4.4.4.4.4.4.4.1.1.1.1.1.1.1.1.4.4.4.4.4.4.4.4.5.2.4.5.4.4.4.d.d.<.w.#.d.4.<.4.4.4.4.4.=.=.=.=.4.q.s.s.s.s.h.h.s.s.",
"s.s.s.s.s.s.s.q.4.4.d.5.( S ~ S S S c 5 & + # > { %.<.=.=.4.p.p.4.4.4.4.4.p.d.d.j.j.j.d.d.d.d.w.w.q.q.q.q.q.q.q.z.d.z.1.,.8 ..W ! _ ] ] ] _ _ _ 4.4.4.5.5.5.5.d.4.4.4.4.4.4.4.4.4.4.4.4.4.4.4.4.d.d.s.4.4.4.=.=.4.s.s.s.d.d.s.5.1.5.5.w.r.w.1.1.r.1.;.^ D M c , + & > S ;.5.d.j.j.4.4.d.4.4.w.5.d.4.<.4.<.4.<.s.d.=.=.q.<.=.4.=.4.4.4.s.d.d.s.s.s.i.4.4.4.s.s.s.d.d.l.l.g.j.j.j.4.4.s.s.4.4.4.4.4.4.4.4.4.4.4.4.1.1.1.1.1.1.1.1.4.4.4.4.4.4.4.4.4.4.5.d.5.2.5.n.#.e.4.#.j.<.<.4.4.4.4.4.4.4.=.=.4.4.s.s.s.s.s.s.h.h.",
"l.j.d.s.4.4.%.%.<.4.d.4.! S ~ m S S t , # + # > ( o.%.o.] #.4.5.z.j.d.p.4.>.#.#.{ { { ] ] ] ] ] R R R R I I I R R E l ^ m 5 ^ N ~ ~ ~ R ! ! ! R ~ R ! { ;.,.1.1.j.j.j.d.d.d.w.w.d.d.5.4.4.>.#.#.{ { #.#.>.4.4.4.5.d.d.d.d.d.d.5.1.1.r.t.z.r.5.1.,.;.^ D M M v , # # > S ;.5.d.d.j.4.w.d.5.5.w.w.c.d.5.5.5.4.4.4.n.%.4.d.<.%.q.4.4.4.d.d.d.d.d.d.d.d.p.4.4.>.%.#.#.#.#.#.#.#.#.@.4.4.d.d.d.q.4.4.5.5.5.5.5.4.4.4.4.1.1.1.1.1.1.1.4.4.4.4.1.1.1.1.1.4.5.z.5.2.d.F.( c.<.#.d.4.<.4.4.4.4.4.4.4.4.4.4.4.4.s.s.s.s.s.j.j.",
"/ / / / / / ( ( _ R R R S S S ~ S z r > & & & & D { O.>.O.{ ) ) ) ) ! ! ! E E E E E ~ ~ S S S S m n m n n n n n m n f q q x c c n n n m m D D ~ D D D ~ ~ ^ ^ ! [ [ [ ] ) ) ) ) ! ! ! ! R ~ ~ ~ ~ ~ ~ ~ ~ ~ ~ ~ ! ! ! ! [ [ { { ;...) G G D D D D D M G G G c > # # > S ;.1.1.>.;.;.;.O.O.{ { { { ;.>.,.1.1.5.5.d.] >.n.z.w.w.4.4.,.>.{ [ ! ] ( [ [ [ [ [ [ [ [ [ ] { ] { { { { { { { { | >.2.1.,.1.1.1.1.1.1.1.1.1.1.1.1.1.1.1.1.1.1.,.1.1.1.1.1.,.>.{ { O.>.>.C O.w.c.z.z.v.Z.m.c.p.1.,.4.5.z.5.d.z.z.z.z.d.d.] ] ",
"R R R C C C C S E E E R ~ ~ ~ E S z y > & & & & z E { O.) E E E ^ ^ ^ E ^ G D G D S D S M n n n M M M M c c M c c c x 4 4 q x c c c c n n n n M D D D G D D G G D S D S D S D S ~ S D S m z n z D D N D N D N D c n m m N D D D G G M c M M N G M M M G G M x > & & > S ;.1.,.;.{ { ) ) ^ E E ^ ~ W ! ! ' [ { [ ! r ~ #.{ ] { _ [ [ ! E ~ ~ E E ~ ~ ~ E ! ! ! ! ! ! ! ! ! ) ) ) [ [ ) ) ) [ { { ) ) ) [ { [ ) ) ) ) ) ) ) ) ) ) ^ G G G G ^ ^ ^ { ) ! ! ! ! ! ` 2 z y B n z n S ^ ^ { { { ' ^ ! ! ! ! ! E E ~ ~ E E ",
"E R R S C C C l S m n z z n n n D n y > & & & & 3 y G ) ^ D n n n n n n n n c n c c c t c t t t c c c c x x x x x 4 w w , w w 4 q q q q q q q q n n M M n n n n n n n n n n n n n n n z t t t t c c c c M c M c x t c t c c c c x x 4 4 x c v c c v v N N c , & # & > S ..,.,.;.) ) ^ E D D S D m N N D m m n z 2 2 z E C C R z z z z n m m m S ~ ~ ~ ~ E E E ^ ~ ~ ~ E E E E E ! ^ ^ E ~ ~ ~ D D D D D D D D S D S D S D D D D D G D D D D ~ E E ~ ~ ~ L S L L G c , > 3 t y 3 > > t m N c f 8 m m n z z n m m m m ",
"~ S S C l z l m f f t r t t t t D z 3 & # & & & & 2 n S n y t 3 5 5 5 5 , , > > 3 4 3 3 3 3 5 5 w w w w w , , 5 , * * & & & & * * > & & & & & & 5 3 3 4 3 4 4 q 4 y t y t y y y t t t t t y r 3 4 4 4 4 4 4 4 4 4 4 4 4 w w w , x x , , , , , x , , x v v x : & + # & t ^ ....{ ^ G D S n n n n N N N m n f t t & 8 S l f S E z t f n n m m n z ~ ~ D S m n n f f f f z z z z z S D ~ ~ ~ ~ S n D G G G D N M n n n n n M M M M n c c c c c n n N S K ~ m m L n D y > > , y t t q 4 q q q q x t 8 8 8 8 t f f z n z ",
"r r y 2 y y r t t t t q t t t t c y > & # # & & & > 4 t t 3 , > & & & & & & & & , , : : & & & & & $ $ $ $ $ & & # # # # + + + + # # # # # + + + # # # & & & & > & & & & & & & & , , , , , : , > & & $ $ $ $ $ & * $ $ & & & # # , , , , $ $ $ $ $ * , 1 1 , $ # + # # > t n n n t t t t t t c c q q x q q 4 4 3 + 3 n 3 3 t t t t n n n c t 4 3 3 5 , > & & & & & & & & & & & & 3 t c n D D D D M M M M M M c c c c c c c c c c c n c c n n n n c f c n m c c q 4 , : : & : , , c c 4 w w w x q 5 3 4 t q 3 3 > 5 3 ",
"& & & & & & & & 3 > , , , 5 w w 3 > & & # # & & & & > , , > & & & & & & # # # # & & & & # # # # # # # # # # + + + + + + + + + + + + + + + + + + + + + + # # # # # # # # # # # & & & & & & & & # # # # # # # # # & $ # # # # # # # # # # # # # # + # $ $ $ # # # # # # & & & & & & & & > > , , 4 * , , w 5 5 w 5 + q t , 4 t 3 t q q q 4 3 > & & + + + + # # # # # # # # # # # # & & > 3 t t t t c c c v c c x x x x x x x x x x c c t t t t c c q q c f b p b x c c v x $ & $ : $ , , 4 w w w , q t t t 4 , & & # # ",
"& & & & # # & & # # # # # # & & & & # # # # # & & & & & & & # # # # # # # # # # # # # # # # # # # + + + + + + + + + + + + + + + + + # # # # # # # # # # # # # # # # # # # # # # O O O O O # O O + + + + + + + + # # # # # # + + o o + + + + + + + + + + + + + + # # # + # + + + # # + # # # # # # & & & $ $ $ $ + 4 4 , c 3 & 4 & & & & & # # # # # # # # & & & & & & & & & & & # # & & & > > > , , , , , , , , , , , , , , , , # # # # + + # # 5 5 w 5 w w w w $ , , $ o o o + + # & , , * & & # # # # # + o o + + ",
"2 2 > > > & & & # # # # # # & & # # # # # # # & & & # # # # # # # # # # # # + # # # # # + # + + + + + + # + + + + + + + + + + + # # # & & & & & & & & # # # + + + o o o o o o o O O O O # O O O + + + + + + + + o o o o o o o o + + + + + o o o o o o o o o + + # # + + + # # # + # + + + # + + + + + + + + + + . # + + & + . & + # # # # # # # & & # & & & # & & & & & & & & & & & # # # # # # + + + # # # # # + + + + + + + # # & # # + # # # # + + + + + % # + + + O o o + # + + + + + + + + # # # # # # # & # & ",
"2 2 2 > > & & & # # & & & & # # # & # # # # # # # # # # + # + # # # # & & > , > 3 3 5 > > > > > & & & + + + + + + + # # & & & & t t t n n S n S n z t 3 > > & & & o o X o o o o o O # # # # # # & , , , & # # # # # + + + + + # + + + + + + + + + + + + + + + + # # + + + + + + # # # # # # & & # # # # # # # + # + + & # + + + # # # # # & # & > 3 t t 4 3 q t z y t r 3 > > & & & & & & & # # # # # # # # # # + # # # # # # # > & # & & > & & & & + + # # # # o $ $ o o # # o & # # & # # # # # & & > & > & & & > ",
"l e e 3 2 > & & & & & # & # & & + # # # # # # # # & & > 3 y t y n n S D ~ E ^ ^ ^ ^ E G D S m S & & & & 3 3 q t 5 5 q q f c n n ! ) ) ) ) ) ) ) { ) ) E R S S S , : # o o o o O & : , , c c c A ^ ^ ^ G n t 3 3 > > & & & & & > & & & & & > & > & > > , 3 3 3 3 t t t r r r f t f t f y z n m S t t t t t 3 3 > # 3 # + & , # # + # & & > 3 t t ^ ) ) ) ) ) ) ..{ { ) { ) / E E z z z r 2 > > & + + + + # # # # # # # # & & & & & & & 3 q t q w * & # # # # # # # $ # # # $ : : 3 , 3 , > > > > & & > > > > & & > > ",
">.#.#.{ ] _ I I g s 3 2 2 2 2 2 & > 2 > 2 2 2 2 2 2 l S ! { { O.#.>.>.>.1.1.1.1.>.>.>.O.#.O.O.{ E E ~ S ~ S ~ S ~ E ! ) [ { { ;.#.;.>.;.O.O.{ { O.O.{ { { { [ [ D Z y & o o # & y c D G )  . .;.) ) ....) ) ) ) ^ E D D D G E ^ E E E E E ^ ) ^ ) ) { { { O.{ ;.{ { { { { O.{ O.O.O.O.O.>.;.>.>.>.>.>.;.;.{ { { ~ ! 8 # 3 # . & 2 2 r C R ) { O.1.5.5.5.5.5.5.5.1.1.1.1.1.1.1.1.>.>.;.o.{ ( R D t t 3 3 > & & # & & & & > > 3 3 3 8 f m ~ ~ ~ N w , & # # # # # # + + # & > 3 t ^ ^ E E R R ~ S C C C R R R R R E E ",
"D.n.n.l.d.s.4.4.%.#.] _ I H s s s s s s g I U _ ] { #.>.4.4.4.4.4.4.4.5.5.5.5.4.4.4.4.4.4.4.4.4.4.4.4.>.#.{ ] ] #.#.>.>.>.4.4.4.>.>.>.>.>.>.%.#.#.#.#.#.#.#.#.{ ;. .G , # o # > D G )  . .)  . .E ) { O.;.;.>.>.1.1.1.>.1.<.1.1.5.5.5.5.5.5.5.5.d.w.w.w.w.5.5.5.4.4.4.4.4.4.5.4.5.5.5.5.5.5.d.w.w.w.w.d.d.d.z.z.z.[ [ ,.~ + + ! #.#.>.<.4.4.w.w.w.d.d.d.d.w.w.w.5.5.5.5.5.5.5.5.5.5.5.5.4.<.1.>.>.;.;.) ) S S z z y z S S G ! ( { { { { { { ) ^ t w & # # # # + # + # 3 t t n E ;.;.#.#.#.#.#.#.o.#.#.<.1.4.4.5.5.w.",
"G.G.D.n.l.j.j.h.d.d.s.i.=.@.} ] ] T Y Y Y ] @.*.4.4.s.s.s.s.s.s.d.s.h.d.d.h.h.s.s.h.h.h.d.d.d.d.d.d.d.d.d.d.s.s.s.s.s.s.s.d.d.d.d.d.d.d.d.d.p.p.4.4.4.4.4.4.4.>.,.;.) t # + & y ^ ) .. .) ^ ^ ) O.>.<.1.1.1.1.1.w.0.w.0.w.w.w.w.j.j.j.j.g.j.g.g.g.g.g.j.d.d.d.d.d.d.d.d.d.d.d.d.d.d.d.d.d.d.j.l.d.d.d.d.j.j.j.j.n.#.c.Y.[ 3 >.z.g.g.g.g.l.l.l.l.g.g.d.g.d.d.d.d.d.d.d.w.5.w.5.d.4.4.5.5.5.4.4.4.5.5.5.1.4.1.4.1.#.O.>.>.4.5.5.5.5.5.1.>.{ { { ) n 4 , & # # # # & & 8 ^ { ) { >.>.<.%.4.4.<.4.<.<.<.<.<.q.q.s.s.g.g.",
"A.A.A.M.M.l.M.l.M.l.M.l.l.h.s.i.=.=.$.@.@.=.s.h.h.h.h.j.j.j.j.g.l.l.l.V.l.l.l.l.l.l.l.l.V.D.D.D.l.l.l.n.n.l.l.l.l.l.l.l.j.j.j.d.d.d.j.j.j.h.j.d.d.d.d.s.i.4.4.2.>...^ y # # > t D ^ ) ) ) ) ..>.<.<.q.w.d.w.d.d.d.d.j.d.g.g.g.g.c.l.l.l.n.n.n.n.l.l.n.l.l.l.n.n.n.l.l.l.j.j.j.j.l.l.l.l.l.l.l.l.l.l.l.l.c.l.l.l.n.n.).F.U #.F.c.n.C.C.C.C.C.C.C.C.C.l.l.l.l.l.g.n.n.c.j.j.j.j.j.d.d.d.d.d.d.d.d.d.w.d.w.w.w.5.w.4.w.w.w.j.z.c.c.d.d.5.1.O.[ ) ! n 3 > # # # # # & 2 E ;.>.#.>.4.4.4.q.s.s.h.d.h.g.g.g.f.h.f.f.g.j.j.",
"J.J.J.J.S.S.S.A.M.M.M.D.N.N.N.M.A.M.l.l.l.l.A.D.M.l.l.l.A.A.A.A.J.A.J.J.J.J.J.J.A.A.A.A.A.A.D.D.G.G.G.G.D.D.M.l.D.D.D.M.M.l.l.l.l.l.l.l.j.h.d.s.h.h.d.s.4.*.@.@.[ E z > # # > r D E { { { ;.1.r.d.d.l.n.n.n.n.C.n.n.n.n.n.C.D.D.D.D.D.D.D.D.G.G.G.G.G.G.G.G.G.G.G.G.D.D.A.A.A.A.D.A.M.M.M.M.A.V.D.D.D.G.G.G.G.D.F.{.T.*.| b.F.n.G.G.G.G.G.G.G.G.G.G.D.D.J.D.D.l.n.n.l.j.j.j.j.l.n.n.n.n.n.l.l.l.n.c.l.j.d.d.s.q.d.d.d.j.j.g.c.c.j.z.z.5.>.[ ~ S z 3 > # # # # & # l { >.#.>.4.d.l.j.j.j.j.l.l.l.l.l.l.l.l.V.D.D.D.D.",
"L.L.L.L.L.L.J.J.J.J.J.D.J.D.J.J.J.J.J.J.J.J.J.J.J.J.J.J.J.J.J.J.J.J.J.G.J.J.J.P.J.D.D.D.A.l.l.l.D.D.G.G.G.G.D.D.D.D.D.D.n.l.l.l.D.D.N.l.l.j.h.h.h.d.h.s.=.*.} _ ~ z 3 & + # > r D ! { { O.>.w.c.H.K.T.K.F.D.n.n.n.n.n.D.D.D.D.D.D.D.D.D.D.G.G.G.P.P.P.F.G.J.D.D.P.G.G.D.D.A.D.D.D.D.D.V.A.V.D.D.C.D.D.F.P.P.K.K.T.XXj._ n.W.F.`.K.P.P.P.P.P.P.P.P.G.G.J.G.G.D.l.d.d.d.s.s.d.d.d.n.n.n.n.n.n.n.c.n.n.n.n.n.n.n.n.j.l.l.c.n.n.n.n.c.n.n.z.1.[ m t f 3 & # # # # & & _ 1.>.#.4.d.l.l.l.l.j.j.j.j.j.h.f.h.k.l.V.D.J.P.L.",
"M.M.D.G.P.P.P.P.P.P.P.J.J.J.J.J.J.J.J.J.J.J.J.G.G.J.P.G.G.G.G.G.G.G.G.D.D.D.D.n.n.n.l.l.j.d.d.s.i.s.d.j.z.l.c.c.l.l.l.j.h.s.s.s.=.=.4.4.=.=.=.=.4.=.4.4.c.#._ _ z 3 & # + + & t ^ S E >.z.F.~..X~.T.m.d.5.5.d.j.n.m.F.F.F.F.F.Z.F.F.F.F.F.F.F.F.H.F.G.D.D.l.n.l.s.4.4.4.i.4.i.4.i.4.i.4.i.4.i.4.4.<.4.q.d.z.D.F.`.] s d.`.Q.F.W.W.W.W.!.W.P.K.P.P.P.D.j.s.s.s.s.4.4.4.4.4.4.4.4.5.w.d.j.b.c.n.n.n.n.n.n.n.n.n.n.c.c.c.c.c.c.c.n.l.d.d.d.4.! f f q 5 * & # + # > > { 1.#.>.4.d.D.K.D.h.s.s.s.s.s.s.s.s.u.s.u.s.u.l.l.",
"h.h.h.j.l.l.M.M.D.D.D.G.G.J.J.J.G.G.G.G.G.G.G.G.G.G.G.G.D.D.D.D.n.n.l.l.d.d.d.s.4.4.4.4.4.4.4.4.2.2.4.4.4.4.4.4.d.d.s.q.q.4.<.<.<.<.=.=.=.=.=.=.4.=.4.4.c.| _ _ c 3 & # + + & t ..) ) >.w.z.n.C.c.z.d.5.4.5.5.d.5.5.d.d.d.d.d.5.w.w.w.w.q.w.w.w.d.d.d.s.s.s.s.4.4.4.4.4.4.4.4.4.4.4.4.4.4.4.4.4.q.4.<.<.4.5.d.d.c.>.& 4.F.m.F.F.K.K.K.K.K.F.D.D.l.d.s.4.4.4.4.4.4.4.4.4.5.5.5.5.>.4.4.4.5.5.5.d.j.j.j.j.j.j.j.j.j.j.j.j.j.j.j.j.h.q.4.s.5.#.L 8 q w , * # + # & y ;.1.#.4.s.l.G.G.l.s.4.q.s.q.q.s.s.s.s.s.s.s.s.s.s.",
"y.y.=.=.y.s.h.h.h.j.j.l.l.M.D.D.V.V.A.A.A.A.A.A.V.l.l.l.j.j.d.h.s.s.s.4.4.4.=.=.2.2.2.2.2.2.2.2.4.4.4.4.4.4.>.>.4.<.<.<.=.=.%.%.4.4.=.=.=.=.=.=.=.=.4.=.c.| _ _ c 4 & # + + * c { E ! >.w.z.g.d.4.4.4.4.4.4.4.4.>.4.4.4.4.4.4.4.4.4.4.4.<.<.<.4.i.4.i.4.=.=.=.=.4.4.4.4.4.4.4.4.4.4.4.4.4.4.4.4.q.4.4.<.4.<.4.4.5.n.2 { d.5.z.4.4.s.s.s.4.4.<.=.4.4.4.4.4.4.4.4.4.4.4.4.4.5.5.5.4.4.4.4.4.4.4.4.p.p.p.p.p.p.p.p.p.d.p.p.d.d.d.s.=.=.=.4.d.5.[ 8 f q w , & + + & D ;.>.o.4.d.n.P.l.h.s.=.q.s.q.q.s.s.s.s.s.s.s.s.4.4.",
"y.=.=.=.y.y.y.s.y.y.y.s.s.h.h.h.h.s.h.f.h.h.h.h.s.s.s.s.4.4.4.4.4.4.4.=.4.4.4.4.4.4.4.4.4.4.4.4.4.4.4.4.4.4.4.4.<.<.<.<.<.<.<.<.4.4.=.=.=.=.=.=.=.=.4.=.c.| _ _ n 4 & + + + * c ^ D ! >.z.c.z.d.4.4.5.4.5.4.4.4.4.4.5.5.5.5.5.4.w.w.w.w.d.d.d.d.i.s.s.s.s.s.s.s.4.4.4.4.s.s.s.s.4.4.4.4.4.4.4.4.4.4.4.4.4.4.4.4.5.F.#.I 4.>.5.#.4.4.4.4.4.q.4.4.4.4.s.s.s.4.4.4.4.4.4.4.4.5.5.5.5.5.5.4.4.4.4.4.4.4.4.4.4.4.4.4.4.4.4.4.4.4.4.4.=.=.=.=.5.z.>.m t w , * & # + # G ;.;.{ 4.d.l.D.s.s.4.4.s.s.q.q.s.s.s.s.s.s.s.s.s.s.",
"y.i.i.i.i.i.y.i.=.=.=.=.y.y.y.y.=.=.=.-.s.=.=.=.=.=.=.=.=.=.4.=.=.=.4.4.4.4.4.4.4.4.2.2.2.2.2.2.4.4.4.4.4.4.4.4.4.4.4.4.q.q.q.q.4.<.=.=.=.=.=.=.=.=.4.=.c.| _ _ n 4 & + + + , n ) ! { 1.d.d.q.4.5.5.5.4.4.4.4.4.4.5.5.5.5.5.4.4.4.4.4.4.4.4.4.4.4.4.4.i.q.s.s.s.4.4.4.4.s.s.q.s.4.4.4.4.4.4.4.4.<.<.4.4.4.4.4.4.4.4.m.s >.5.d.5.4.4.4.s.d.d.d.d.4.4.4.4.4.4.4.4.4.4.5.5.4.4.4.4.4.4.4.4.4.4.4.4.4.4.4.4.4.4.4.4.4.4.4.4.4.4.4.4.=.-.4.=.4.5.,.{ q 5 & & & + + # S O.O.o.4.d.d.l.i.y.=.s.s.s.s.q.s.s.s.s.s.s.s.s.=.=.",
"y.y.s.s.s.i.y.=.i.i.y.y.y.y.y.=.=.=.=.=.4.=.=.4.=.=.=.4.4.4.4.4.4.4.4.4.4.4.=.=.4.4.4.2.2.2.2.2.>.>.4.4.4.4.4.4.<.<.<.4.<.q.q.q.4.<.=.=.=.=.=.=.4.=.4.=.c.| _ _ n 4 & + + # 5 N ^ E ) >.5.4.<.<.5.4.4.4.4.4.5.5.5.5.5.4.4.4.4.4.q.w.9.9.4.4.4.4.4.4.4.4.=.q.4.4.s.s.s.s.s.s.s.s.4.4.4.4.4.4.4.4.4.4.4.<.4.4.4.<.5.#.Y.I { 5.4.5.4.=.4.=.=.*.*.*.4.4.4.4.4.4.4.4.4.4.4.5.4.4.4.4.4.4.4.4.4.4.4.4.4.4.4.4.4.4.4.4.4.4.4.4.4.4.4.4.=.s.s.4.<.4.1.,.n 3 & & # + + # y { ;.#.4.j.j.l.y.y.s.s.s.s.q.q.u.s.s.s.4.4.=.=.=.=.",
"=.=.i.i.4.i.4.4.s.s.s.s.s.4.=.=.=.=.4.=.4.4.4.4.4.4.4.4.4.4.4.4.4.4.4.4.4.4.4.=.4.4.4.4.4.4.4.4.4.4.4.4.4.4.4.4.<.<.<.<.<.4.<.<.4.4.<.<.=.=.=.=.4.=.4.4.c.| _ _ n , & + + # w D n m ( O.<.<.<.q.4.4.4.4.4.4.5.5.5.5.5.5.5.4.4.5.d.w.e.e.d.d.q.q.4.4.i.i.s.s.s.s.s.s.s.s.s.s.s.s.4.4.4.4.4.4.4.4.q.q.4.<.4.4.4.4.j.>.c.4.I >.>.>.d.s.4.4.4.4.4.4.4.4.4.4.4.4.4.s.4.4.5.5.5.5.4.4.1.1.1.5.4.4.4.4.4.4.4.4.4.4.4.4.4.4.4.4.4.4.4.4.4.=.=.4.4.>.,.5.^ c , & # + + # 2 ) O.O.4.l.n.D.y.s.s.s.q.q.q.q.=.=.s.s.4.4.=.=.s.s.",
"s.s.=.=.=.4.s.s.4.4.4.4.4.4.=.=.=.=.4.4.4.4.4.4.i.i.4.4.4.4.4.4.=.=.=.4.4.4.4.4.4.4.2.2.2.4.4.4.4.4.4.4.4.4.4.<.<.<.<.<.<.4.q.q.4.4.<.<.=.=.=.=.4.=.4.4.c.| _ _ n 4 & + + # 4 D ~ E { ;.>.#.<.q.4.4.5.5.5.5.4.4.5.5.4.4.4.4.4.4.4.4.4.4.<.<.<.<.4.4.4.4.4.4.s.s.s.s.s.s.s.s.s.s.4.4.4.4.4.4.4.4.q.q.4.<.4.4.4.4.5.>.>.F.s >.5.4.4.4.4.=.=.4.4.4.4.4.4.4.=.=.4.4.4.4.5.5.5.5.4.4.4.4.4.4.4.2.>.>.4.4.4.4.4.4.4.4.4.4.4.4.4.4.4.4.4.*.*.4.4.>.>.5...D 3 & & + + # & D { { 4.j.n.F.y.s.s.s.=.=.=.4.=.=.s.s.4.4.4.=.4.4.",
"s.s.i.4.4.4.4.s.4.4.4.4.4.4.4.4.4.4.4.4.4.4.4.4.4.4.4.4.4.4.2.2.4.4.4.=.4.=.=.=.4.4.4.4.4.4.4.4.4.4.4.4.4.4.4.4.4.<.<.4.q.4.4.<.4.4.4.4.=.=.=.=.=.4.4.4.p.#.I R n 4 & + + # w D m S { { z.<.<.<.4.4.4.4.4.5.5.5.4.4.4.5.5.5.5.5.w.w.w.w.q.4.<.<.4.4.s.s.s.s.s.s.s.s.s.s.s.4.4.4.4.4.4.4.4.4.4.4.<.<.<.<.4.4.4.4.>.d.5.z.! d c.>.4.4.4.4.4.4.4.4.4.4.4.4.4.4.4.4.5.5.4.4.4.4.5.5.4.5.5.4.4.4.4.4.4.4.4.4.4.4.4.4.4.4.4.4.4.4.4.4.=.=.4.4.4.4.1.1.8.^ 3 , # + + + & z { 4.d.l.N.D.j.s.=.s.s.4.=.4.s.i.4.4.4.i.s.s.s.s.",
"s.4.4.4.4.4.4.4.4.4.4.4.4.4.4.4.4.4.4.4.i.4.4.4.4.4.4.i.4.4.4.4.4.4.4.=.=.=.=.=.4.4.4.4.4.4.2.2.4.4.4.4.4.4.4.4.4.<.<.4.q.4.4.<.4.4.4.4.=.=.=.=.=.4.4.4.p.#.R R n 4 & + + # w D N D { { z.<.<.<.4.4.4.4.5.5.5.5.4.4.5.5.5.5.5.5.w.w.w.w.4.4.<.<.4.4.s.s.s.s.s.s.s.s.s.s.s.s.4.4.4.4.4.4.4.4.4.4.<.<.<.<.4.4.4.4.4.4.4.m.4.2 5.4.4.4.4.4.4.4.4.4.4.4.4.4.4.4.4.4.5.4.4.4.4.4.5.5.4.4.5.5.4.4.4.4.4.4.4.4.4.4.4.4.4.4.4.4.4.4.4.4.4.4.4.4.4.4.<.1.1.D 3 , # + + + # z { <.w.l.N.D.l.s.=.s.s.q.<.=.s.i.4.4.4.i.s.s.s.s.",
"4.4.4.4.4.4.4.4.4.4.4.4.4.4.4.4.4.4.i.4.i.i.4.4.4.4.4.4.i.4.4.4.4.4.=.=.=.=.=.=.4.4.2.2.4.2.2.2.4.4.4.4.4.4.4.4.<.<.<.4.q.4.4.<.4.4.4.4.=.=.=.=.=.4.4.4.p.#.R ~ n 4 & + + # w D N ~ { { z.<.<.4.4.4.4.5.5.5.5.5.5.5.5.5.5.5.5.5.w.w.w.w.4.4.4.<.4.4.4.s.s.s.s.s.d.d.d.s.s.s.s.4.s.s.4.4.4.4.4.4.<.<.<.<.4.4.4.4.4.#.4.F.m.2 { d.2.2.4.4.4.4.4.4.4.4.4.4.4.4.4.4.5.4.4.4.4.4.4.4.4.4.4.4.4.4.4.4.4.4.4.4.4.4.4.4.4.4.4.4.4.4.4.4.4.4.4.4.4.4.<.1.,.m 3 , + + + + # e ( #.5.l.n.D.D.h.=.=.s.s.4.=.s.s.4.4.4.i.s.d.d.d.",
"4.4.4.4.4.4.4.4.4.4.4.4.4.4.4.4.4.4.i.i.i.i.4.4.4.4.4.4.4.4.4.4.4.=.=.=.=.=.=.=.2.2.2.2.2.2.2.2.4.4.4.4.4.4.4.4.<.<.<.4.q.4.4.<.4.4.4.4.=.=.=.=.=.4.4.4.p.#.R ~ n 4 & # + # w N D ~ ..{ z.<.<.4.4.4.4.5.5.5.5.5.5.5.5.5.5.5.5.d.w.w.w.w.4.4.4.4.4.4.4.i.s.s.s.s.d.d.s.d.s.s.s.s.s.s.s.s.s.4.4.4.<.<.<.<.4.4.4.4.4.#.4.m.F.2 ] z.2.4.4.4.4.4.4.4.4.4.4.4.4.4.p.p.4.4.4.4.4.4.4.4.4.4.4.4.4.4.4.>.4.4.4.4.4.4.4.4.4.4.4.4.4.4.4.4.4.4.4.4.4.4.<.<.;.z > , + + + + + 2 ( >.d.n.N.n.D.h.=.=.q.s.q.=.i.s.i.i.4.i.s.s.d.d.",
"<.<.4.q.q.q.q.q.4.4.<.4.4.4.<.4.=.i.s.s.s.s.i.4.4.4.4.4.4.4.4.4.=.=.=.=.4.=.=.=.2.2.2.2.2.2.2.2.4.4.4.4.4.4.4.4.<.4.4.4.q.<.<.<.4.4.4.4.=.=.=.=.=.=.4.4.d.%.R ~ n 4 & + + # 4 D ~ E ;.O.z.4.<.4.4.4.4.5.4.5.5.5.5.p.p.p.d.5.p.d.w.w.w.4.4.4.q.q.4.4.4.4.4.s.s.s.d.d.s.s.s.s.s.s.s.s.s.4.4.4.4.4.<.4.4.4.4.4.4.4.4.4.5.d.z.I { d.4.4.4.4.4.4.4.4.4.4.5.4.4.5.5.5.4.4.4.4.4.4.4.4.4.4.4.4.4.4.4.>.4.4.4.4.4.4.4.4.4.4.4.4.4.4.4.4.4.4.4.4.4.4.<.1.{ r > * + o + o + > E >.d.n.D.n.D.l.u.=.=.s.q.=.4.4.i.i.i.i.i.s.d.d.",
"4.4.q.q.q.q.4.4.4.4.<.<.4.4.4.4.i.y.s.s.s.s.4.4.4.4.4.=.4.4.4.4.=.=.=.=.4.=.=.=.2.2.2.2.2.4.4.4.4.4.4.4.4.4.4.4.<.4.4.4.q.4.<.<.4.4.4.4.=.=.=.=.=.=.4.4.p.#.I ~ n 4 # + + # 4 D ^ ! ;.O.z.<.<.4.4.4.4.5.4.5.5.5.p.p.d.d.d.d.d.d.w.w.q.4.q.q.q.d.s.4.i.i.s.s.h.h.d.d.s.s.s.s.s.s.s.s.s.s.4.4.4.4.<.<.<.<.4.4.4.4.>.5.d.5.{ { >.5.4.4.4.4.4.4.4.4.5.5.4.4.5.5.5.p.4.5.4.5.5.4.5.4.4.4.4.4.4.4.>.,.4.4.4.4.4.4.4.4.4.4.4.4.4.4.4.4.4.4.4.4.4.4.<.<.( 3 & * + o o o o > S #.d.n.D.D.D.l.s.=.=.q.q.=.4.4.4.i.i.i.i.i.d.d.",
"4.4.4.q.q.4.<.<.<.<.4.<.4.4.4.4.=.u.s.s.s.s.s.4.4.=.4.=.=.4.4.4.4.4.4.=.4.=.=.=.2.4.2.2.4.4.4.4.4.4.4.4.4.4.4.4.<.4.4.4.q.<.<.<.4.4.4.4.=.=.=.=.=.=.=.4.p.#.R ~ n , # + + # 4 D ^ ! ;.O.z.4.<.9.4.4.4.4.4.5.5.5.d.d.d.d.d.d.d.d.w.w.q.4.q.q.d.d.s.s.i.s.s.s.h.d.d.d.s.s.d.s.s.d.d.d.s.s.4.4.4.4.<.<.<.<.4.4.4.4.>.4.5.d.g >.2.4.4.4.4.4.4.4.4.4.5.5.4.5.5.5.p.p.5.5.5.5.5.5.5.4.4.4.4.4.4.4.>.>.4.4.4.4.4.4.4.4.4.4.4.4.4.4.4.4.4.4.4.4.4.4.<.1.R 2 > > + . o o + > l / 4.l.D.D.M.M.j.=.=.=.q.=.4.i.i.i.i.i.i.i.i.i.",
"4.4.4.4.4.<.4.4.4.<.4.<.4.4.4.4.4.s.s.s.s.s.i.4.i.i.4.4.4.4.4.4.4.4.4.4.4.=.=.=.4.2.2.4.4.4.4.4.4.4.4.4.4.4.4.4.<.4.4.4.4.<.<.<.4.4.4.4.4.=.=.=.=.4.=.4.p.#.R ~ n , # + + # 4 D ^ ) ;.O.c.4.<.9.4.4.4.4.4.5.5.5.d.d.d.d.d.d.d.d.w.w.q.4.4.q.d.d.d.s.s.4.s.s.d.j.d.d.d.s.d.s.s.d.d.d.s.s.s.4.4.4.4.<.<.<.4.4.4.4.>.4.4.c.2 4.>.>.4.4.4.4.4.4.4.4.4.5.5.p.5.5.p.5.5.5.5.w.d.w.5.5.4.4.4.1.4.1.>.>.4.4.4.4.4.4.4.4.4.4.4.4.4.4.4.4.4.4.4.4.4.4.4.4.C > & * + . o o + & 2 C #.d.D.G.l.M.l.s.=.=.q.<.4.i.i.i.i.i.i.i.i.i.",
"i.4.i.4.i.4.4.4.4.4.4.4.i.4.i.4.4.s.d.s.4.4.4.d.4.4.4.4.4.4.4.4.4.=.2.4.4.4.4.2.4.4.4.4.4.4.4.4.4.4.4.4.4.4.4.4.4.4.4.4.4.4.4.4.4.4.4.4.4.=.=.=.4.4.4.2.p.>.R J t * # # # # 3 ^ ) ( O.1.q.4.<.<.5.5.5.5.4.4.4.4.d.d.d.d.d.d.d.d.d.5.5.4.5.5.d.d.d.d.w.5.p.d.j.j.d.w.d.d.j.d.d.d.d.d.s.s.s.i.i.4.s.4.=.=.=.=.4.=.d.#.d.I ] 2.4.4.4.4.4.4.4.4.4.4.4.4.4.4.5.5.5.5.5.5.w.w.w.5.5.1.5.4.4.1.4.1.4.4.4.4.4.4.4.4.4.4.4.4.4.4.4.4.4.4.4.=.=.4.4.>.1.5.r 3 5 & o o o + o > 2 u @.j.A.D.A.N.l.s.4.=.=.=.4.4.s.s.s.s.4.4.4.4.",
"i.i.i.i.i.4.4.4.4.4.4.i.i.i.i.4.4.d.d.d.4.4.4.p.4.4.4.4.4.4.4.4.4.4.2.2.4.4.4.4.4.4.4.4.4.4.4.4.4.4.4.4.4.4.4.4.4.4.4.4.4.4.4.4.4.4.4.4.4.4.=.=.4.4.4.2.p.>.R J c * # # # # 3 E ) ( O.1.w.4.<.<.4.5.5.4.4.5.4.4.d.d.d.d.d.d.d.d.d.5.5.5.5.5.d.d.d.d.d.5.d.d.d.z.w.d.d.d.d.d.d.d.d.s.s.i.i.i.i.4.4.4.=.=.4.4.4.4.%.j.p.I #.5.2.4.4.=.=.4.4.4.4.4.4.4.4.4.5.5.5.5.5.5.5.w.5.5.1.1.5.4.1.1.1.1.1.4.4.4.4.4.4.4.4.4.4.4.4.4.4.4.4.4.=.=.=.=.4.4.4.>.t q , # o o o + o & > u #.j.V.D.D.D.n.d.4.4.<.=.4.4.i.s.s.i.4.4.4.4.",
"i.i.i.i.i.4.4.4.4.4.4.i.i.i.i.i.i.p.d.i.4.4.4.4.4.4.4.4.4.4.4.4.4.4.4.4.4.4.4.4.4.4.4.4.4.4.4.4.4.4.4.4.4.4.4.4.4.4.4.4.4.4.4.4.4.4.4.4.4.4.=.=.=.4.4.2.p.#.R k c * # # # # 3 E ) { O.<.w.4.<.<.4.4.4.5.5.5.5.5.d.d.d.d.d.d.d.d.d.d.5.5.5.d.d.d.d.d.d.d.d.d.z.j.d.d.z.z.z.d.d.d.s.s.i.i.i.4.4.4.=.4.4.4.4.4.4.4.} F.#.U 4.d.#.p.4.4.4.4.4.4.4.4.4.4.5.5.w.w.w.w.w.w.5.5.5.1.1.1.5.4.1.1.1.1.1.4.4.4.4.4.4.4.4.4.4.4.4.4.4.4.4.4.=.=.=.*.4.5.4.{ f q , # o o o + o & & u #.j.l.D.D.D.n.d.4.4.<.=.4.4.4.i.i.4.4.4.4.4.",
"i.i.i.i.i.4.4.4.4.4.i.i.s.s.i.i.4.4.4.4.4.4.4.4.4.4.4.4.4.4.4.4.4.4.4.4.4.4.4.4.4.4.4.4.4.4.4.4.4.4.4.4.4.4.4.4.4.4.4.4.4.4.4.4.4.4.4.4.4.4.=.=.=.4.4.4.p.#.R l x * # # # # 3 E [ { >.<.w.4.<.4.4.4.4.4.5.5.d.d.d.d.d.d.d.d.d.d.d.d.d.d.d.d.d.d.d.d.j.z.z.z.z.z.z.z.z.z.z.d.d.d.s.s.i.4.4.4.4.4.=.4.4.4.4.4.4.4.4.n.I #.4.4.4.4.4.4.4.4.4.4.4.4.4.4.5.5.w.w.w.w.w.w.5.5.5.1.1.1.5.4.1.1.1.1.1.4.4.4.4.4.4.4.4.4.4.4.4.4.4.4.4.4.=.y.4.*.4.d.2.~ z q , # o o o + o # & u *.j.l.D.D.D.n.d.4.4.4.=.4.4.4.4.4.4.4.4.4.4.",
"i.i.i.4.4.4.4.4.4.i.i.s.i.i.i.i.4.4.4.4.4.4.4.4.4.4.4.4.4.4.4.4.2.4.4.4.4.4.4.4.4.4.4.4.4.4.4.4.4.4.4.4.4.4.4.4.4.4.4.4.4.4.4.4.4.4.4.4.4.=.=.=.=.4.*.*.5.#.R k x $ # # # # 2 E [ { >.4.4.<.<.9.4.4.4.4.5.5.d.d.d.d.d.d.d.d.d.d.d.d.d.d.d.d.d.d.d.d.z.z.z.z.z.d.z.z.z.z.z.d.d.d.s.s.i.4.4.4.4.4.4.4.4.4.=.%.=.4.N.*.s d.2.>.d.2.4.=.=.4.4.4.4.4.4.4.5.5.w.w.w.w.w.5.5.5.4.4.4.4.5.4.4.1.1.1.1.4.4.4.4.4.4.4.4.4.4.4.4.4.4.4.4.4.=.y.4.*.i.d.>.z m q * + o o o o + # & s %.j.l.D.D.D.n.d.4.4.q.4.4.4.4.4.4.4.4.i.4.4.",
"i.i.i.4.4.4.4.4.4.i.i.i.s.s.i.i.4.4.4.4.4.4.4.4.4.4.4.4.4.4.4.4.2.4.4.4.4.4.4.4.4.4.4.4.4.4.4.4.4.4.4.4.4.4.4.4.4.4.4.4.4.4.4.4.4.4.=.=.=.=.=.=.=.4.*.*.5.#.R k x * # # # # 3 G [ { >.<.4.<.<.q.4.4.4.5.5.p.d.d.d.d.d.5.5.d.d.d.d.d.d.d.d.d.d.d.d.d.j.z.z.z.z.z.d.d.z.z.z.d.d.d.s.s.i.i.4.4.4.4.4.4.4.=.%.*.=.4.n.I H b.#.#.d.%.4.=.=.4.4.4.4.4.4.4.5.5.w.w.w.w.5.5.5.5.5.5.5.4.5.4.4.1.1.1.1.4.4.4.4.4.4.4.4.4.4.4.4.4.4.4.4.4.=.=.=.4.p.p.#.z m t & + o o o o + # # s =.l.l.D.D.D.n.p.4.4.4.4.4.4.4.4.4.i.i.i.s.s.",
"4.4.4.4.4.4.4.4.4.i.s.s.s.s.s.s.4.4.4.4.4.4.4.4.4.4.4.4.4.4.4.4.4.4.4.4.4.4.4.4.4.4.4.4.4.4.4.4.4.4.4.4.4.4.4.4.4.4.4.4.4.4.4.4.4.4.=.=.=.=.=.=.=.4.*.%.4.#.R k q & # # # # 3 G ) { >.1.<.#.%.9.4.4.4.5.5.5.d.d.d.d.5.5.5.5.d.d.d.p.d.d.d.5.5.5.d.d.d.z.z.z.d.d.w.d.d.d.j.d.d.d.d.s.s.i.i.4.4.4.4.4.4.=.=.=.4.d.@.s #.4.2.2.5.2.4.=.=.4.4.4.4.4.4.4.4.5.5.5.5.5.4.4.4.5.5.5.4.4.5.4.4.1.1.1.1.4.4.4.4.4.4.4.4.4.4.4.4.4.4.4.4.=.=.=.=.i.d.4.{ S ~ t & + o o o o + # # l 4.l.V.D.D.D.n.p.4.4.<.4.4.4.4.s.s.s.s.i.d.d.",
"4.4.4.4.4.4.4.4.4.i.s.s.s.s.s.s.4.4.4.4.4.4.4.4.4.4.4.4.4.4.4.4.4.4.4.4.4.4.4.4.4.4.4.4.4.4.4.4.4.4.4.4.4.4.4.4.4.4.4.4.4.4.4.4.4.4.=.4.=.=.=.=.=.4.2.%.4.#.R k q & # # + # > G ) { >.1.<.#.%.9.4.4.5.5.5.5.d.d.d.d.5.5.4.5.d.d.5.p.5.5.5.5.5.5.d.d.d.d.d.d.d.d.w.w.d.d.j.d.d.d.d.d.s.s.s.i.4.4.4.4.4.=.=.4.d.n.u H d.| 5.5.>.4.4.=.=.4.4.4.4.4.4.4.4.4.5.5.5.5.<.1.4.5.w.5.5.4.5.4.4.1.1.1.1.4.4.4.4.4.4.4.4.p.4.4.4.4.4.4.4.=.=.=.=.s.d.%.] S ~ t & + o o o o + # & C q.V.V.G.D.D.n.i.=.=.<.<.=.4.i.s.d.d.s.i.4.4.",
"4.4.4.4.4.5.5.5.4.5.w.d.w.4.4.4.4.4.4.4.4.4.4.4.4.4.4.4.4.4.4.4.4.4.4.4.4.4.4.4.4.4.4.4.4.4.4.4.4.4.4.4.4.4.4.4.2.4.4.4.4.4.4.4.4.4.=.=.=.=.=.=.=.=.%.2.p.#.J k q & # # # # , G { { >.<.#.#.<.<.4.4.4.4.5.5.d.5.d.d.5.5.4.5.5.5.d.d.d.d.d.p.5.5.d.d.d.d.d.d.d.d.w.w.w.d.d.d.w.5.d.d.d.s.s.s.i.i.=.=.=.=.4.4.4.4.s I j.4.2.| d.%.4.4.=.4.4.4.4.4.4.4.4.5.5.5.5.5.5.w.w.w.5.4.4.4.4.4.4.<.<.4.4.4.4.4.4.4.4.4.4.4.4.4.4.4.4.4.4.=.=.=.s.@.p.d.I [ ! c & o o o o o # + > ( q.l.D.D.G.l.d.i.4.=.<.<.<.4.d.d.d.4.4.5.4.4.",
"4.4.4.4.4.5.5.5.4.5.5.w.5.4.4.4.4.4.4.4.4.4.4.4.4.4.4.4.4.4.4.4.4.4.4.4.4.4.4.4.4.4.4.4.4.4.4.4.4.4.4.4.4.4.4.4.4.4.4.4.4.4.4.4.4.4.=.=.=.=.=.=.=.=.%.4.p.#.J k x & # # # # 3 G { { >.<.#.#.<.<.4.4.4.4.5.5.5.5.5.5.5.4.4.5.5.5.d.d.d.d.d.d.5.5.d.d.d.d.d.d.d.d.w.w.w.w.d.d.d.w.d.d.d.s.s.s.i.i.4.=.=.=.4.4.4.4._ _ #.p.2.4.2.4.4.4.=.4.4.4.4.4.4.4.4.4.5.5.4.4.4.5.5.5.4.4.4.4.4.4.4.<.<.4.4.4.4.4.4.4.4.4.4.4.4.4.4.4.4.4.4.4.=.=.i.@.p.d._ [ ! c & o o o o o # + 3 ] d.l.D.D.J.l.i.i.4.4.<.q.4.4.d.d.5.4.4.5.4.4.",
"4.4.4.4.4.5.5.5.4.5.5.5.4.4.4.>.4.4.4.4.4.4.4.4.4.4.4.4.4.4.4.4.4.4.4.4.4.4.4.4.4.4.4.4.4.4.p.p.5.p.4.4.4.4.4.4.4.4.4.4.4.4.4.4.4.4.4.=.=.=.=.=.=.4.%.4.5.| J k x * # # # # 3 G { { <.<.#.%.<.<.4.4.4.4.4.5.5.5.4.4.4.4.4.5.5.d.d.d.d.d.d.d.5.5.d.d.5.5.d.d.d.d.w.w.w.w.5.d.d.d.d.d.s.s.s.s.i.i.4.4.=.=.4.4.4.4.4.#.H 4.4.d.| 4.4.4.=.4.4.4.4.4.4.4.4.4.4.4.4.4.4.4.4.4.4.4.4.4.4.4.4.4.4.4.4.4.4.4.4.4.4.4.4.4.4.4.4.4.4.4.4.4.=.=.4.*.4.d.] ) ^ c & o o o o o # # 8 o.d.l.D.D.P.l.4.4.4.4.q.q.4.5.5.5.5.5.5.5.5.5.",
"4.4.4.4.4.5.5.5.4.4.4.4.4.4.4.>.2.2.2.2.2.2.4.4.4.4.4.4.4.4.4.4.4.4.4.4.4.4.4.4.4.4.4.4.4.4.p.d.5.p.4.4.4.4.4.4.4.4.4.4.4.4.4.2.4.4.=.=.=.=.=.=.=.4.%.2.5.| J l c * # # # # 3 E { { <.<.#.%.<.<.4.4.>.4.4.1.4.4.4.4.4.4.5.5.d.d.5.5.d.d.d.d.d.5.5.5.5.5.d.d.d.d.d.w.w.5.5.5.d.d.d.d.s.s.s.s.i.i.4.4.=.=.4.4.4.4.d.4.I ] 4.d.#.4.4.=.=.4.4.4.4.4.4.4.4.5.5.5.4.4.4.4.4.4.4.4.4.4.4.4.4.4.4.4.4.4.4.4.4.4.4.4.4.4.4.4.4.4.4.4.4.4.=.=.4.=.4.5.#.) ^ c $ + o o o o + & z #.d.l.V.V.P.l.4.4.s.s.q.q.4.5.5.5.5.4.5.5.4.4.",
"4.4.4.4.4.5.5.5.4.4.4.4.4.1.<.>.2.2.2.2.2.2.4.4.4.4.4.4.4.4.4.4.4.4.4.4.4.4.4.4.4.4.4.4.4.4.p.d.p.p.4.4.4.4.4.4.4.4.4.4.4.4.4.2.4.4.4.4.=.=.=.=.=.4.2.2.4.| J L c , # # # # 3 E { { <.<.#.%.<.%.4.4.2.4.4.4.4.4.4.4.4.5.5.5.d.d.5.5.5.d.d.d.d.d.p.p.p.5.5.d.d.d.d.w.w.5.5.5.d.d.d.d.d.s.s.s.i.i.4.4.4.4.4.4.4.4.4.d.%.s 2.4.4.4.4.=.=.4.4.4.4.4.4.4.5.5.5.4.4.4.4.4.4.4.4.<.<.<.4.4.4.4.4.4.4.4.4.4.4.4.4.4.4.4.4.4.4.4.4.4.4.=.=.=.=.4.4.4.4.) ~ c , + o o o + # & D <.g.l.l.D.G.h.=.4.q.s.q.q.4.5.5.5.4.4.5.5.5.5.",
"4.4.4.4.4.5.5.5.4.4.4.1.1.1.<.<.%.%.%.%.2.2.2.2.4.4.4.4.4.4.4.4.4.4.4.4.4.4.4.4.4.4.4.4.4.4.4.p.4.4.4.4.4.4.4.4.4.4.4.4.4.4.4.4.4.4.4.4.=.=.=.=.=.4.*.2.4.{ J ~ c , # # # # 3 ^ { { <.<.#.%.<.%.4.4.2.4.4.4.4.4.4.4.4.5.d.d.d.d.d.d.d.d.d.d.d.d.d.d.5.5.5.5.d.d.w.w.w.w.5.d.d.d.d.d.d.s.s.s.i.i.4.4.4.4.4.4.4.4.4.d.d.H | #.d.2.4.=.=.4.4.4.4.4.5.5.5.5.5.5.5.4.i.4.4.4.4.4.4.4.4.4.4.4.4.4.4.4.p.4.4.4.p.p.p.p.4.4.4.4.4.4.4.=.=.=.*.i.4.4.5.) ~ c , # o o o + # , ^ 4.g.l.l.D.N.s.=.4.s.s.q.q.4.5.5.4.4.4.5.5.w.w.",
"4.4.4.4.4.5.5.5.4.4.4.4.4.<.1.1.2.2.%.%.2.2.2.2.4.4.4.4.4.4.4.4.4.4.4.4.4.4.4.4.4.4.4.4.4.4.4.4.4.4.4.4.4.4.4.4.4.4.4.4.4.4.4.4.4.4.4.4.=.=.=.=.=.4.2.4.4.{ J ~ M , # # # # 3 ) { { >.<.#.#.<.<.5.4.4.4.4.4.4.4.4.5.5.d.d.d.d.d.d.d.d.d.d.d.d.d.d.d.d.5.5.5.5.5.w.w.w.w.d.d.d.w.d.d.d.s.s.s.i.i.4.4.4.=.4.4.4.4.2.4.d.| _ | 5.4.4.=.4.4.4.4.4.4.d.d.w.w.w.w.5.q.d.s.4.4.4.4.4.s.4.4.4.4.4.4.4.4.p.p.4.4.4.4.p.p.4.4.4.4.4.4.4.=.=.&.*.s.4.>.z.) ~ c w # o o o + & 4 ) 5.g.l.l.D.h.i.4.4.4.4.<.q.4.5.5.4.4.4.4.w.w.w.",
"4.4.4.4.4.5.5.5.5.5.4.4.4.4.4.4.2.2.*.*.2.2.2.2.4.4.4.4.4.4.4.p.4.4.4.4.4.4.4.4.4.4.p.p.d.4.4.4.4.4.4.4.4.4.4.4.2.4.4.4.4.4.4.4.4.4.4.4.=.=.=.=.=.4.2.4.2.{ J R M , # # # # t ) { { >.4.#.#.<.4.5.4.4.4.4.5.4.4.5.5.d.d.d.d.d.d.z.z.z.z.d.d.d.p.d.d.d.5.5.5.5.5.5.w.d.d.d.d.w.5.d.d.d.s.s.s.i.i.4.4.4.=.4.4.4.4.2.4.4.d.I | 2.4.4.4.4.4.4.4.4.4.d.d.d.d.d.w.5.w.s.s.4.4.4.4.s.s.4.4.4.4.4.4.4.4.p.p.4.4.4.4.p.p.4.4.4.4.4.2.4.=.=.=.@.s.4.>.z.) D n w # o o o + & q [ 5.g.l.l.D.s.4.4.4.4.4.<.4.4.5.5.4.4.4.4.w.5.5.",
"4.4.4.5.4.5.5.5.5.5.4.4.4.4.>.>.%.2.2.2.2.4.4.4.4.4.4.4.4.4.4.4.4.4.4.4.4.4.4.4.4.4.4.4.4.4.4.4.>.4.4.4.5.4.4.4.2.,.>.>.4.4.>.>.2.2.=.=.=.4.=.=.4.*.4.4.>.#.J L x , # + + # t ! [ O.>.>.>.>.4.<.4.1.1.4.4.4.4.4.4.4.4.5.5.w.w.d.d.j.d.d.d.d.d.d.d.d.p.p.p.d.d.d.4.4.d.d.d.d.d.d.d.d.d.p.4.4.4.4.s.q.4.=.<.=.=.=.4.4.=.p.d.s 4.4.4.4.=.%.4.=.=.s.d.d.d.d.d.d.d.d.d.d.s.s.s.s.4.4.4.4.4.4.4.4.4.4.4.4.4.4.4.4.4.4.4.4.4.4.4.=.=.=.=.=.4.%.%.w.5.{ D n , # + o o + & ~ >.4.w.c.n.l.4.4.4.<.4.4.4.4.4.4.4.5.5.5.5.5.5.5.",
"4.4.4.5.4.5.5.5.5.5.4.4.4.4.>.>.2.4.2.2.4.4.4.4.4.4.4.4.4.4.4.4.4.4.4.4.4.4.4.4.4.4.4.4.4.4.4.4.>.4.4.4.4.4.4.2.4.,.4.4.4.4.4.>.2.2.=.=.=.4.=.=.4.*.4.4.>.#.I l x , # + + # f ! [ O.>.>.*.*.4.<.4.1.4.4.4.4.4.4.4.5.5.5.w.w.w.d.j.d.d.d.d.d.d.d.d.d.p.p.p.p.d.d.4.p.d.d.d.d.d.d.d.d.d.4.4.4.4.4.s.q.4.=.=.=.=.4.4.4.=.4.d.U ] 4.=.4.4.=.4.4.=.s.s.d.d.d.d.d.d.d.d.s.s.s.s.s.4.4.4.4.4.4.4.4.4.4.4.4.4.4.4.4.4.4.4.4.4.4.4.=.=.=.%.%.<.=.>.w.5.{ D c , # + o o + & ~ >.4.d.z.c.j.<.<.4.<.4.4.4.4.4.4.4.5.5.5.5.5.5.5.",
"4.4.4.5.4.5.5.5.5.5.4.4.4.4.4.4.4.4.4.4.4.4.4.4.4.4.4.4.4.4.4.4.4.=.4.4.4.4.4.4.s.s.4.4.4.4.4.4.>.2.4.4.4.4.2.>.2.4.4.4.4.4.4.4.4.4.=.=.4.4.=.=.=.*.4.*.2.2.R l x , # + + # t ! [ O.>.>.*.*.=.<.4.4.4.4.4.4.4.4.4.5.w.w.w.w.d.w.d.d.d.d.d.d.d.d.d.d.p.4.4.p.d.d.p.p.d.d.d.p.p.p.p.p.4.4.4.4.4.4.s.q.4.=.=.=.=.=.4.4.=.4.p.%.s #.%.4.4.=.4.4.=.4.s.s.d.d.d.d.s.s.d.s.s.s.s.s.4.4.4.4.4.4.4.4.4.4.s.4.i.4.4.4.4.4.4.4.4.4.=.=.=.=.=.%.4.=.>.5.5.{ D c , # + o o + 3 ! >.4.5.z.z.d.<.<.4.<.4.4.4.4.4.4.4.4.5.5.5.5.4.4.",
"4.4.4.5.4.5.5.5.5.5.4.4.4.4.4.2.4.4.4.4.4.4.4.4.4.4.4.4.4.4.4.4.4.4.4.4.4.4.4.4.s.s.4.4.4.4.4.4.4.4.4.4.4.4.4.>.>.>.4.4.4.2.4.4.4.4.4.4.=.=.=.=.=.*.4.%.2.2.R l x , # + + # f ! [ O.>.>.*.*.=.4.4.4.4.4.4.4.4.5.5.5.w.d.d.d.d.d.d.d.d.d.d.d.d.d.p.p.4.4.4.4.p.p.p.p.d.d.p.p.4.4.4.4.4.4.4.4.4.4.4.=.=.=.=.=.=.=.4.4.4.4.4.d.2 _ #.4.4.=.4.4.=.4.s.s.s.d.d.s.s.s.s.s.s.s.s.s.4.4.4.4.4.4.4.4.4.4.s.4.4.4.4.4.4.4.4.4.4.4.=.=.=.=.=.%.4.<.>.4.5.O.D c , # + o o + 8 ! ,.4.5.z.j.q.<.<.4.<.4.4.4.4.4.4.4.4.5.5.4.4.4.4.",
"4.4.4.1.5.5.5.5.5.5.5.5.4.4.4.4.4.4.4.4.4.4.4.4.4.4.4.4.4.4.4.4.4.=.=.4.4.4.4.4.s.4.4.4.4.4.4.4.4.4.4.4.4.4.4.>.>.>.4.4.>.>.>.4.4.4.4.4.4.4.=.=.=.*.4.%.2.4.! l x , # + + # t ! [ O.>.>.2.2.=.4.4.4.4.4.4.4.5.5.5.5.d.d.j.d.d.d.d.d.d.d.d.p.p.p.4.4.4.4.4.4.p.p.4.p.p.p.4.4.4.4.4.4.4.4.4.4.4.4.4.4.=.=.=.=.4.4.4.4.4.4.4.c.u I ] 4.4.=.4.4.=.4.4.4.s.d.d.s.s.s.s.4.4.4.s.s.4.4.4.4.4.4.4.4.4.4.4.4.4.4.4.4.4.4.4.4.4.=.4.4.4.4.<.%.4.<.#.<.5.>.D c , # + o o + p ` ,.4.5.j.d.4.<.<.4.<.4.4.4.4.5.4.4.4.4.4.5.5.4.4.",
"4.4.4.5.5.5.5.5.5.5.5.4.4.4.4.4.4.4.4.4.4.4.4.4.4.4.4.4.4.4.4.4.4.=.4.=.4.4.4.4.4.4.4.4.4.4.4.4.4.4.4.4.4.4.4.4.>.4.4.4.>.>.>.4.4.4.4.4.4.4.=.=.=.%.4.%.2.p.! l x , # + + # t ! [ O.>.>.2.2.4.4.4.4.4.4.4.4.5.5.5.5.d.d.d.d.d.d.d.d.d.d.p.p.4.4.4.4.4.4.4.4.4.p.4.4.4.4.4.4.4.4.4.4.4.4.4.4.4.4.4.4.=.=.=.4.4.4.4.4.4.4.4.j.] s _ 4.4.=.4.4.=.4.4.4.4.s.s.s.s.s.4.4.4.4.s.s.4.4.4.4.4.4.4.4.4.4.4.4.4.4.4.4.4.4.4.4.4.=.4.4.4.4.<.%.4.<.>.<.1.>.D c , & + o o + f [ ,.4.p.j.d.4.<.<.4.<.4.4.4.4.5.5.4.4.4.5.4.4.4.4.",
"4.4.4.5.5.5.5.5.5.5.4.4.1.4.4.4.4.4.4.4.4.4.4.4.4.4.4.4.4.4.4.4.4.=.=.=.4.4.4.4.4.4.4.4.4.4.4.4.5.5.4.4.4.4.4.4.>.4.5.5.4.>.4.4.4.4.4.4.4.=.=.=.=.%.4.#.2.p.{ z x , # + + # t ! [ O.>.>.2.2.4.4.4.4.4.4.4.4.5.5.w.d.d.d.d.d.d.d.d.d.d.d.p.4.4.4.4.4.4.4.4.4.4.4.4.4.4.4.4.4.4.4.4.4.4.4.4.4.4.4.4.=.=.=.=.4.4.4.4.=.4.4.4.p.j.u Y 4.s.=.4.4.=.4.4.4.4.s.s.s.s.s.4.4.4.4.s.s.4.4.4.4.4.4.4.4.4.4.4.4.4.4.4.4.4.4.4.4.4.=.=.4.4.4.<.*.4.<.#.>.1.1.D c , & + o o + m [ >.4.p.z.d.4.<.<.4.<.4.4.4.4.5.5.5.5.4.4.4.4.4.4.",
"4.4.4.5.4.5.5.5.5.5.1.1.1.4.4.4.4.4.4.4.4.4.4.2.4.4.4.4.4.4.4.4.4.=.=.=.4.4.4.4.4.4.4.4.4.4.4.p.5.5.5.4.4.4.4.4.4.5.d.5.4.4.4.5.4.4.4.4.4.4.=.=.=.%.4.#.2.p.{ z x , # + + # t ! [ O.>.2.2.2.4.4.4.4.4.4.4.5.5.5.d.d.w.w.w.d.d.d.d.d.d.d.i.4.4.4.4.4.4.4.4.4.4.4.4.4.4.4.4.4.4.4.4.4.4.4.4.4.4.4.4.=.=.=.=.4.4.4.4.=.s.4.4.4.H.u U 4.s.=.4.4.=.4.4.4.4.4.s.s.s.s.4.4.4.4.s.s.4.4.4.4.4.4.4.4.4.4.4.4.4.4.=.=.=.=.4.4.=.=.=.4.4.4.<.#.4.<.#.#.1.1.D c , & + o o + m [ >.4.p.z.d.4.=.<.4.<.4.4.4.4.5.5.5.5.5.4.4.4.4.4.",
"5.5.5.5.4.4.4.4.4.4.5.5.5.5.5.5.4.4.4.4.4.4.4.4.4.4.4.4.4.4.4.4.4.q.q.q.4.4.4.4.4.4.4.4.4.4.4.4.5.5.5.5.4.4.5.5.4.4.4.5.5.5.5.5.4.4.4.4.4.4.=.=.4.=.4.4.2.4.>.~ 4 , # + # # & S [ O.>.2.2.2.4.4.=.=.4.4.4.4.4.4.d.s.s.s.s.4.4.4.d.d.d.p.p.p.4.4.4.4.4.4.4.4.4.4.4.4.4.4.4.4.4.4.4.4.4.4.4.4.4.4.4.=.=.=.4.4.4.4.4.4.4.i.4.%.j.4.] 4.s.%.=.4.=.=.4.4.4.4.4.4.4.4.4.4.4.4.4.4.4.4.4.4.4.4.4.4.4.4.4.4.4.4.=.=.=.=.4.4.4.4.4.4.4.4.=.=.=.<.<.<.1.1.S t , & + o o o m [ ,.5.d.j.w.4.=.=.4.<.4.4.4.4.4.4.5.4.4.4.5.5.4.4.",
"4.5.4.4.4.5.5.5.4.4.4.4.5.5.5.5.4.4.4.4.4.4.4.4.4.4.4.4.4.4.4.4.4.q.q.q.4.4.4.4.4.4.4.4.4.4.4.4.1.1.5.5.4.4.4.4.4.4.4.5.5.5.5.5.4.4.4.4.4.4.=.=.4.%.4.4.2.2.>.~ q , # # # + & S [ o.>.2.4.2.4.4.=.=.4.4.4.4.4.4.s.s.s.s.s.4.4.4.d.d.p.p.p.4.4.4.4.4.4.4.4.4.4.4.4.4.4.4.4.4.4.4.4.4.4.4.4.4.4.4.4.=.=.=.4.4.4.4.4.4.4.s.4.4.c.4.] s.s.=.4.4.4.4.4.4.4.4.4.4.4.4.4.4.4.4.4.4.4.4.4.4.4.4.4.4.4.4.=.4.4.4.=.=.=.=.4.4.4.4.4.4.4.4.=.=.=.=.<.<.1.<.D t , & # o o # m [ >.5.d.d.w.4.=.=.<.<.4.4.4.4.5.4.5.5.4.4.5.4.4.4.",
"4.4.4.4.4.5.5.5.4.4.4.4.4.4.5.4.4.4.4.4.4.4.4.4.4.4.4.4.4.4.4.4.4.4.q.q.4.4.4.4.4.4.4.4.4.4.4.4.1.1.4.4.4.4.4.4.4.4.4.5.5.5.5.5.4.4.4.4.=.=.=.=.4.%.2.4.2.2.2.! c , # # # + # l [ { >.>.2.%.4.4.=.=.4.4.4.4.i.4.i.i.i.i.i.i.i.i.p.p.p.5.4.4.4.4.4.4.4.4.4.4.4.4.4.4.4.4.4.4.4.4.4.4.4.4.4.4.4.4.4.=.4.4.4.4.4.4.4.4.4.s.4.4.n.4.@.s.s.=.4.4.4.4.4.4.4.4.4.4.4.4.4.4.4.4.4.4.4.4.=.4.4.4.4.4.4.4.=.=.4.4.=.=.=.=.4.4.4.4.4.4.4.4.=.=.=.=.<.<.<.<.^ t > # # + o # m [ >.4.d.d.w.4.=.=.<.<.4.4.4.4.5.5.5.4.4.4.4.4.4.4.",
"4.4.4.4.4.5.5.5.4.4.4.4.4.4.4.4.4.4.4.4.4.4.4.4.4.4.4.4.4.4.4.4.4.=.=.=.4.4.4.4.4.4.4.4.4.4.4.4.4.4.4.4.4.4.4.4.4.4.4.4.4.5.4.4.4.4.4.4.4.=.=.=.4.=.4.4.2.4.2.[ c x & # # + # z [ O.>.>.%.%.4.4.4.4.4.4.4.4.4.4.4.4.4.4.i.i.i.i.p.5.5.5.4.4.4.4.4.4.4.4.4.4.4.4.4.4.4.4.4.4.4.4.4.4.4.4.4.4.4.4.4.=.=.4.4.4.4.4.4.4.4.4.4.4.n.4.#.s.4.=.4.4.4.4.4.4.4.4.4.4.4.4.4.4.4.4.4.4.4.4.4.4.4.4.4.4.4.4.4.4.4.4.4.4.4.4.4.4.4.4.4.4.4.4.=.=.4.4.1.1.1.1.) n & # + o o o m ` >.4.d.d.w.4.=.=.<.<.4.4.4.4.5.5.5.4.4.4.4.4.5.5.",
"4.4.4.4.4.5.5.5.4.4.4.4.4.4.4.4.4.4.4.4.4.4.4.4.4.4.4.4.4.4.4.4.4.=.=.=.4.4.4.4.4.4.4.4.4.4.4.4.4.4.4.4.4.4.4.4.4.4.4.4.4.4.4.4.4.4.4.4.4.=.=.=.4.=.4.4.2.5.5.[ c x & # # + # z [ O.>.>.%.%.=.4.=.=.4.4.4.4.4.4.4.4.4.4.4.s.s.i.4.4.4.4.4.4.4.4.4.4.4.4.4.4.4.4.4.4.4.4.4.4.4.4.4.4.4.4.4.4.4.4.4.4.4.4.4.4.4.4.4.s.4.4.4.4.b.%.%.4.4.=.4.4.4.4.4.4.4.4.4.4.4.4.4.4.4.4.=.=.=.=.4.4.4.4.4.4.4.4.4.4.4.4.4.4.4.4.4.4.4.4.=.4.4.4.<.<.4.4.1.1.1.1.;.D > # + o o o m ` >.4.5.d.w.4.<.<.4.<.4.4.4.4.5.5.5.4.4.4.4.4.5.5.",
"5.4.4.4.4.4.4.4.4.4.4.4.4.4.4.4.4.4.4.4.4.4.4.4.4.4.4.4.4.4.4.4.4.=.=.=.4.4.4.4.4.4.4.4.4.4.4.4.4.4.4.4.4.4.4.4.4.4.4.4.4.4.4.4.4.4.4.4.=.=.=.=.4.=.4.4.2.4.2.! c x & # # + # z [ O.#.%.%.%.=.4.4.4.4.4.4.4.4.4.4.4.4.4.4.4.4.4.4.4.4.4.4.4.4.4.4.4.4.4.4.4.4.4.4.4.4.4.4.4.4.4.4.4.4.4.4.4.4.4.4.4.4.4.4.4.4.4.4.s.4.4.4.4.b.| 4.s.4.=.4.4.=.4.4.4.4.4.4.4.4.4.4.4.4.4.4.=.=.=.4.4.4.4.4.4.4.4.4.4.4.4.4.4.4.4.4.4.4.4.4.4.4.4.<.<.<.<.4.4.1.1.;.G 3 & # + o # m ` >.4.5.d.4.4.<.<.4.<.4.4.4.4.5.5.4.4.4.4.4.4.4.4.",
"5.5.5.4.1.4.4.4.4.4.4.4.4.4.4.4.4.4.4.4.4.4.4.4.4.4.4.4.4.4.4.<.4.=.=.=.4.4.4.4.4.4.4.4.4.4.4.4.4.4.4.4.4.4.4.4.4.4.4.>.<.4.4.4.4.4.4.4.=.=.=.=.4.*.4.4.2.4.>.~ c 4 & # # + # l [ { #.#.%.%.=.4.4.4.4.4.4.4.4.4.4.4.4.4.4.4.4.4.4.4.4.4.4.4.4.4.4.4.4.4.4.4.4.4.4.4.4.4.4.4.4.4.4.4.4.4.4.4.4.4.4.=.=.=.4.4.4.4.=.s.4.4.4.d.n.#.s.d.4.4.s.4.=.4.4.4.4.4.4.4.4.4.4.4.4.4.4.4.4.4.4.=.4.4.4.4.4.4.4.4.4.4.4.4.4.4.4.4.4.4.4.4.4.4.<.<.<.<.4.4.1.1.) D 3 & + o o # m ` >.2.5.d.4.4.<.<.4.<.4.4.4.4.4.4.4.5.4.5.5.5.5.5.",
"5.5.5.5.1.1.1.1.4.4.1.1.1.4.4.4.4.4.4.4.4.4.4.4.4.4.4.4.4.4.4.4.4.4.4.4.4.4.4.4.4.4.4.4.4.4.4.4.4.1.4.1.4.1.4.1.4.1.>.>.>.<.4.4.4.4.4.4.4.=.=.=.4.%.4.4.2.2.X.m t , # # # + & l { { #.#.#.#.<.<.4.4.4.4.4.4.4.4.i.4.4.4.4.4.4.4.4.4.4.4.4.4.4.4.4.4.4.4.4.4.4.4.4.4.4.4.4.4.4.4.4.4.5.5.5.5.5.5.4.<.4.<.4.4.4.4.*.4.4.4.4.j.m.#.d.j.5.4.d.4.2.4.4.4.4.4.4.4.4.4.4.4.4.4.4.4.4.4.4.4.4.4.4.4.4.4.4.4.4.4.4.4.4.4.4.4.4.4.4.4.4.4.1.4.4.1.1.1.1.1.D c : # o . o # m ` >.2.5.d.5.4.4.4.4.4.4.4.4.4.1.1.1.1.5.5.5.5.z.z.",
"E E E E ^ ) O.;.>.<.,.,.1.1.5.5.w.w.w.4.1.<.>.#.>.>.>.<.1.<.1.<.%.<.4.4.4.4.<.%.4.<.>.#.>.>.4.4.1.1.1.<.<.1.4.1.1.1.<.<.>.>.>.#.>.>.>.>.>.>.>.>.>.>.4.4.>.{ _ z t , & # + + > z / { O.<.<.<.<.<.%.%.4.%.4.%.4.%.4.4.4.4.4.4.4.<.5.1.1.1.3.,.2.,.,.,.,.,.,.,.2.,.1.1.1.1.1.1.1.1.>.1.1.1.1.1.1.1.1.1.4.,.2.,.,.,.4.1.5.5.a.r.>.l 3 ~ { ! ~ ! ! R { { >.,.5.5.5.5.3.1.3.,.,.,.,.,.5.5.1.1.3.1.3.1.4.4.4.4.4.4.4.5.5.5.5.5.5.5.5.5.1.,.,.7.7.,. .G 4 4 $ # + o + # D [ >.,.5.z.z.5.,.,.,.,.1.1.1.1.1.1.1.,.,.;. .) ^ ^ ",
"S S S S S G ^ { ^ ^ ^ ^ ^ ^ ^ ^ D C R E ( / { { O.O.;.O.>.>.>.>.>.<.>.<.4.w.d.d.5.4.4.>.>.#.#.#.O.O.O.O.>.>.>.<.<.<.<.<.<.<.>.>.4.4.5.5.5.5.5.5.,.>.,.>.>.] I d t 3 > & + + > z ^ { O.O.O.O.O.O.1.<.4.<.4.1.4.1.5.4.1.4.4.4.4.4.{ ....{ { { { ) ....>.;.>.>.,.,.;.;.;.;.;.;.;.;.,.,.:.:.;.;.;.;.,.,.>.>.>.;.>.>.{ ) ~ m ~ ! ~ t 3 f ~ D m m ~ m f n m ~ ! ! { ) ................! ! ! E ~ ~ ~ ~ ! E ! ( ! ( ( ( { { { { { { { { ,.6.6.:. .G v , 4 , : # + + + # m E [ { ;.>.;.{ >.;.>.>.,.>.,.,.)  .^ ^ G G G N M M ",
"y y t t y c S D S S S n c y y z r z z z y z z B z B S D G D E R { ( ( ( { O.,.1.w.5.1.>.O.{ { { ( / / / / / { { O.O.O.O.O.O.O.O.O.O.{ O.>.O.;.O.{ { [ ) ! S z 8 c 4 > & # + & 3 D D G G D S S D l l f d f d f d m z m z l z k f m n n n n f f t 3 3 8 y t t n n ................) ^ ^ G D D D n t t t t t 4 q 4 m n q > 3 q f t 3 > 3 t f t 8 t 3 3 3 3 t t f t m n n n n n n n t t q 3 3 3 3 3 8 3 8 3 t y t t f c c c f t f c c N G G v , , , , , , $ # + + # t S ~ D D D n t D D ~ G E ^ ! ^ M M c c c c v M c c ",
"t t y y y y y y n n n y y y y y S n y y r 3 3 2 > > 3 3 y r r r z z r 2 r z S D ;.O.{ / E S S B z B z z z B S S S S S S S S S S r t f t f y f y n n f n z y r 3 c 4 , & # + # > c y y y y > 2 y > > & > & & & & * > * > * & * & 5 , , , > > > > , , , > > > > > 4 , 4 , 3 , 3 , y , 3 , > > > & , > > > > & & > , 3 4 4 4 4 4 4 5 & # 3 t , > , 4 3 3 , 5 , 3 4 > > , > > > > > 3 , , , , , , , & > , , , , , , , , , , , , , , # & : , : : , , : , , $ & # # # t c n t 3 3 > & > > > > 3 3 3 y t c 4 4 4 x c c 4 4 ",
"3 3 3 , , 3 , , 3 3 3 3 4 3 4 3 , , 3 3 3 , 3 3 > 3 3 3 q q q q t y y y r r t y z y y z y 2 3 2 z y t r r r t y z y t r y 3 3 3 3 , 3 3 3 3 3 3 4 3 3 3 y y 4 4 4 , $ & # + # & c c c t 3 , 3 4 4 x x w ; , * , * * * * * , * , $ & $ $ & & & & , , , : $ $ : $ # # # # # # # # $ : $ & & & & # : : , $ & & & & # & , , , : $ : , # + : 4 : & : , : $ & & & & & , : , : > > , : & & & & & & & & $ $ $ $ $ $ $ $ * * * * * $ * $ , : $ $ : : $ & & $ $ $ # # # # : , 3 > & & & # & & & & > > , , , , , 4 4 , , & , , ",
"& & & & & & & & & & & & $ > , > & & & & & > * > 5 3 4 3 4 4 w 4 , , y y t y c c 3 , 3 < 3 y y y t t t t y t t t n t t t 3 3 , > , , , , , , , , x 4 4 , 4 , , , , & & & # # # # , 3 4 3 > > , , * * * $ $ $ $ $ # + # @ # + # + $ & $ & $ & $ & + o + o + # # + $ $ $ : $ $ $ $ + + + + + # + + + # + # + o + o $ + # & # # $ : $ # + + $ & # & $ # # + + # + # $ & $ & $ & $ & + + + # + # + + $ $ $ $ $ $ $ $ $ $ $ $ $ $ $ $ , $ # # $ $ # + # # & # # + + # # & # # + # # o # # # # # & & & & & , , , & & # # # ",
"+ # # # # # # # # # # # # # # & $ $ & & & & & & $ , * , * $ $ & & # > > , , 4 < , , , , , < y y > > , , , y y t t t y 3 3 , , , & : $ : $ : $ : , : , : , , , : & # + # & # + # + # & & & & & & , 1 * * * $ $ $ $ $ $ $ $ $ $ $ + O + O + O + O + + + + + + $ $ o o o o o o o o O O O O O O O o $ $ $ @ $ + + + $ O O O + o + $ o o o o o o + o O O + O + o O o o o o o o o + o + O + O + O + O @ @ @ @ $ @ $ $ @ @ @ @ @ @ @ + + + + + # # # # + + # + + + + + o O o o o O + o o o o O + O + # & & & & & & & # # # ",
"+ + # # # # # # + + + + + + + + + + + # # & & & & & $ $ & & # # # O # # # & : : : & : : : & & & # # # & & , 4 4 , , , , , , & & & & & & & & & & & + & $ : , : : # + + # & # + # + + & & & & $ $ $ $ $ $ $ + $ + + + + + + + + + o o o o o o o o + O O o o o o o O O O O O O O O O O O O O O o o O O O O O O O O + o o + @ o o o X o o     o o o X o o o o o o o o o o o o O O O O O O o o O O O o o O O o O O O O O O O O O O O + # & # + + + # o o + o o o o O o O o o o + + O o O O O O O o o # # # + # # # # # # ",
"# # # # # $ $ $ + # # # # # + + # + + + + # & & # # # # # + # + # + # # # # + # + + + # # O O O + + + + + + + + , * $ $ & & * $ + o o o o o o o o o + + + + o o # & & # + + # # # # # + + + + + + + + + + + + + + + + o o o o o o o o o o o o o o o o O O o o o o X o o o o o o o o o o o o o o o o o o o o o o o o o o o o o o o o o o o o o o o o o o o o o o o o o o o o o o o o o o o O O o o o o o o o o o o o o o O o o o + + + + + + + + + + + + + + + o + O o o o o o o o o o o o o O o + + + # # # + + # # ",
"# # # # # & $ $ * * * * , * * * $ # # + + + + # # # # # # + # + # + + + # # # # + + + # # O O O + + + # # # # # $ & & & & & & & # + + + + + + $ $ , , , , , , $ * * * $ & # $ $ $ & # # # # # # # + + + + + + # + # # O o o o o o o o o o o o o o o o O O o o o X X o o o o o o o o o o o o o o o o o o o o o o o o o o o o o o o o o o o o o o o o o o o o o o o o o o o o o o o o o o o O O o o o o o o o o o o o O O O O O o + + + + + + + + + + + + + + + o + O o o o o o o o o o o o o O o # # # & & & # + # # "
};
